%
(Header)
(Generated by gcodetools from Inkscape.)
(Using default header. To add your own header create file "header" in the output dir.)
M3 S1 F500
(Header end.)
G21 (All units in mm)

(Start cutting path id: path3755)
(Change tool to Default tool)

M63 P0
G00 X98.607878 Y160.453492

M62 P0(Penetrate)
G01 X97.902494 Y161.158875 Z0.000000 F100.000000
G01 X97.902494 Y161.864259 Z0.000000
G01 X98.960568 Y161.864259 Z0.000000
G01 X98.960568 Y161.687269 Z0.000000
G01 X99.136268 Y161.511568 Z0.000000
G01 X100.194345 Y161.511568 Z0.000000
G01 X100.371335 Y161.687269 Z0.000000
G01 X100.371335 Y162.392652 Z0.000000
G01 X100.194345 Y162.569642 Z0.000000
G01 X98.960568 Y162.569642 Z0.000000
G01 X98.960568 Y163.627718 Z0.000000
G01 X100.194345 Y163.627718 Z0.000000
G01 X100.371335 Y163.804709 Z0.000000
G01 X100.371335 Y164.333102 Z0.000000
G01 X101.429411 Y164.333102 Z0.000000
G01 X101.429411 Y163.275025 Z0.000000
G01 X101.428000 Y163.275025 Z0.000000
G01 X101.253593 Y163.099325 Z0.000000
G01 X101.429293 Y162.922335 Z0.000000
G01 X101.429293 Y161.158875 Z0.000000
G01 X100.723909 Y160.453492 Z0.000000
G01 X98.607759 Y160.453492 Z0.000000
G01 X98.607878 Y160.453492 Z0.000000
M63 P0

(End cutting path id: path3755)


(Start cutting path id: path3755)
(Change tool to Default tool)

M63 P0
G00 X97.902494 Y164.333102

M62 P0(Penetrate)
G01 X97.902494 Y165.038485 Z0.000000 F100.000000
G01 X98.607878 Y165.745158 Z0.000000
G01 X100.724028 Y165.745158 Z0.000000
G01 X101.429411 Y165.038485 Z0.000000
G01 X101.429411 Y164.685792 Z0.000000
G01 X99.136268 Y164.685792 Z0.000000
G01 X98.960568 Y164.510092 Z0.000000
G01 X98.960568 Y164.333102 Z0.000000
G01 X97.902494 Y164.333102 Z0.000000
G01 X97.902494 Y164.333102 Z0.000000
M63 P0

(End cutting path id: path3755)


(Start cutting path id: path3753)
(Change tool to Default tool)

M63 P0
G00 X94.773485 Y160.453492

M62 P0(Penetrate)
G01 X94.068102 Y161.158875 Z0.000000 F100.000000
G01 X94.068102 Y165.038485 Z0.000000
G01 X94.773485 Y165.745158 Z0.000000
G01 X95.126178 Y165.745158 Z0.000000
G01 X95.126178 Y161.687269 Z0.000000
G01 X95.301879 Y161.511568 Z0.000000
G01 X96.184252 Y161.511568 Z0.000000
G01 X96.184252 Y160.453492 Z0.000000
G01 X94.773485 Y160.453492 Z0.000000
G01 X94.773485 Y160.453492 Z0.000000
M63 P0

(End cutting path id: path3753)


(Start cutting path id: path3753)
(Change tool to Default tool)

M63 P0
G00 X96.536945 Y160.453492

M62 P0(Penetrate)
G01 X96.536945 Y164.510092 Z0.000000 F100.000000
G01 X96.359952 Y164.685792 Z0.000000
G01 X95.478869 Y164.685792 Z0.000000
G01 X95.478869 Y165.745158 Z0.000000
G01 X96.889635 Y165.745158 Z0.000000
G01 X97.595019 Y165.038485 Z0.000000
G01 X97.595019 Y161.158875 Z0.000000
G01 X96.889635 Y160.453492 Z0.000000
G01 X96.536945 Y160.453492 Z0.000000
G01 X96.536945 Y160.453492 Z0.000000
M63 P0

(End cutting path id: path3753)


(Start cutting path id: path3751)
(Change tool to Default tool)

M63 P0
G00 X92.172870 Y160.453492

M62 P0(Penetrate)
G01 X92.172870 Y161.511568 Z0.000000 F100.000000
G01 X92.525563 Y161.511568 Z0.000000
G01 X92.702553 Y161.687269 Z0.000000
G01 X92.702553 Y162.392652 Z0.000000
G01 X92.525563 Y162.569642 Z0.000000
G01 X92.172870 Y162.569642 Z0.000000
G01 X92.172870 Y163.627718 Z0.000000
G01 X93.407936 Y163.627718 Z0.000000
G01 X93.760629 Y163.275025 Z0.000000
G01 X93.760629 Y161.158875 Z0.000000
G01 X93.055246 Y160.453492 Z0.000000
G01 X92.172870 Y160.453492 Z0.000000
G01 X92.172870 Y160.453492 Z0.000000
M63 P0

(End cutting path id: path3751)


(Start cutting path id: path3751)
(Change tool to Default tool)

M63 P0
G00 X90.939096 Y160.453492

M62 P0(Penetrate)
G01 X90.233712 Y161.158875 Z0.000000 F100.000000
G01 X90.233712 Y165.038485 Z0.000000
G01 X90.939096 Y165.745158 Z0.000000
G01 X91.820179 Y165.745158 Z0.000000
G01 X91.820179 Y164.685792 Z0.000000
G01 X91.467486 Y164.685792 Z0.000000
G01 X91.291786 Y164.510092 Z0.000000
G01 X91.291786 Y163.627718 Z0.000000
G01 X91.820179 Y163.627718 Z0.000000
G01 X91.820179 Y162.569642 Z0.000000
G01 X91.467486 Y162.569642 Z0.000000
G01 X91.291786 Y162.392652 Z0.000000
G01 X91.291786 Y161.687269 Z0.000000
G01 X91.467486 Y161.511568 Z0.000000
G01 X91.820179 Y161.511568 Z0.000000
G01 X91.820179 Y160.453492 Z0.000000
G01 X90.939096 Y160.453492 Z0.000000
G01 X90.939096 Y160.453492 Z0.000000
M63 P0

(End cutting path id: path3751)


(Start cutting path id: path3751)
(Change tool to Default tool)

M63 P0
G00 X92.702553 Y164.333102

M62 P0(Penetrate)
G01 X92.702553 Y164.510092 Z0.000000 F100.000000
G01 X92.525563 Y164.685792 Z0.000000
G01 X92.172870 Y164.685792 Z0.000000
G01 X92.172870 Y165.745158 Z0.000000
G01 X93.055246 Y165.745158 Z0.000000
G01 X93.760629 Y165.038485 Z0.000000
G01 X93.760629 Y164.333102 Z0.000000
G01 X92.702553 Y164.333102 Z0.000000
G01 X92.702553 Y164.333102 Z0.000000
M63 P0

(End cutting path id: path3751)


(Start cutting path id: path3749)
(Change tool to Default tool)

M63 P0
G00 X87.104703 Y160.453492

M62 P0(Penetrate)
G01 X86.399320 Y161.158875 Z0.000000 F100.000000
G01 X86.399320 Y165.038485 Z0.000000
G01 X87.104703 Y165.745158 Z0.000000
G01 X87.457396 Y165.745158 Z0.000000
G01 X87.457396 Y161.687269 Z0.000000
G01 X87.633094 Y161.511568 Z0.000000
G01 X88.515470 Y161.511568 Z0.000000
G01 X88.515470 Y160.453492 Z0.000000
G01 X87.104703 Y160.453492 Z0.000000
G01 X87.104703 Y160.453492 Z0.000000
M63 P0

(End cutting path id: path3749)


(Start cutting path id: path3749)
(Change tool to Default tool)

M63 P0
G00 X88.868163 Y160.453492

M62 P0(Penetrate)
G01 X88.868163 Y164.510092 Z0.000000 F100.000000
G01 X88.691170 Y164.685792 Z0.000000
G01 X87.810087 Y164.685792 Z0.000000
G01 X87.810087 Y165.745158 Z0.000000
G01 X89.220853 Y165.745158 Z0.000000
G01 X89.926237 Y165.038485 Z0.000000
G01 X89.926237 Y161.158875 Z0.000000
G01 X89.220853 Y160.453492 Z0.000000
G01 X88.868163 Y160.453492 Z0.000000
G01 X88.868163 Y160.453492 Z0.000000
M63 P0

(End cutting path id: path3749)


(Start cutting path id: path3747)
(Change tool to Default tool)

M63 P0
G00 X79.745979 Y160.453492

M62 P0(Penetrate)
G01 X79.040595 Y161.158875 Z0.000000 F100.000000
G01 X79.040595 Y161.864259 Z0.000000
G01 X80.098672 Y161.864259 Z0.000000
G01 X80.098672 Y161.687269 Z0.000000
G01 X80.274372 Y161.511568 Z0.000000
G01 X80.627062 Y161.511568 Z0.000000
G01 X80.627062 Y160.453492 Z0.000000
G01 X79.745979 Y160.453492 Z0.000000
G01 X79.745979 Y160.453492 Z0.000000
M63 P0

(End cutting path id: path3747)


(Start cutting path id: path3747)
(Change tool to Default tool)

M63 P0
G00 X80.979756 Y160.453492

M62 P0(Penetrate)
G01 X80.979756 Y161.511568 Z0.000000 F100.000000
G01 X81.332446 Y161.511568 Z0.000000
G01 X81.509439 Y161.687269 Z0.000000
G01 X81.509439 Y162.392652 Z0.000000
G01 X81.332446 Y162.569642 Z0.000000
G01 X79.393288 Y162.569642 Z0.000000
G01 X79.040595 Y162.922335 Z0.000000
G01 X79.040595 Y165.038485 Z0.000000
G01 X79.745979 Y165.745158 Z0.000000
G01 X80.627062 Y165.745158 Z0.000000
G01 X80.627062 Y164.685792 Z0.000000
G01 X80.274372 Y164.685792 Z0.000000
G01 X80.098672 Y164.510092 Z0.000000
G01 X80.098672 Y163.804709 Z0.000000
G01 X80.274372 Y163.627718 Z0.000000
G01 X82.214822 Y163.627718 Z0.000000
G01 X82.567512 Y163.275025 Z0.000000
G01 X82.567512 Y161.158875 Z0.000000
G01 X81.862129 Y160.453492 Z0.000000
G01 X80.979756 Y160.453492 Z0.000000
G01 X80.979756 Y160.453492 Z0.000000
M63 P0

(End cutting path id: path3747)


(Start cutting path id: path3747)
(Change tool to Default tool)

M63 P0
G00 X81.509439 Y164.333102

M62 P0(Penetrate)
G01 X81.509439 Y164.510092 Z0.000000 F100.000000
G01 X81.332446 Y164.685792 Z0.000000
G01 X80.979756 Y164.685792 Z0.000000
G01 X80.979756 Y165.745158 Z0.000000
G01 X81.862129 Y165.745158 Z0.000000
G01 X82.567512 Y165.038485 Z0.000000
G01 X82.567512 Y164.333102 Z0.000000
G01 X81.509439 Y164.333102 Z0.000000
G01 X81.509439 Y164.333102 Z0.000000
M63 P0

(End cutting path id: path3747)


(Start cutting path id: path3745)
(Change tool to Default tool)

M63 P0
G00 X75.206206 Y160.453492

M62 P0(Penetrate)
G01 X75.206206 Y165.745158 Z0.000000 F100.000000
G01 X76.264279 Y165.745158 Z0.000000
G01 X76.264279 Y160.453492 Z0.000000
G01 X75.206206 Y160.453492 Z0.000000
G01 X75.206206 Y160.453492 Z0.000000
M63 P0

(End cutting path id: path3745)


(Start cutting path id: path3745)
(Change tool to Default tool)

M63 P0
G00 X77.675046 Y160.453492

M62 P0(Penetrate)
G01 X77.675046 Y162.392652 Z0.000000 F100.000000
G01 X77.498053 Y162.569642 Z0.000000
G01 X76.616972 Y162.569642 Z0.000000
G01 X76.616972 Y163.627718 Z0.000000
G01 X77.498053 Y163.627718 Z0.000000
G01 X77.675046 Y163.804709 Z0.000000
G01 X77.675046 Y164.510092 Z0.000000
G01 X77.498053 Y164.685792 Z0.000000
G01 X76.616972 Y164.685792 Z0.000000
G01 X76.616972 Y165.745158 Z0.000000
G01 X78.027739 Y165.745158 Z0.000000
G01 X78.733123 Y165.038485 Z0.000000
G01 X78.733123 Y163.275025 Z0.000000
G01 X78.731712 Y163.275025 Z0.000000
G01 X78.557304 Y163.099325 Z0.000000
G01 X78.733004 Y162.922335 Z0.000000
G01 X78.733004 Y160.453492 Z0.000000
G01 X77.674928 Y160.453492 Z0.000000
G01 X77.675046 Y160.453492 Z0.000000
M63 P0

(End cutting path id: path3745)


(Start cutting path id: path3743)
(Change tool to Default tool)

M63 P0
G00 X72.077197 Y160.453492

M62 P0(Penetrate)
G01 X71.371813 Y161.158875 Z0.000000 F100.000000
G01 X71.371813 Y165.038485 Z0.000000
G01 X72.077197 Y165.745158 Z0.000000
G01 X72.958280 Y165.745158 Z0.000000
G01 X72.958280 Y164.685792 Z0.000000
G01 X72.605587 Y164.685792 Z0.000000
G01 X72.429890 Y164.510092 Z0.000000
G01 X72.429890 Y161.687269 Z0.000000
G01 X72.605587 Y161.511568 Z0.000000
G01 X72.958280 Y161.511568 Z0.000000
G01 X72.958280 Y160.453492 Z0.000000
G01 X72.077197 Y160.453492 Z0.000000
G01 X72.077197 Y160.453492 Z0.000000
M63 P0

(End cutting path id: path3743)


(Start cutting path id: path3743)
(Change tool to Default tool)

M63 P0
G00 X73.310971 Y160.453492

M62 P0(Penetrate)
G01 X73.310971 Y161.511568 Z0.000000 F100.000000
G01 X73.663664 Y161.511568 Z0.000000
G01 X73.840657 Y161.687269 Z0.000000
G01 X73.840657 Y164.510092 Z0.000000
G01 X73.663664 Y164.685792 Z0.000000
G01 X73.310971 Y164.685792 Z0.000000
G01 X73.310971 Y165.745158 Z0.000000
G01 X74.193347 Y165.745158 Z0.000000
G01 X74.898730 Y165.038485 Z0.000000
G01 X74.898730 Y161.158875 Z0.000000
G01 X74.193347 Y160.453492 Z0.000000
G01 X73.310971 Y160.453492 Z0.000000
G01 X73.310971 Y160.453492 Z0.000000
M63 P0

(End cutting path id: path3743)


(Start cutting path id: path3741)
(Change tool to Default tool)

M63 P0
G00 X68.771197 Y160.453492

M62 P0(Penetrate)
G01 X68.771197 Y164.333102 Z0.000000 F100.000000
G01 X69.829271 Y164.333102 Z0.000000
G01 X69.829271 Y160.453492 Z0.000000
G01 X68.771197 Y160.453492 Z0.000000
G01 X68.771197 Y160.453492 Z0.000000
M63 P0

(End cutting path id: path3741)


(Start cutting path id: path3741)
(Change tool to Default tool)

M63 P0
G00 X67.537424 Y164.685792

M62 P0(Penetrate)
G01 X67.537424 Y165.745158 Z0.000000 F100.000000
G01 X71.064338 Y165.745158 Z0.000000
G01 X71.064338 Y164.685792 Z0.000000
G01 X67.537424 Y164.685792 Z0.000000
G01 X67.537424 Y164.685792 Z0.000000
M63 P0

(End cutting path id: path3741)


(Start cutting path id: path3739)
(Change tool to Default tool)

M63 P0
G00 X66.173164 Y160.453492

M62 P0(Penetrate)
G01 X66.173164 Y165.745158 Z0.000000 F100.000000
G01 X67.231241 Y165.745158 Z0.000000
G01 X67.231241 Y160.453492 Z0.000000
G01 X66.173164 Y160.453492 Z0.000000
G01 X66.173164 Y160.453492 Z0.000000
M63 P0

(End cutting path id: path3739)


(Start cutting path id: path3737)
(Change tool to Default tool)

M63 P0
G00 X64.277932 Y160.453492

M62 P0(Penetrate)
G01 X64.277932 Y161.511568 Z0.000000 F100.000000
G01 X64.630622 Y161.511568 Z0.000000
G01 X64.807615 Y161.687269 Z0.000000
G01 X64.807615 Y162.216952 Z0.000000
G01 X65.865689 Y162.216952 Z0.000000
G01 X65.865689 Y161.158875 Z0.000000
G01 X65.160305 Y160.453492 Z0.000000
G01 X64.277932 Y160.453492 Z0.000000
G01 X64.277932 Y160.453492 Z0.000000
M63 P0

(End cutting path id: path3737)


(Start cutting path id: path3737)
(Change tool to Default tool)

M63 P0
G00 X63.044158 Y160.453492

M62 P0(Penetrate)
G01 X62.338774 Y161.158875 Z0.000000 F100.000000
G01 X62.338774 Y165.038485 Z0.000000
G01 X63.044158 Y165.745158 Z0.000000
G01 X63.925239 Y165.745158 Z0.000000
G01 X63.925239 Y164.685792 Z0.000000
G01 X63.572548 Y164.685792 Z0.000000
G01 X63.396848 Y164.510092 Z0.000000
G01 X63.396848 Y161.687269 Z0.000000
G01 X63.572548 Y161.511568 Z0.000000
G01 X63.925239 Y161.511568 Z0.000000
G01 X63.925239 Y160.453492 Z0.000000
G01 X63.044158 Y160.453492 Z0.000000
G01 X63.044158 Y160.453492 Z0.000000
M63 P0

(End cutting path id: path3737)


(Start cutting path id: path3737)
(Change tool to Default tool)

M63 P0
G00 X64.807615 Y163.980409

M62 P0(Penetrate)
G01 X64.807615 Y164.510092 Z0.000000 F100.000000
G01 X64.630622 Y164.685792 Z0.000000
G01 X64.277932 Y164.685792 Z0.000000
G01 X64.277932 Y165.745158 Z0.000000
G01 X65.160305 Y165.745158 Z0.000000
G01 X65.865689 Y165.038485 Z0.000000
G01 X65.865689 Y163.980409 Z0.000000
G01 X64.807615 Y163.980409 Z0.000000
G01 X64.807615 Y163.980409 Z0.000000
M63 P0

(End cutting path id: path3737)


(Start cutting path id: path3735)
(Change tool to Default tool)

M63 P0
G00 X57.791246 Y160.453492

M62 P0(Penetrate)
G01 X59.114163 Y165.745158 Z0.000000 F100.000000
G01 X60.700630 Y165.745158 Z0.000000
G01 X62.023546 Y160.453492 Z0.000000
G01 X60.877623 Y160.453492 Z0.000000
G01 X60.524929 Y161.864259 Z0.000000
G01 X59.642556 Y161.864259 Z0.000000
G01 X59.907396 Y162.922335 Z0.000000
G01 X60.260089 Y162.922335 Z0.000000
G01 X59.907396 Y164.333102 Z0.000000
G01 X58.937173 Y160.453492 Z0.000000
G01 X57.791246 Y160.453492 Z0.000000
G01 X57.791246 Y160.453492 Z0.000000
M63 P0

(End cutting path id: path3735)


(Start cutting path id: path3733)
(Change tool to Default tool)

M63 P0
G00 X53.956856 Y160.453492

M62 P0(Penetrate)
G01 X53.956856 Y165.745158 Z0.000000 F100.000000
G01 X55.014930 Y165.745158 Z0.000000
G01 X55.014930 Y160.453492 Z0.000000
G01 X53.956856 Y160.453492 Z0.000000
G01 X53.956856 Y160.453492 Z0.000000
M63 P0

(End cutting path id: path3733)


(Start cutting path id: path3733)
(Change tool to Default tool)

M63 P0
G00 X55.367623 Y162.569642

M62 P0(Penetrate)
G01 X55.367623 Y163.627718 Z0.000000 F100.000000
G01 X56.248707 Y163.627718 Z0.000000
G01 X56.425697 Y163.804709 Z0.000000
G01 X56.425697 Y164.510092 Z0.000000
G01 X56.248707 Y164.685792 Z0.000000
G01 X55.367623 Y164.685792 Z0.000000
G01 X55.367623 Y165.745158 Z0.000000
G01 X56.778390 Y165.745158 Z0.000000
G01 X57.483773 Y165.038485 Z0.000000
G01 X57.483773 Y163.275025 Z0.000000
G01 X56.778390 Y162.569642 Z0.000000
G01 X55.367623 Y162.569642 Z0.000000
G01 X55.367623 Y162.569642 Z0.000000
M63 P0

(End cutting path id: path3733)


(Start cutting path id: path3731)
(Change tool to Default tool)

M63 P0
G00 X49.409331 Y160.453492

M62 P0(Penetrate)
G01 X50.732247 Y165.745158 Z0.000000 F100.000000
G01 X52.318714 Y165.745158 Z0.000000
G01 X53.641631 Y160.453492 Z0.000000
G01 X52.495704 Y160.453492 Z0.000000
G01 X52.143014 Y161.864259 Z0.000000
G01 X51.260638 Y161.864259 Z0.000000
G01 X51.525481 Y162.922335 Z0.000000
G01 X51.878171 Y162.922335 Z0.000000
G01 X51.525481 Y164.333102 Z0.000000
G01 X50.555254 Y160.453492 Z0.000000
G01 X49.409331 Y160.453492 Z0.000000
G01 X49.409331 Y160.453492 Z0.000000
M63 P0

(End cutting path id: path3731)


(Start cutting path id: path3729)
(Change tool to Default tool)

M63 P0
G00 X47.514095 Y160.453492

M62 P0(Penetrate)
G01 X47.514095 Y161.511568 Z0.000000 F100.000000
G01 X47.866789 Y161.511568 Z0.000000
G01 X48.043781 Y161.687269 Z0.000000
G01 X48.043781 Y162.216952 Z0.000000
G01 X49.101855 Y162.216952 Z0.000000
G01 X49.101855 Y161.158875 Z0.000000
G01 X48.396472 Y160.453492 Z0.000000
G01 X47.514095 Y160.453492 Z0.000000
G01 X47.514095 Y160.453492 Z0.000000
M63 P0

(End cutting path id: path3729)


(Start cutting path id: path3729)
(Change tool to Default tool)

M63 P0
G00 X46.280321 Y160.453492

M62 P0(Penetrate)
G01 X45.574938 Y161.158875 Z0.000000 F100.000000
G01 X45.574938 Y165.038485 Z0.000000
G01 X46.280321 Y165.745158 Z0.000000
G01 X47.161405 Y165.745158 Z0.000000
G01 X47.161405 Y164.685792 Z0.000000
G01 X46.808712 Y164.685792 Z0.000000
G01 X46.633015 Y164.510092 Z0.000000
G01 X46.633015 Y161.687269 Z0.000000
G01 X46.808712 Y161.511568 Z0.000000
G01 X47.161405 Y161.511568 Z0.000000
G01 X47.161405 Y160.453492 Z0.000000
G01 X46.280321 Y160.453492 Z0.000000
G01 X46.280321 Y160.453492 Z0.000000
M63 P0

(End cutting path id: path3729)


(Start cutting path id: path3729)
(Change tool to Default tool)

M63 P0
G00 X48.043781 Y163.980409

M62 P0(Penetrate)
G01 X48.043781 Y164.510092 Z0.000000 F100.000000
G01 X47.866789 Y164.685792 Z0.000000
G01 X47.514095 Y164.685792 Z0.000000
G01 X47.514095 Y165.745158 Z0.000000
G01 X48.396472 Y165.745158 Z0.000000
G01 X49.101855 Y165.038485 Z0.000000
G01 X49.101855 Y163.980409 Z0.000000
G01 X48.043781 Y163.980409 Z0.000000
G01 X48.043781 Y163.980409 Z0.000000
M63 P0

(End cutting path id: path3729)


(Start cutting path id: path26967)
(Change tool to Default tool)

M63 P0
G00 X103.991131 Y111.480979

M62 P0(Penetrate)
G01 X109.891131 Y108.074613 Z0.000000 F100.000000
M63 P0

(End cutting path id: path26967)


(Start cutting path id: path26965)
(Change tool to Default tool)

M63 P0
G00 X84.491131 Y111.480979

M62 P0(Penetrate)
G01 X90.391130 Y108.074613 Z0.000000 F100.000000
M63 P0

(End cutting path id: path26965)


(Start cutting path id: path26963)
(Change tool to Default tool)

M63 P0
G00 X64.991130 Y111.480979

M62 P0(Penetrate)
G01 X70.891132 Y108.074613 Z0.000000 F100.000000
M63 P0

(End cutting path id: path26963)


(Start cutting path id: path26961)
(Change tool to Default tool)

M63 P0
G00 X45.491132 Y111.480979

M62 P0(Penetrate)
G01 X51.391132 Y108.074613 Z0.000000 F100.000000
M63 P0

(End cutting path id: path26961)


(Start cutting path id: path26959)
(Change tool to Default tool)

M63 P0
G00 X25.991131 Y111.480979

M62 P0(Penetrate)
G01 X31.891131 Y108.074613 Z0.000000 F100.000000
M63 P0

(End cutting path id: path26959)


(Start cutting path id: path26957)
(Change tool to Default tool)

M63 P0
G00 X25.991131 Y111.480979

M62 P0(Penetrate)
G01 X31.891131 Y108.074613 Z0.000000 F100.000000
M63 P0

(End cutting path id: path26957)


(Start cutting path id: path26955)
(Change tool to Default tool)

M63 P0
G00 X6.491131 Y111.480979

M62 P0(Penetrate)
G01 X12.391131 Y108.074613 Z0.000000 F100.000000
M63 P0

(End cutting path id: path26955)


(Start cutting path id: path26953)
(Change tool to Default tool)

M63 P0
G00 X103.991131 Y130.980980

M62 P0(Penetrate)
G01 X109.891131 Y127.574614 Z0.000000 F100.000000
M63 P0

(End cutting path id: path26953)


(Start cutting path id: path26951)
(Change tool to Default tool)

M63 P0
G00 X84.491131 Y130.980980

M62 P0(Penetrate)
G01 X90.391130 Y127.574614 Z0.000000 F100.000000
M63 P0

(End cutting path id: path26951)


(Start cutting path id: path26949)
(Change tool to Default tool)

M63 P0
G00 X64.991130 Y130.980980

M62 P0(Penetrate)
G01 X70.891132 Y127.574614 Z0.000000 F100.000000
M63 P0

(End cutting path id: path26949)


(Start cutting path id: path26947)
(Change tool to Default tool)

M63 P0
G00 X45.491132 Y130.980980

M62 P0(Penetrate)
G01 X51.391132 Y127.574614 Z0.000000 F100.000000
M63 P0

(End cutting path id: path26947)


(Start cutting path id: path26945)
(Change tool to Default tool)

M63 P0
G00 X25.991131 Y130.980980

M62 P0(Penetrate)
G01 X31.891131 Y127.574614 Z0.000000 F100.000000
M63 P0

(End cutting path id: path26945)


(Start cutting path id: path26943)
(Change tool to Default tool)

M63 P0
G00 X6.491131 Y130.980980

M62 P0(Penetrate)
G01 X12.391131 Y127.574614 Z0.000000 F100.000000
M63 P0

(End cutting path id: path26943)


(Start cutting path id: path26941)
(Change tool to Default tool)

M63 P0
G00 X103.991131 Y150.480980

M62 P0(Penetrate)
G01 X109.891131 Y147.074612 Z0.000000 F100.000000
M63 P0

(End cutting path id: path26941)


(Start cutting path id: path26939)
(Change tool to Default tool)

M63 P0
G00 X84.491131 Y150.480980

M62 P0(Penetrate)
G01 X90.391130 Y147.074612 Z0.000000 F100.000000
M63 P0

(End cutting path id: path26939)


(Start cutting path id: path26937)
(Change tool to Default tool)

M63 P0
G00 X64.991130 Y150.480980

M62 P0(Penetrate)
G01 X70.891132 Y147.074612 Z0.000000 F100.000000
M63 P0

(End cutting path id: path26937)


(Start cutting path id: path26935)
(Change tool to Default tool)

M63 P0
G00 X45.491132 Y150.480980

M62 P0(Penetrate)
G01 X51.391132 Y147.074612 Z0.000000 F100.000000
M63 P0

(End cutting path id: path26935)


(Start cutting path id: path26933)
(Change tool to Default tool)

M63 P0
G00 X25.991131 Y150.480980

M62 P0(Penetrate)
G01 X31.891131 Y147.074612 Z0.000000 F100.000000
M63 P0

(End cutting path id: path26933)


(Start cutting path id: path26931)
(Change tool to Default tool)

M63 P0
G00 X6.491131 Y150.480980

M62 P0(Penetrate)
G01 X12.391131 Y147.074612 Z0.000000 F100.000000
M63 P0

(End cutting path id: path26931)


(Start cutting path id: path26929)
(Change tool to Default tool)

M63 P0
G00 X6.491131 Y91.980979

M62 P0(Penetrate)
G01 X12.391131 Y88.574613 Z0.000000 F100.000000
M63 P0

(End cutting path id: path26929)


(Start cutting path id: path26927)
(Change tool to Default tool)

M63 P0
G00 X25.991131 Y91.980979

M62 P0(Penetrate)
G01 X31.891131 Y88.574613 Z0.000000 F100.000000
M63 P0

(End cutting path id: path26927)


(Start cutting path id: path26925)
(Change tool to Default tool)

M63 P0
G00 X45.491132 Y91.980979

M62 P0(Penetrate)
G01 X51.391132 Y88.574613 Z0.000000 F100.000000
M63 P0

(End cutting path id: path26925)


(Start cutting path id: path26923)
(Change tool to Default tool)

M63 P0
G00 X64.991130 Y91.980979

M62 P0(Penetrate)
G01 X70.891132 Y88.574613 Z0.000000 F100.000000
M63 P0

(End cutting path id: path26923)


(Start cutting path id: path26921)
(Change tool to Default tool)

M63 P0
G00 X84.491131 Y91.980979

M62 P0(Penetrate)
G01 X90.391130 Y88.574613 Z0.000000 F100.000000
M63 P0

(End cutting path id: path26921)


(Start cutting path id: path26919)
(Change tool to Default tool)

M63 P0
G00 X103.991131 Y91.980979

M62 P0(Penetrate)
G01 X109.891131 Y88.574613 Z0.000000 F100.000000
M63 P0

(End cutting path id: path26919)


(Start cutting path id: path26917)
(Change tool to Default tool)

M63 P0
G00 X123.491132 Y91.980979

M62 P0(Penetrate)
G01 X129.391131 Y88.574613 Z0.000000 F100.000000
M63 P0

(End cutting path id: path26917)


(Start cutting path id: path26915)
(Change tool to Default tool)

M63 P0
G00 X123.491132 Y111.480979

M62 P0(Penetrate)
G01 X129.391131 Y108.074613 Z0.000000 F100.000000
M63 P0

(End cutting path id: path26915)


(Start cutting path id: path26913)
(Change tool to Default tool)

M63 P0
G00 X123.491132 Y130.980980

M62 P0(Penetrate)
G01 X129.391131 Y127.574614 Z0.000000 F100.000000
M63 P0

(End cutting path id: path26913)


(Start cutting path id: path26911)
(Change tool to Default tool)

M63 P0
G00 X123.491132 Y150.480980

M62 P0(Penetrate)
G01 X129.391131 Y147.074612 Z0.000000 F100.000000
M63 P0

(End cutting path id: path26911)


(Start cutting path id: path26909)
(Change tool to Default tool)

M63 P0
G00 X103.991131 Y118.293714

M62 P0(Penetrate)
G01 X103.991131 Y111.480979 Z0.000000 F100.000000
M63 P0

(End cutting path id: path26909)


(Start cutting path id: path26907)
(Change tool to Default tool)

M63 P0
G00 X84.491131 Y118.293714

M62 P0(Penetrate)
G01 X84.491131 Y111.480979 Z0.000000 F100.000000
M63 P0

(End cutting path id: path26907)


(Start cutting path id: path26905)
(Change tool to Default tool)

M63 P0
G00 X64.991130 Y118.293714

M62 P0(Penetrate)
G01 X64.991130 Y111.480979 Z0.000000 F100.000000
M63 P0

(End cutting path id: path26905)


(Start cutting path id: path26903)
(Change tool to Default tool)

M63 P0
G00 X45.491132 Y118.293714

M62 P0(Penetrate)
G01 X45.491132 Y111.480979 Z0.000000 F100.000000
M63 P0

(End cutting path id: path26903)


(Start cutting path id: path26901)
(Change tool to Default tool)

M63 P0
G00 X25.991131 Y118.293714

M62 P0(Penetrate)
G01 X25.991131 Y111.480979 Z0.000000 F100.000000
M63 P0

(End cutting path id: path26901)


(Start cutting path id: path26899)
(Change tool to Default tool)

M63 P0
G00 X25.991131 Y118.293714

M62 P0(Penetrate)
G01 X25.991131 Y111.480979 Z0.000000 F100.000000
M63 P0

(End cutting path id: path26899)


(Start cutting path id: path26897)
(Change tool to Default tool)

M63 P0
G00 X6.491131 Y118.293714

M62 P0(Penetrate)
G01 X6.491131 Y111.480979 Z0.000000 F100.000000
M63 P0

(End cutting path id: path26897)


(Start cutting path id: path26895)
(Change tool to Default tool)

M63 P0
G00 X103.991131 Y137.793711

M62 P0(Penetrate)
G01 X103.991131 Y130.980980 Z0.000000 F100.000000
M63 P0

(End cutting path id: path26895)


(Start cutting path id: path26893)
(Change tool to Default tool)

M63 P0
G00 X84.491131 Y137.793711

M62 P0(Penetrate)
G01 X84.491131 Y130.980980 Z0.000000 F100.000000
M63 P0

(End cutting path id: path26893)


(Start cutting path id: path26891)
(Change tool to Default tool)

M63 P0
G00 X64.991130 Y137.793711

M62 P0(Penetrate)
G01 X64.991130 Y130.980980 Z0.000000 F100.000000
M63 P0

(End cutting path id: path26891)


(Start cutting path id: path26889)
(Change tool to Default tool)

M63 P0
G00 X45.491132 Y137.793711

M62 P0(Penetrate)
G01 X45.491132 Y130.980980 Z0.000000 F100.000000
M63 P0

(End cutting path id: path26889)


(Start cutting path id: path26887)
(Change tool to Default tool)

M63 P0
G00 X25.991131 Y137.793711

M62 P0(Penetrate)
G01 X25.991131 Y130.980980 Z0.000000 F100.000000
M63 P0

(End cutting path id: path26887)


(Start cutting path id: path26885)
(Change tool to Default tool)

M63 P0
G00 X6.491131 Y137.793711

M62 P0(Penetrate)
G01 X6.491131 Y130.980980 Z0.000000 F100.000000
M63 P0

(End cutting path id: path26885)


(Start cutting path id: path26883)
(Change tool to Default tool)

M63 P0
G00 X103.991131 Y157.293712

M62 P0(Penetrate)
G01 X103.991131 Y150.480980 Z0.000000 F100.000000
M63 P0

(End cutting path id: path26883)


(Start cutting path id: path26881)
(Change tool to Default tool)

M63 P0
G00 X84.491131 Y157.293712

M62 P0(Penetrate)
G01 X84.491131 Y150.480980 Z0.000000 F100.000000
M63 P0

(End cutting path id: path26881)


(Start cutting path id: path26879)
(Change tool to Default tool)

M63 P0
G00 X64.991130 Y157.293712

M62 P0(Penetrate)
G01 X64.991130 Y150.480980 Z0.000000 F100.000000
M63 P0

(End cutting path id: path26879)


(Start cutting path id: path26877)
(Change tool to Default tool)

M63 P0
G00 X45.491132 Y157.293712

M62 P0(Penetrate)
G01 X45.491132 Y150.480980 Z0.000000 F100.000000
M63 P0

(End cutting path id: path26877)


(Start cutting path id: path26875)
(Change tool to Default tool)

M63 P0
G00 X25.991131 Y157.293712

M62 P0(Penetrate)
G01 X25.991131 Y150.480980 Z0.000000 F100.000000
M63 P0

(End cutting path id: path26875)


(Start cutting path id: path26873)
(Change tool to Default tool)

M63 P0
G00 X6.491131 Y157.293712

M62 P0(Penetrate)
G01 X6.491131 Y150.480980 Z0.000000 F100.000000
M63 P0

(End cutting path id: path26873)


(Start cutting path id: path26871)
(Change tool to Default tool)

M63 P0
G00 X6.491131 Y98.793713

M62 P0(Penetrate)
G01 X6.491131 Y91.980979 Z0.000000 F100.000000
M63 P0

(End cutting path id: path26871)


(Start cutting path id: path26869)
(Change tool to Default tool)

M63 P0
G00 X25.991131 Y98.793713

M62 P0(Penetrate)
G01 X25.991131 Y91.980979 Z0.000000 F100.000000
M63 P0

(End cutting path id: path26869)


(Start cutting path id: path26867)
(Change tool to Default tool)

M63 P0
G00 X45.491132 Y98.793713

M62 P0(Penetrate)
G01 X45.491132 Y91.980979 Z0.000000 F100.000000
M63 P0

(End cutting path id: path26867)


(Start cutting path id: path26865)
(Change tool to Default tool)

M63 P0
G00 X64.991130 Y98.793713

M62 P0(Penetrate)
G01 X64.991130 Y91.980979 Z0.000000 F100.000000
M63 P0

(End cutting path id: path26865)


(Start cutting path id: path26863)
(Change tool to Default tool)

M63 P0
G00 X84.491131 Y98.793713

M62 P0(Penetrate)
G01 X84.491131 Y91.980979 Z0.000000 F100.000000
M63 P0

(End cutting path id: path26863)


(Start cutting path id: path26861)
(Change tool to Default tool)

M63 P0
G00 X103.991131 Y98.793713

M62 P0(Penetrate)
G01 X103.991131 Y91.980979 Z0.000000 F100.000000
M63 P0

(End cutting path id: path26861)


(Start cutting path id: path26859)
(Change tool to Default tool)

M63 P0
G00 X123.491132 Y98.793713

M62 P0(Penetrate)
G01 X123.491132 Y91.980979 Z0.000000 F100.000000
M63 P0

(End cutting path id: path26859)


(Start cutting path id: path26857)
(Change tool to Default tool)

M63 P0
G00 X123.491132 Y118.293714

M62 P0(Penetrate)
G01 X123.491132 Y111.480979 Z0.000000 F100.000000
M63 P0

(End cutting path id: path26857)


(Start cutting path id: path26855)
(Change tool to Default tool)

M63 P0
G00 X123.491132 Y137.793711

M62 P0(Penetrate)
G01 X123.491132 Y130.980980 Z0.000000 F100.000000
M63 P0

(End cutting path id: path26855)


(Start cutting path id: path26853)
(Change tool to Default tool)

M63 P0
G00 X123.491132 Y157.293712

M62 P0(Penetrate)
G01 X123.491132 Y150.480980 Z0.000000 F100.000000
M63 P0

(End cutting path id: path26853)


(Start cutting path id: path26851)
(Change tool to Default tool)

M63 P0
G00 X109.891131 Y121.700079

M62 P0(Penetrate)
G01 X103.991131 Y118.293714 Z0.000000 F100.000000
M63 P0

(End cutting path id: path26851)


(Start cutting path id: path26849)
(Change tool to Default tool)

M63 P0
G00 X90.391130 Y121.700079

M62 P0(Penetrate)
G01 X84.491131 Y118.293714 Z0.000000 F100.000000
M63 P0

(End cutting path id: path26849)


(Start cutting path id: path26847)
(Change tool to Default tool)

M63 P0
G00 X70.891132 Y121.700079

M62 P0(Penetrate)
G01 X64.991130 Y118.293714 Z0.000000 F100.000000
M63 P0

(End cutting path id: path26847)


(Start cutting path id: path26845)
(Change tool to Default tool)

M63 P0
G00 X51.391132 Y121.700079

M62 P0(Penetrate)
G01 X45.491132 Y118.293714 Z0.000000 F100.000000
M63 P0

(End cutting path id: path26845)


(Start cutting path id: path26843)
(Change tool to Default tool)

M63 P0
G00 X31.891131 Y121.700079

M62 P0(Penetrate)
G01 X25.991131 Y118.293714 Z0.000000 F100.000000
M63 P0

(End cutting path id: path26843)


(Start cutting path id: path26841)
(Change tool to Default tool)

M63 P0
G00 X31.891131 Y121.700079

M62 P0(Penetrate)
G01 X25.991131 Y118.293714 Z0.000000 F100.000000
M63 P0

(End cutting path id: path26841)


(Start cutting path id: path26839)
(Change tool to Default tool)

M63 P0
G00 X12.391131 Y121.700079

M62 P0(Penetrate)
G01 X6.491131 Y118.293714 Z0.000000 F100.000000
M63 P0

(End cutting path id: path26839)


(Start cutting path id: path26837)
(Change tool to Default tool)

M63 P0
G00 X109.891131 Y141.200080

M62 P0(Penetrate)
G01 X103.991131 Y137.793711 Z0.000000 F100.000000
M63 P0

(End cutting path id: path26837)


(Start cutting path id: path26835)
(Change tool to Default tool)

M63 P0
G00 X90.391130 Y141.200080

M62 P0(Penetrate)
G01 X84.491131 Y137.793711 Z0.000000 F100.000000
M63 P0

(End cutting path id: path26835)


(Start cutting path id: path26833)
(Change tool to Default tool)

M63 P0
G00 X70.891132 Y141.200080

M62 P0(Penetrate)
G01 X64.991130 Y137.793711 Z0.000000 F100.000000
M63 P0

(End cutting path id: path26833)


(Start cutting path id: path26831)
(Change tool to Default tool)

M63 P0
G00 X51.391132 Y141.200080

M62 P0(Penetrate)
G01 X45.491132 Y137.793711 Z0.000000 F100.000000
M63 P0

(End cutting path id: path26831)


(Start cutting path id: path26829)
(Change tool to Default tool)

M63 P0
G00 X31.891131 Y141.200080

M62 P0(Penetrate)
G01 X25.991131 Y137.793711 Z0.000000 F100.000000
M63 P0

(End cutting path id: path26829)


(Start cutting path id: path26827)
(Change tool to Default tool)

M63 P0
G00 X12.391131 Y141.200080

M62 P0(Penetrate)
G01 X6.491131 Y137.793711 Z0.000000 F100.000000
M63 P0

(End cutting path id: path26827)


(Start cutting path id: path26825)
(Change tool to Default tool)

M63 P0
G00 X109.891131 Y160.700081

M62 P0(Penetrate)
G01 X103.991131 Y157.293712 Z0.000000 F100.000000
M63 P0

(End cutting path id: path26825)


(Start cutting path id: path26823)
(Change tool to Default tool)

M63 P0
G00 X90.391130 Y160.700081

M62 P0(Penetrate)
G01 X84.491131 Y157.293712 Z0.000000 F100.000000
M63 P0

(End cutting path id: path26823)


(Start cutting path id: path26821)
(Change tool to Default tool)

M63 P0
G00 X70.891132 Y160.700081

M62 P0(Penetrate)
G01 X64.991130 Y157.293712 Z0.000000 F100.000000
M63 P0

(End cutting path id: path26821)


(Start cutting path id: path26819)
(Change tool to Default tool)

M63 P0
G00 X51.391132 Y160.700081

M62 P0(Penetrate)
G01 X45.491132 Y157.293712 Z0.000000 F100.000000
M63 P0

(End cutting path id: path26819)


(Start cutting path id: path26817)
(Change tool to Default tool)

M63 P0
G00 X31.891131 Y160.700081

M62 P0(Penetrate)
G01 X25.991131 Y157.293712 Z0.000000 F100.000000
M63 P0

(End cutting path id: path26817)


(Start cutting path id: path26815)
(Change tool to Default tool)

M63 P0
G00 X12.391131 Y160.700081

M62 P0(Penetrate)
G01 X6.491131 Y157.293712 Z0.000000 F100.000000
M63 P0

(End cutting path id: path26815)


(Start cutting path id: path26813)
(Change tool to Default tool)

M63 P0
G00 X12.391131 Y102.200079

M62 P0(Penetrate)
G01 X6.491131 Y98.793713 Z0.000000 F100.000000
M63 P0

(End cutting path id: path26813)


(Start cutting path id: path26811)
(Change tool to Default tool)

M63 P0
G00 X31.891131 Y102.200079

M62 P0(Penetrate)
G01 X25.991131 Y98.793713 Z0.000000 F100.000000
M63 P0

(End cutting path id: path26811)


(Start cutting path id: path26809)
(Change tool to Default tool)

M63 P0
G00 X51.391132 Y102.200079

M62 P0(Penetrate)
G01 X45.491132 Y98.793713 Z0.000000 F100.000000
M63 P0

(End cutting path id: path26809)


(Start cutting path id: path26807)
(Change tool to Default tool)

M63 P0
G00 X70.891132 Y102.200079

M62 P0(Penetrate)
G01 X64.991130 Y98.793713 Z0.000000 F100.000000
M63 P0

(End cutting path id: path26807)


(Start cutting path id: path26805)
(Change tool to Default tool)

M63 P0
G00 X90.391130 Y102.200079

M62 P0(Penetrate)
G01 X84.491131 Y98.793713 Z0.000000 F100.000000
M63 P0

(End cutting path id: path26805)


(Start cutting path id: path26803)
(Change tool to Default tool)

M63 P0
G00 X109.891131 Y102.200079

M62 P0(Penetrate)
G01 X103.991131 Y98.793713 Z0.000000 F100.000000
M63 P0

(End cutting path id: path26803)


(Start cutting path id: path26801)
(Change tool to Default tool)

M63 P0
G00 X129.391131 Y102.200079

M62 P0(Penetrate)
G01 X123.491132 Y98.793713 Z0.000000 F100.000000
M63 P0

(End cutting path id: path26801)


(Start cutting path id: path26799)
(Change tool to Default tool)

M63 P0
G00 X129.391131 Y121.700079

M62 P0(Penetrate)
G01 X123.491132 Y118.293714 Z0.000000 F100.000000
M63 P0

(End cutting path id: path26799)


(Start cutting path id: path26797)
(Change tool to Default tool)

M63 P0
G00 X129.391131 Y141.200080

M62 P0(Penetrate)
G01 X123.491132 Y137.793711 Z0.000000 F100.000000
M63 P0

(End cutting path id: path26797)


(Start cutting path id: path26795)
(Change tool to Default tool)

M63 P0
G00 X129.391131 Y160.700081

M62 P0(Penetrate)
G01 X123.491132 Y157.293712 Z0.000000 F100.000000
M63 P0

(End cutting path id: path26795)


(Start cutting path id: path26793)
(Change tool to Default tool)

M63 P0
G00 X115.791130 Y118.293714

M62 P0(Penetrate)
G01 X109.891131 Y121.700079 Z0.000000 F100.000000
M63 P0

(End cutting path id: path26793)


(Start cutting path id: path26791)
(Change tool to Default tool)

M63 P0
G00 X96.291132 Y118.293714

M62 P0(Penetrate)
G01 X90.391130 Y121.700079 Z0.000000 F100.000000
M63 P0

(End cutting path id: path26791)


(Start cutting path id: path26789)
(Change tool to Default tool)

M63 P0
G00 X76.791132 Y118.293714

M62 P0(Penetrate)
G01 X70.891132 Y121.700079 Z0.000000 F100.000000
M63 P0

(End cutting path id: path26789)


(Start cutting path id: path26787)
(Change tool to Default tool)

M63 P0
G00 X57.291131 Y118.293714

M62 P0(Penetrate)
G01 X51.391132 Y121.700079 Z0.000000 F100.000000
M63 P0

(End cutting path id: path26787)


(Start cutting path id: path26785)
(Change tool to Default tool)

M63 P0
G00 X37.791131 Y118.293714

M62 P0(Penetrate)
G01 X31.891131 Y121.700079 Z0.000000 F100.000000
M63 P0

(End cutting path id: path26785)


(Start cutting path id: path26783)
(Change tool to Default tool)

M63 P0
G00 X37.791131 Y118.293714

M62 P0(Penetrate)
G01 X31.891131 Y121.700079 Z0.000000 F100.000000
M63 P0

(End cutting path id: path26783)


(Start cutting path id: path26781)
(Change tool to Default tool)

M63 P0
G00 X18.291131 Y118.293714

M62 P0(Penetrate)
G01 X12.391131 Y121.700079 Z0.000000 F100.000000
M63 P0

(End cutting path id: path26781)


(Start cutting path id: path26779)
(Change tool to Default tool)

M63 P0
G00 X115.791130 Y137.793711

M62 P0(Penetrate)
G01 X109.891131 Y141.200080 Z0.000000 F100.000000
M63 P0

(End cutting path id: path26779)


(Start cutting path id: path26777)
(Change tool to Default tool)

M63 P0
G00 X96.291132 Y137.793711

M62 P0(Penetrate)
G01 X90.391130 Y141.200080 Z0.000000 F100.000000
M63 P0

(End cutting path id: path26777)


(Start cutting path id: path26775)
(Change tool to Default tool)

M63 P0
G00 X76.791132 Y137.793711

M62 P0(Penetrate)
G01 X70.891132 Y141.200080 Z0.000000 F100.000000
M63 P0

(End cutting path id: path26775)


(Start cutting path id: path26773)
(Change tool to Default tool)

M63 P0
G00 X57.291131 Y137.793711

M62 P0(Penetrate)
G01 X51.391132 Y141.200080 Z0.000000 F100.000000
M63 P0

(End cutting path id: path26773)


(Start cutting path id: path26771)
(Change tool to Default tool)

M63 P0
G00 X37.791131 Y137.793711

M62 P0(Penetrate)
G01 X31.891131 Y141.200080 Z0.000000 F100.000000
M63 P0

(End cutting path id: path26771)


(Start cutting path id: path26769)
(Change tool to Default tool)

M63 P0
G00 X18.291131 Y137.793711

M62 P0(Penetrate)
G01 X12.391131 Y141.200080 Z0.000000 F100.000000
M63 P0

(End cutting path id: path26769)


(Start cutting path id: path26767)
(Change tool to Default tool)

M63 P0
G00 X115.791130 Y157.293712

M62 P0(Penetrate)
G01 X109.891131 Y160.700081 Z0.000000 F100.000000
M63 P0

(End cutting path id: path26767)


(Start cutting path id: path26765)
(Change tool to Default tool)

M63 P0
G00 X96.291132 Y157.293712

M62 P0(Penetrate)
G01 X90.391130 Y160.700081 Z0.000000 F100.000000
M63 P0

(End cutting path id: path26765)


(Start cutting path id: path26763)
(Change tool to Default tool)

M63 P0
G00 X76.791132 Y157.293712

M62 P0(Penetrate)
G01 X70.891132 Y160.700081 Z0.000000 F100.000000
M63 P0

(End cutting path id: path26763)


(Start cutting path id: path26761)
(Change tool to Default tool)

M63 P0
G00 X57.291131 Y157.293712

M62 P0(Penetrate)
G01 X51.391132 Y160.700081 Z0.000000 F100.000000
M63 P0

(End cutting path id: path26761)


(Start cutting path id: path26759)
(Change tool to Default tool)

M63 P0
G00 X37.791131 Y157.293712

M62 P0(Penetrate)
G01 X31.891131 Y160.700081 Z0.000000 F100.000000
M63 P0

(End cutting path id: path26759)


(Start cutting path id: path26757)
(Change tool to Default tool)

M63 P0
G00 X18.291131 Y157.293712

M62 P0(Penetrate)
G01 X12.391131 Y160.700081 Z0.000000 F100.000000
M63 P0

(End cutting path id: path26757)


(Start cutting path id: path26755)
(Change tool to Default tool)

M63 P0
G00 X18.291131 Y98.793713

M62 P0(Penetrate)
G01 X12.391131 Y102.200079 Z0.000000 F100.000000
M63 P0

(End cutting path id: path26755)


(Start cutting path id: path26753)
(Change tool to Default tool)

M63 P0
G00 X37.791131 Y98.793713

M62 P0(Penetrate)
G01 X31.891131 Y102.200079 Z0.000000 F100.000000
M63 P0

(End cutting path id: path26753)


(Start cutting path id: path26751)
(Change tool to Default tool)

M63 P0
G00 X57.291131 Y98.793713

M62 P0(Penetrate)
G01 X51.391132 Y102.200079 Z0.000000 F100.000000
M63 P0

(End cutting path id: path26751)


(Start cutting path id: path26749)
(Change tool to Default tool)

M63 P0
G00 X76.791132 Y98.793713

M62 P0(Penetrate)
G01 X70.891132 Y102.200079 Z0.000000 F100.000000
M63 P0

(End cutting path id: path26749)


(Start cutting path id: path26747)
(Change tool to Default tool)

M63 P0
G00 X96.291132 Y98.793713

M62 P0(Penetrate)
G01 X90.391130 Y102.200079 Z0.000000 F100.000000
M63 P0

(End cutting path id: path26747)


(Start cutting path id: path26745)
(Change tool to Default tool)

M63 P0
G00 X115.791130 Y98.793713

M62 P0(Penetrate)
G01 X109.891131 Y102.200079 Z0.000000 F100.000000
M63 P0

(End cutting path id: path26745)


(Start cutting path id: path26743)
(Change tool to Default tool)

M63 P0
G00 X135.291131 Y98.793713

M62 P0(Penetrate)
G01 X129.391131 Y102.200079 Z0.000000 F100.000000
M63 P0

(End cutting path id: path26743)


(Start cutting path id: path26741)
(Change tool to Default tool)

M63 P0
G00 X135.291131 Y118.293714

M62 P0(Penetrate)
G01 X129.391131 Y121.700079 Z0.000000 F100.000000
M63 P0

(End cutting path id: path26741)


(Start cutting path id: path26739)
(Change tool to Default tool)

M63 P0
G00 X135.291131 Y137.793711

M62 P0(Penetrate)
G01 X129.391131 Y141.200080 Z0.000000 F100.000000
M63 P0

(End cutting path id: path26739)


(Start cutting path id: path26737)
(Change tool to Default tool)

M63 P0
G00 X135.291131 Y157.293712

M62 P0(Penetrate)
G01 X129.391131 Y160.700081 Z0.000000 F100.000000
M63 P0

(End cutting path id: path26737)


(Start cutting path id: path26735)
(Change tool to Default tool)

M63 P0
G00 X96.291132 Y111.480979

M62 P0(Penetrate)
G01 X96.291132 Y118.293714 Z0.000000 F100.000000
M63 P0

(End cutting path id: path26735)


(Start cutting path id: path26733)
(Change tool to Default tool)

M63 P0
G00 X76.791132 Y111.480979

M62 P0(Penetrate)
G01 X76.791132 Y118.293714 Z0.000000 F100.000000
M63 P0

(End cutting path id: path26733)


(Start cutting path id: path26731)
(Change tool to Default tool)

M63 P0
G00 X57.291131 Y111.480979

M62 P0(Penetrate)
G01 X57.291131 Y118.293714 Z0.000000 F100.000000
M63 P0

(End cutting path id: path26731)


(Start cutting path id: path26729)
(Change tool to Default tool)

M63 P0
G00 X37.791131 Y111.480979

M62 P0(Penetrate)
G01 X37.791131 Y118.293714 Z0.000000 F100.000000
M63 P0

(End cutting path id: path26729)


(Start cutting path id: path26727)
(Change tool to Default tool)

M63 P0
G00 X37.791131 Y111.480979

M62 P0(Penetrate)
G01 X37.791131 Y118.293714 Z0.000000 F100.000000
M63 P0

(End cutting path id: path26727)


(Start cutting path id: path26725)
(Change tool to Default tool)

M63 P0
G00 X18.291131 Y111.480979

M62 P0(Penetrate)
G01 X18.291131 Y118.293714 Z0.000000 F100.000000
M63 P0

(End cutting path id: path26725)


(Start cutting path id: path26723)
(Change tool to Default tool)

M63 P0
G00 X115.791130 Y130.980980

M62 P0(Penetrate)
G01 X115.791130 Y137.793711 Z0.000000 F100.000000
M63 P0

(End cutting path id: path26723)


(Start cutting path id: path26721)
(Change tool to Default tool)

M63 P0
G00 X96.291132 Y130.980980

M62 P0(Penetrate)
G01 X96.291132 Y137.793711 Z0.000000 F100.000000
M63 P0

(End cutting path id: path26721)


(Start cutting path id: path26719)
(Change tool to Default tool)

M63 P0
G00 X76.791132 Y130.980980

M62 P0(Penetrate)
G01 X76.791132 Y137.793711 Z0.000000 F100.000000
M63 P0

(End cutting path id: path26719)


(Start cutting path id: path26717)
(Change tool to Default tool)

M63 P0
G00 X57.291131 Y130.980980

M62 P0(Penetrate)
G01 X57.291131 Y137.793711 Z0.000000 F100.000000
M63 P0

(End cutting path id: path26717)


(Start cutting path id: path26715)
(Change tool to Default tool)

M63 P0
G00 X37.791131 Y130.980980

M62 P0(Penetrate)
G01 X37.791131 Y137.793711 Z0.000000 F100.000000
M63 P0

(End cutting path id: path26715)


(Start cutting path id: path26713)
(Change tool to Default tool)

M63 P0
G00 X18.291131 Y130.980980

M62 P0(Penetrate)
G01 X18.291131 Y137.793711 Z0.000000 F100.000000
M63 P0

(End cutting path id: path26713)


(Start cutting path id: path26711)
(Change tool to Default tool)

M63 P0
G00 X115.791130 Y150.480980

M62 P0(Penetrate)
G01 X115.791130 Y157.293712 Z0.000000 F100.000000
M63 P0

(End cutting path id: path26711)


(Start cutting path id: path26709)
(Change tool to Default tool)

M63 P0
G00 X96.291132 Y150.480980

M62 P0(Penetrate)
G01 X96.291132 Y157.293712 Z0.000000 F100.000000
M63 P0

(End cutting path id: path26709)


(Start cutting path id: path26707)
(Change tool to Default tool)

M63 P0
G00 X76.791132 Y150.480980

M62 P0(Penetrate)
G01 X76.791132 Y157.293712 Z0.000000 F100.000000
M63 P0

(End cutting path id: path26707)


(Start cutting path id: path26705)
(Change tool to Default tool)

M63 P0
G00 X57.291131 Y150.480980

M62 P0(Penetrate)
G01 X57.291131 Y157.293712 Z0.000000 F100.000000
M63 P0

(End cutting path id: path26705)


(Start cutting path id: path26703)
(Change tool to Default tool)

M63 P0
G00 X37.791131 Y150.480980

M62 P0(Penetrate)
G01 X37.791131 Y157.293712 Z0.000000 F100.000000
M63 P0

(End cutting path id: path26703)


(Start cutting path id: path26701)
(Change tool to Default tool)

M63 P0
G00 X18.291131 Y150.480980

M62 P0(Penetrate)
G01 X18.291131 Y157.293712 Z0.000000 F100.000000
M63 P0

(End cutting path id: path26701)


(Start cutting path id: path26699)
(Change tool to Default tool)

M63 P0
G00 X18.291131 Y91.980979

M62 P0(Penetrate)
G01 X18.291131 Y98.793713 Z0.000000 F100.000000
M63 P0

(End cutting path id: path26699)


(Start cutting path id: path26697)
(Change tool to Default tool)

M63 P0
G00 X37.791131 Y91.980979

M62 P0(Penetrate)
G01 X37.791131 Y98.793713 Z0.000000 F100.000000
M63 P0

(End cutting path id: path26697)


(Start cutting path id: path26695)
(Change tool to Default tool)

M63 P0
G00 X57.291131 Y91.980979

M62 P0(Penetrate)
G01 X57.291131 Y98.793713 Z0.000000 F100.000000
M63 P0

(End cutting path id: path26695)


(Start cutting path id: path26693)
(Change tool to Default tool)

M63 P0
G00 X76.791132 Y91.980979

M62 P0(Penetrate)
G01 X76.791132 Y98.793713 Z0.000000 F100.000000
M63 P0

(End cutting path id: path26693)


(Start cutting path id: path26691)
(Change tool to Default tool)

M63 P0
G00 X96.291132 Y91.980979

M62 P0(Penetrate)
G01 X96.291132 Y98.793713 Z0.000000 F100.000000
M63 P0

(End cutting path id: path26691)


(Start cutting path id: path26689)
(Change tool to Default tool)

M63 P0
G00 X115.791130 Y91.980979

M62 P0(Penetrate)
G01 X115.791130 Y98.793713 Z0.000000 F100.000000
M63 P0

(End cutting path id: path26689)


(Start cutting path id: path26687)
(Change tool to Default tool)

M63 P0
G00 X135.291131 Y91.980979

M62 P0(Penetrate)
G01 X135.291131 Y98.793713 Z0.000000 F100.000000
M63 P0

(End cutting path id: path26687)


(Start cutting path id: path26685)
(Change tool to Default tool)

M63 P0
G00 X135.291131 Y111.480979

M62 P0(Penetrate)
G01 X135.291131 Y118.293714 Z0.000000 F100.000000
M63 P0

(End cutting path id: path26685)


(Start cutting path id: path26683)
(Change tool to Default tool)

M63 P0
G00 X135.291131 Y130.980980

M62 P0(Penetrate)
G01 X135.291131 Y137.793711 Z0.000000 F100.000000
M63 P0

(End cutting path id: path26683)


(Start cutting path id: path26681)
(Change tool to Default tool)

M63 P0
G00 X135.291131 Y150.480980

M62 P0(Penetrate)
G01 X135.291131 Y157.293712 Z0.000000 F100.000000
M63 P0

(End cutting path id: path26681)


(Start cutting path id: path26679)
(Change tool to Default tool)

M63 P0
G00 X115.791130 Y111.480979

M62 P0(Penetrate)
G01 X115.791130 Y118.293714 Z0.000000 F100.000000
M63 P0

(End cutting path id: path26679)


(Start cutting path id: path26677)
(Change tool to Default tool)

M63 P0
G00 X90.391130 Y108.074613

M62 P0(Penetrate)
G01 X96.291132 Y111.480979 Z0.000000 F100.000000
M63 P0

(End cutting path id: path26677)


(Start cutting path id: path26675)
(Change tool to Default tool)

M63 P0
G00 X70.891132 Y108.074613

M62 P0(Penetrate)
G01 X76.791132 Y111.480979 Z0.000000 F100.000000
M63 P0

(End cutting path id: path26675)


(Start cutting path id: path26673)
(Change tool to Default tool)

M63 P0
G00 X51.391132 Y108.074613

M62 P0(Penetrate)
G01 X57.291131 Y111.480979 Z0.000000 F100.000000
M63 P0

(End cutting path id: path26673)


(Start cutting path id: path26671)
(Change tool to Default tool)

M63 P0
G00 X31.891131 Y108.074613

M62 P0(Penetrate)
G01 X37.791131 Y111.480979 Z0.000000 F100.000000
M63 P0

(End cutting path id: path26671)


(Start cutting path id: path26669)
(Change tool to Default tool)

M63 P0
G00 X31.891131 Y108.074613

M62 P0(Penetrate)
G01 X37.791131 Y111.480979 Z0.000000 F100.000000
M63 P0

(End cutting path id: path26669)


(Start cutting path id: path26667)
(Change tool to Default tool)

M63 P0
G00 X12.391131 Y108.074613

M62 P0(Penetrate)
G01 X18.291131 Y111.480979 Z0.000000 F100.000000
M63 P0

(End cutting path id: path26667)


(Start cutting path id: path26665)
(Change tool to Default tool)

M63 P0
G00 X109.891131 Y127.574614

M62 P0(Penetrate)
G01 X115.791130 Y130.980980 Z0.000000 F100.000000
M63 P0

(End cutting path id: path26665)


(Start cutting path id: path26663)
(Change tool to Default tool)

M63 P0
G00 X90.391130 Y127.574614

M62 P0(Penetrate)
G01 X96.291132 Y130.980980 Z0.000000 F100.000000
M63 P0

(End cutting path id: path26663)


(Start cutting path id: path26661)
(Change tool to Default tool)

M63 P0
G00 X70.891132 Y127.574614

M62 P0(Penetrate)
G01 X76.791132 Y130.980980 Z0.000000 F100.000000
M63 P0

(End cutting path id: path26661)


(Start cutting path id: path26659)
(Change tool to Default tool)

M63 P0
G00 X51.391132 Y127.574614

M62 P0(Penetrate)
G01 X57.291131 Y130.980980 Z0.000000 F100.000000
M63 P0

(End cutting path id: path26659)


(Start cutting path id: path26657)
(Change tool to Default tool)

M63 P0
G00 X31.891131 Y127.574614

M62 P0(Penetrate)
G01 X37.791131 Y130.980980 Z0.000000 F100.000000
M63 P0

(End cutting path id: path26657)


(Start cutting path id: path26655)
(Change tool to Default tool)

M63 P0
G00 X12.391131 Y127.574614

M62 P0(Penetrate)
G01 X18.291131 Y130.980980 Z0.000000 F100.000000
M63 P0

(End cutting path id: path26655)


(Start cutting path id: path26653)
(Change tool to Default tool)

M63 P0
G00 X109.891131 Y147.074612

M62 P0(Penetrate)
G01 X115.791130 Y150.480980 Z0.000000 F100.000000
M63 P0

(End cutting path id: path26653)


(Start cutting path id: path26651)
(Change tool to Default tool)

M63 P0
G00 X90.391130 Y147.074612

M62 P0(Penetrate)
G01 X96.291132 Y150.480980 Z0.000000 F100.000000
M63 P0

(End cutting path id: path26651)


(Start cutting path id: path26649)
(Change tool to Default tool)

M63 P0
G00 X70.891132 Y147.074612

M62 P0(Penetrate)
G01 X76.791132 Y150.480980 Z0.000000 F100.000000
M63 P0

(End cutting path id: path26649)


(Start cutting path id: path26647)
(Change tool to Default tool)

M63 P0
G00 X51.391132 Y147.074612

M62 P0(Penetrate)
G01 X57.291131 Y150.480980 Z0.000000 F100.000000
M63 P0

(End cutting path id: path26647)


(Start cutting path id: path26645)
(Change tool to Default tool)

M63 P0
G00 X31.891131 Y147.074612

M62 P0(Penetrate)
G01 X37.791131 Y150.480980 Z0.000000 F100.000000
M63 P0

(End cutting path id: path26645)


(Start cutting path id: path26643)
(Change tool to Default tool)

M63 P0
G00 X12.391131 Y147.074612

M62 P0(Penetrate)
G01 X18.291131 Y150.480980 Z0.000000 F100.000000
M63 P0

(End cutting path id: path26643)


(Start cutting path id: path26641)
(Change tool to Default tool)

M63 P0
G00 X12.391131 Y88.574613

M62 P0(Penetrate)
G01 X18.291131 Y91.980979 Z0.000000 F100.000000
M63 P0

(End cutting path id: path26641)


(Start cutting path id: path26639)
(Change tool to Default tool)

M63 P0
G00 X31.891131 Y88.574613

M62 P0(Penetrate)
G01 X37.791131 Y91.980979 Z0.000000 F100.000000
M63 P0

(End cutting path id: path26639)


(Start cutting path id: path26637)
(Change tool to Default tool)

M63 P0
G00 X51.391132 Y88.574613

M62 P0(Penetrate)
G01 X57.291131 Y91.980979 Z0.000000 F100.000000
M63 P0

(End cutting path id: path26637)


(Start cutting path id: path26635)
(Change tool to Default tool)

M63 P0
G00 X70.891132 Y88.574613

M62 P0(Penetrate)
G01 X76.791132 Y91.980979 Z0.000000 F100.000000
M63 P0

(End cutting path id: path26635)


(Start cutting path id: path26633)
(Change tool to Default tool)

M63 P0
G00 X90.391130 Y88.574613

M62 P0(Penetrate)
G01 X96.291132 Y91.980979 Z0.000000 F100.000000
M63 P0

(End cutting path id: path26633)


(Start cutting path id: path26631)
(Change tool to Default tool)

M63 P0
G00 X109.891131 Y88.574613

M62 P0(Penetrate)
G01 X115.791130 Y91.980979 Z0.000000 F100.000000
M63 P0

(End cutting path id: path26631)


(Start cutting path id: path26629)
(Change tool to Default tool)

M63 P0
G00 X129.391131 Y88.574613

M62 P0(Penetrate)
G01 X135.291131 Y91.980979 Z0.000000 F100.000000
M63 P0

(End cutting path id: path26629)


(Start cutting path id: path26627)
(Change tool to Default tool)

M63 P0
G00 X129.391131 Y108.074613

M62 P0(Penetrate)
G01 X135.291131 Y111.480979 Z0.000000 F100.000000
M63 P0

(End cutting path id: path26627)


(Start cutting path id: path26625)
(Change tool to Default tool)

M63 P0
G00 X129.391131 Y127.574614

M62 P0(Penetrate)
G01 X135.291131 Y130.980980 Z0.000000 F100.000000
M63 P0

(End cutting path id: path26625)


(Start cutting path id: path26623)
(Change tool to Default tool)

M63 P0
G00 X129.391131 Y147.074612

M62 P0(Penetrate)
G01 X135.291131 Y150.480980 Z0.000000 F100.000000
M63 P0

(End cutting path id: path26623)


(Start cutting path id: path26621)
(Change tool to Default tool)

M63 P0
G00 X109.891131 Y108.074613

M62 P0(Penetrate)
G01 X115.791130 Y111.480979 Z0.000000 F100.000000
M63 P0

(End cutting path id: path26621)


(Start cutting path id: path26615)
(Change tool to Default tool)

M63 P0
G00 X43.141130 Y41.637346

M62 P0(Penetrate)
G03 X42.940475 Y42.387735 Z0.000000 I-1.500000 J0.000920 F100.000000
G03 X42.391396 Y42.937151 Z0.000000 I-1.299345 J-0.749469
G03 X41.641130 Y43.138266 Z0.000000 I-0.750266 J-1.298885
G03 X40.890864 Y42.937151 Z0.000000 I0.000000 J-1.500000
G03 X40.341785 Y42.387735 Z0.000000 I0.750266 J-1.298885
G03 X40.141130 Y41.637346 Z0.000000 I1.299345 J-0.749469
G03 X40.341785 Y40.886957 Z0.000000 I1.500000 J-0.000920
G03 X40.890864 Y40.337541 Z0.000000 I1.299345 J0.749469
G03 X41.641130 Y40.136425 Z0.000000 I0.750266 J1.298885
G03 X42.391396 Y40.337541 Z0.000000 I0.000000 J1.500000
G03 X42.940475 Y40.886957 Z0.000000 I-0.750266 J1.298885
G03 X43.141130 Y41.637346 Z0.000000 I-1.299345 J0.749469
G01 X43.141130 Y41.637346 Z0.000000
M63 P0

(End cutting path id: path26615)


(Start cutting path id: path26613)
(Change tool to Default tool)

M63 P0
G00 X121.141132 Y88.137346

M62 P0(Penetrate)
G03 X120.940477 Y88.887735 Z0.000000 I-1.500000 J0.000920 F100.000000
G03 X120.391398 Y89.437151 Z0.000000 I-1.299345 J-0.749469
G03 X119.641132 Y89.638266 Z0.000000 I-0.750266 J-1.298885
G03 X118.890867 Y89.437151 Z0.000000 I0.000000 J-1.500000
G03 X118.341788 Y88.887735 Z0.000000 I0.750266 J-1.298885
G03 X118.141133 Y88.137346 Z0.000000 I1.299345 J-0.749469
G03 X118.341788 Y87.386957 Z0.000000 I1.500000 J-0.000920
G03 X118.890867 Y86.837541 Z0.000000 I1.299345 J0.749469
G03 X119.641132 Y86.636426 Z0.000000 I0.750266 J1.298885
G03 X120.391398 Y86.837541 Z0.000000 I0.000000 J1.500000
G03 X120.940477 Y87.386957 Z0.000000 I-0.750266 J1.298885
G03 X121.141132 Y88.137346 Z0.000000 I-1.299345 J0.749469
G01 X121.141132 Y88.137346 Z0.000000
M63 P0

(End cutting path id: path26613)


(Start cutting path id: path26611)
(Change tool to Default tool)

M63 P0
G00 X101.641132 Y41.637346

M62 P0(Penetrate)
G03 X101.440477 Y42.387735 Z0.000000 I-1.500000 J0.000920 F100.000000
G03 X100.891397 Y42.937151 Z0.000000 I-1.299345 J-0.749469
G03 X100.141132 Y43.138266 Z0.000000 I-0.750266 J-1.298885
G03 X99.390866 Y42.937151 Z0.000000 I0.000000 J-1.500000
G03 X98.841787 Y42.387735 Z0.000000 I0.750266 J-1.298885
G03 X98.641132 Y41.637346 Z0.000000 I1.299345 J-0.749469
G03 X98.841787 Y40.886957 Z0.000000 I1.500000 J-0.000920
G03 X99.390866 Y40.337541 Z0.000000 I1.299345 J0.749469
G03 X100.141132 Y40.136425 Z0.000000 I0.750266 J1.298885
G03 X100.891397 Y40.337541 Z0.000000 I-0.000000 J1.500000
G03 X101.440477 Y40.886957 Z0.000000 I-0.750266 J1.298885
G03 X101.641132 Y41.637346 Z0.000000 I-1.299345 J0.749469
G01 X101.641132 Y41.637346 Z0.000000
M63 P0

(End cutting path id: path26611)


(Start cutting path id: path26609)
(Change tool to Default tool)

M63 P0
G00 X23.641131 Y88.137346

M62 P0(Penetrate)
G03 X23.440169 Y88.887346 Z0.000000 I-1.500000 J0.000000 F100.000000
G03 X22.891131 Y89.436384 Z0.000000 I-1.299038 J-0.750000
G03 X22.141131 Y89.637346 Z0.000000 I-0.750000 J-1.299038
G03 X21.391131 Y89.436384 Z0.000000 I-0.000000 J-1.500000
G03 X20.842093 Y88.887346 Z0.000000 I0.750000 J-1.299038
G03 X20.641131 Y88.137346 Z0.000000 I1.299038 J-0.750000
G03 X20.842093 Y87.387346 Z0.000000 I1.500000 J-0.000000
G03 X21.391131 Y86.838308 Z0.000000 I1.299038 J0.750000
G03 X22.141131 Y86.637346 Z0.000000 I0.750000 J1.299038
G03 X22.891131 Y86.838308 Z0.000000 I0.000000 J1.500000
G03 X23.440169 Y87.387346 Z0.000000 I-0.750000 J1.299038
G03 X23.641131 Y88.137346 Z0.000000 I-1.299038 J0.750000
G01 X23.641131 Y88.137346 Z0.000000
M63 P0

(End cutting path id: path26609)


(Start cutting path id: path26607)
(Change tool to Default tool)

M63 P0
G00 X121.141132 Y5.137337

M62 P0(Penetrate)
G03 X120.940477 Y5.887725 Z0.000000 I-1.500000 J0.000920 F100.000000
G03 X120.391398 Y6.437142 Z0.000000 I-1.299345 J-0.749469
G03 X119.641132 Y6.638257 Z0.000000 I-0.750266 J-1.298885
G03 X118.890867 Y6.437142 Z0.000000 I0.000000 J-1.500000
G03 X118.341788 Y5.887725 Z0.000000 I0.750266 J-1.298885
G03 X118.141133 Y5.137337 Z0.000000 I1.299345 J-0.749469
G03 X118.341788 Y4.386948 Z0.000000 I1.500000 J-0.000920
G03 X118.890867 Y3.837532 Z0.000000 I1.299345 J0.749469
G03 X119.641132 Y3.636416 Z0.000000 I0.750266 J1.298885
G03 X120.391398 Y3.837532 Z0.000000 I0.000000 J1.500000
G03 X120.940477 Y4.386948 Z0.000000 I-0.750266 J1.298885
G03 X121.141132 Y5.137337 Z0.000000 I-1.299345 J0.749469
G01 X121.141132 Y5.137337 Z0.000000
M63 P0

(End cutting path id: path26607)


(Start cutting path id: path26605)
(Change tool to Default tool)

M63 P0
G00 X23.641131 Y161.137347

M62 P0(Penetrate)
G03 X23.440169 Y161.887347 Z0.000000 I-1.500000 J0.000000 F100.000000
G03 X22.891131 Y162.436386 Z0.000000 I-1.299038 J-0.750000
G03 X22.141131 Y162.637347 Z0.000000 I-0.750000 J-1.299038
G03 X21.391131 Y162.436386 Z0.000000 I-0.000000 J-1.500000
G03 X20.842093 Y161.887347 Z0.000000 I0.750000 J-1.299038
G03 X20.641131 Y161.137347 Z0.000000 I1.299038 J-0.750000
G03 X20.842093 Y160.387347 Z0.000000 I1.500000 J-0.000000
G03 X21.391131 Y159.838309 Z0.000000 I1.299038 J0.750000
G03 X22.141131 Y159.637347 Z0.000000 I0.750000 J1.299038
G03 X22.891131 Y159.838309 Z0.000000 I0.000000 J1.500000
G03 X23.440169 Y160.387347 Z0.000000 I-0.750000 J1.299038
G03 X23.641131 Y161.137347 Z0.000000 I-1.299038 J0.750000
G01 X23.641131 Y161.137347 Z0.000000
M63 P0

(End cutting path id: path26605)


(Start cutting path id: path26603)
(Change tool to Default tool)

M63 P0
G00 X23.641131 Y5.137337

M62 P0(Penetrate)
G03 X23.440169 Y5.887337 Z0.000000 I-1.500000 J0.000000 F100.000000
G03 X22.891131 Y6.436375 Z0.000000 I-1.299038 J-0.750000
G03 X22.141131 Y6.637337 Z0.000000 I-0.750000 J-1.299038
G03 X21.391131 Y6.436375 Z0.000000 I-0.000000 J-1.500000
G03 X20.842093 Y5.887337 Z0.000000 I0.750000 J-1.299038
G03 X20.641131 Y5.137337 Z0.000000 I1.299038 J-0.750000
G03 X20.842093 Y4.387337 Z0.000000 I1.500000 J-0.000000
G03 X21.391131 Y3.838298 Z0.000000 I1.299038 J0.750000
G03 X22.141131 Y3.637336 Z0.000000 I0.750000 J1.299038
G03 X22.891131 Y3.838298 Z0.000000 I0.000000 J1.500000
G03 X23.440169 Y4.387337 Z0.000000 I-0.750000 J1.299038
G03 X23.641131 Y5.137337 Z0.000000 I-1.299038 J0.750000
G01 X23.641131 Y5.137337 Z0.000000
M63 P0

(End cutting path id: path26603)


(Start cutting path id: path26601)
(Change tool to Default tool)

M63 P0
G00 X121.141132 Y161.137347

M62 P0(Penetrate)
G03 X120.940477 Y161.887736 Z0.000000 I-1.500000 J0.000920 F100.000000
G03 X120.391398 Y162.437152 Z0.000000 I-1.299345 J-0.749469
G03 X119.641132 Y162.638268 Z0.000000 I-0.750266 J-1.298885
G03 X118.890867 Y162.437152 Z0.000000 I0.000000 J-1.500000
G03 X118.341788 Y161.887736 Z0.000000 I0.750266 J-1.298885
G03 X118.141133 Y161.137347 Z0.000000 I1.299345 J-0.749469
G03 X118.341788 Y160.386958 Z0.000000 I1.500000 J-0.000920
G03 X118.890867 Y159.837542 Z0.000000 I1.299345 J0.749469
G03 X119.641132 Y159.636427 Z0.000000 I0.750266 J1.298885
G03 X120.391398 Y159.837542 Z0.000000 I-0.000000 J1.500000
G03 X120.940477 Y160.386958 Z0.000000 I-0.750266 J1.298885
G03 X121.141132 Y161.137347 Z0.000000 I-1.299345 J0.749469
G01 X121.141132 Y161.137347 Z0.000000
M63 P0

(End cutting path id: path26601)


(Start cutting path id: path26599)
(Change tool to Default tool)

M63 P0
G00 X23.641131 Y78.137346

M62 P0(Penetrate)
G03 X23.440169 Y78.887346 Z0.000000 I-1.500000 J0.000000 F100.000000
G03 X22.891131 Y79.436385 Z0.000000 I-1.299038 J-0.750000
G03 X22.141131 Y79.637346 Z0.000000 I-0.750000 J-1.299038
G03 X21.391131 Y79.436385 Z0.000000 I-0.000000 J-1.500000
G03 X20.842093 Y78.887346 Z0.000000 I0.750000 J-1.299038
G03 X20.641131 Y78.137346 Z0.000000 I1.299038 J-0.750000
G03 X20.842093 Y77.387346 Z0.000000 I1.500000 J-0.000000
G03 X21.391131 Y76.838308 Z0.000000 I1.299038 J0.750000
G03 X22.141131 Y76.637346 Z0.000000 I0.750000 J1.299038
G03 X22.891131 Y76.838308 Z0.000000 I0.000000 J1.500000
G03 X23.440169 Y77.387346 Z0.000000 I-0.750000 J1.299038
G03 X23.641131 Y78.137346 Z0.000000 I-1.299038 J0.750000
G01 X23.641131 Y78.137346 Z0.000000
M63 P0

(End cutting path id: path26599)


(Start cutting path id: path26597)
(Change tool to Default tool)

M63 P0
G00 X43.141130 Y124.637347

M62 P0(Penetrate)
G03 X42.940475 Y125.387736 Z0.000000 I-1.500000 J0.000920 F100.000000
G03 X42.391396 Y125.937152 Z0.000000 I-1.299345 J-0.749469
G03 X41.641130 Y126.138267 Z0.000000 I-0.750266 J-1.298885
G03 X40.890864 Y125.937152 Z0.000000 I0.000000 J-1.500000
G03 X40.341785 Y125.387736 Z0.000000 I0.750266 J-1.298885
G03 X40.141130 Y124.637347 Z0.000000 I1.299345 J-0.749469
G03 X40.341785 Y123.886958 Z0.000000 I1.500000 J-0.000920
G03 X40.890864 Y123.337542 Z0.000000 I1.299345 J0.749469
G03 X41.641130 Y123.136426 Z0.000000 I0.750266 J1.298885
G03 X42.391396 Y123.337542 Z0.000000 I0.000000 J1.500000
G03 X42.940475 Y123.886958 Z0.000000 I-0.750266 J1.298885
G03 X43.141130 Y124.637347 Z0.000000 I-1.299345 J0.749469
G01 X43.141130 Y124.637347 Z0.000000
M63 P0

(End cutting path id: path26597)


(Start cutting path id: path26595)
(Change tool to Default tool)

M63 P0
G00 X121.141132 Y78.137346

M62 P0(Penetrate)
G03 X120.940477 Y78.887735 Z0.000000 I-1.500000 J0.000920 F100.000000
G03 X120.391398 Y79.437151 Z0.000000 I-1.299345 J-0.749469
G03 X119.641132 Y79.638267 Z0.000000 I-0.750266 J-1.298885
G03 X118.890867 Y79.437151 Z0.000000 I0.000000 J-1.500000
G03 X118.341788 Y78.887735 Z0.000000 I0.750266 J-1.298885
G03 X118.141133 Y78.137346 Z0.000000 I1.299345 J-0.749469
G03 X118.341788 Y77.386957 Z0.000000 I1.500000 J-0.000920
G03 X118.890867 Y76.837541 Z0.000000 I1.299345 J0.749469
G03 X119.641132 Y76.636426 Z0.000000 I0.750266 J1.298885
G03 X120.391398 Y76.837541 Z0.000000 I0.000000 J1.500000
G03 X120.940477 Y77.386957 Z0.000000 I-0.750266 J1.298885
G03 X121.141132 Y78.137346 Z0.000000 I-1.299345 J0.749469
G01 X121.141132 Y78.137346 Z0.000000
M63 P0

(End cutting path id: path26595)


(Start cutting path id: path26593)
(Change tool to Default tool)

M63 P0
G00 X101.641132 Y124.637347

M62 P0(Penetrate)
G03 X101.440477 Y125.387736 Z0.000000 I-1.500000 J0.000920 F100.000000
G03 X100.891397 Y125.937152 Z0.000000 I-1.299345 J-0.749469
G03 X100.141132 Y126.138267 Z0.000000 I-0.750266 J-1.298885
G03 X99.390866 Y125.937152 Z0.000000 I-0.000000 J-1.500000
G03 X98.841787 Y125.387736 Z0.000000 I0.750266 J-1.298885
G03 X98.641132 Y124.637347 Z0.000000 I1.299345 J-0.749469
G03 X98.841787 Y123.886958 Z0.000000 I1.500000 J-0.000920
G03 X99.390866 Y123.337542 Z0.000000 I1.299345 J0.749469
G03 X100.141132 Y123.136426 Z0.000000 I0.750266 J1.298885
G03 X100.891397 Y123.337542 Z0.000000 I-0.000000 J1.500000
G03 X101.440477 Y123.886958 Z0.000000 I-0.750266 J1.298885
G03 X101.641132 Y124.637347 Z0.000000 I-1.299345 J0.749469
G01 X101.641132 Y124.637347 Z0.000000
M63 P0

(End cutting path id: path26593)


(Start cutting path id: path26591)
(Change tool to Default tool)

M63 P0
G00 X129.391131 Y0.141128

M62 P0(Penetrate)
G03 X131.895898 Y0.397995 Z0.000000 I0.000000 J12.340723 F100.000000
G03 X134.158467 Y1.103411 Z0.000000 I-2.462227 J11.878627
G03 X136.246447 Y2.237350 Z0.000000 I-4.755586 J11.246027
G03 X138.051851 Y3.727732 Z0.000000 I-6.906293 J10.204771
G03 X139.542791 Y5.532675 Z0.000000 I-8.711697 J8.714389
G03 X140.677376 Y7.620306 Z0.000000 I-10.109972 J6.846691
G03 X141.383490 Y9.882656 Z0.000000 I-11.171750 J4.728247
G03 X141.641131 Y12.387343 Z0.000000 I-12.083082 J2.508501
M63 P0

(End cutting path id: path26591)


(Start cutting path id: path26589)
(Change tool to Default tool)

M63 P0
G00 X141.641131 Y70.887345

M62 P0(Penetrate)
G03 X141.384155 Y73.392644 Z0.000000 I-12.340793 J-0.000001 F100.000000
G03 X140.678465 Y75.655598 Z0.000000 I-11.878431 J-2.462718
G03 X139.544098 Y77.743865 Z0.000000 I-11.245610 J-4.756492
G03 X138.053189 Y79.549403 Z0.000000 I-10.203993 J-6.907546
G03 X136.247651 Y81.040312 Z0.000000 I-8.713084 J-8.713084
G03 X134.159384 Y82.174679 Z0.000000 I-6.844759 J-10.111243
G03 X131.896430 Y82.880369 Z0.000000 I-4.725671 J-11.172741
G03 X129.391131 Y83.137345 Z0.000000 I-2.505300 J-12.083817
M63 P0

(End cutting path id: path26589)


(Start cutting path id: path26587)
(Change tool to Default tool)

M63 P0
G00 X12.391131 Y83.137345

M62 P0(Penetrate)
G03 X9.885832 Y82.880369 Z0.000000 I0.000000 J-12.340793 F100.000000
G03 X7.622878 Y82.174679 Z0.000000 I2.462717 J-11.878431
G03 X5.534611 Y81.040312 Z0.000000 I4.756492 J-11.245610
G03 X3.729073 Y79.549403 Z0.000000 I6.907546 J-10.203993
G03 X2.238164 Y77.743865 Z0.000000 I8.713084 J-8.713084
G03 X1.103797 Y75.655598 Z0.000000 I10.111243 J-6.844759
G03 X0.398106 Y73.392644 Z0.000000 I11.172740 J-4.725671
G03 X0.141131 Y70.887345 Z0.000000 I12.083817 J-2.505300
M63 P0

(End cutting path id: path26587)


(Start cutting path id: path26585)
(Change tool to Default tool)

M63 P0
G00 X6.691131 Y9.096463

M62 P0(Penetrate)
G01 X12.391131 Y5.805554 Z0.000000 F100.000000
M63 P0

(End cutting path id: path26585)


(Start cutting path id: path26583)
(Change tool to Default tool)

M63 P0
G00 X26.191131 Y9.096463

M62 P0(Penetrate)
G01 X31.891131 Y5.805554 Z0.000000 F100.000000
M63 P0

(End cutting path id: path26583)


(Start cutting path id: path26581)
(Change tool to Default tool)

M63 P0
G00 X6.691131 Y28.596449

M62 P0(Penetrate)
G01 X12.391131 Y25.305552 Z0.000000 F100.000000
M63 P0

(End cutting path id: path26581)


(Start cutting path id: path26579)
(Change tool to Default tool)

M63 P0
G00 X6.691131 Y48.096450

M62 P0(Penetrate)
G01 X12.391131 Y44.805553 Z0.000000 F100.000000
M63 P0

(End cutting path id: path26579)


(Start cutting path id: path26577)
(Change tool to Default tool)

M63 P0
G00 X6.691131 Y67.596451

M62 P0(Penetrate)
G01 X12.391131 Y64.305553 Z0.000000 F100.000000
M63 P0

(End cutting path id: path26577)


(Start cutting path id: path26575)
(Change tool to Default tool)

M63 P0
G00 X45.691132 Y9.096463

M62 P0(Penetrate)
G01 X51.391132 Y5.805554 Z0.000000 F100.000000
M63 P0

(End cutting path id: path26575)


(Start cutting path id: path26573)
(Change tool to Default tool)

M63 P0
G00 X65.191132 Y9.096463

M62 P0(Penetrate)
G01 X70.891132 Y5.805554 Z0.000000 F100.000000
M63 P0

(End cutting path id: path26573)


(Start cutting path id: path26571)
(Change tool to Default tool)

M63 P0
G00 X84.691130 Y9.096463

M62 P0(Penetrate)
G01 X90.391130 Y5.805554 Z0.000000 F100.000000
M63 P0

(End cutting path id: path26571)


(Start cutting path id: path26569)
(Change tool to Default tool)

M63 P0
G00 X104.191131 Y9.096463

M62 P0(Penetrate)
G01 X109.891131 Y5.805554 Z0.000000 F100.000000
M63 P0

(End cutting path id: path26569)


(Start cutting path id: path26567)
(Change tool to Default tool)

M63 P0
G00 X123.691131 Y9.096463

M62 P0(Penetrate)
G01 X129.391131 Y5.805554 Z0.000000 F100.000000
M63 P0

(End cutting path id: path26567)


(Start cutting path id: path26565)
(Change tool to Default tool)

M63 P0
G00 X26.191131 Y28.596449

M62 P0(Penetrate)
G01 X31.891131 Y25.305552 Z0.000000 F100.000000
M63 P0

(End cutting path id: path26565)


(Start cutting path id: path26563)
(Change tool to Default tool)

M63 P0
G00 X26.191131 Y48.096450

M62 P0(Penetrate)
G01 X31.891131 Y44.805553 Z0.000000 F100.000000
M63 P0

(End cutting path id: path26563)


(Start cutting path id: path26561)
(Change tool to Default tool)

M63 P0
G00 X26.191131 Y67.596451

M62 P0(Penetrate)
G01 X31.891131 Y64.305553 Z0.000000 F100.000000
M63 P0

(End cutting path id: path26561)


(Start cutting path id: path26559)
(Change tool to Default tool)

M63 P0
G00 X45.691132 Y28.596449

M62 P0(Penetrate)
G01 X51.391132 Y25.305552 Z0.000000 F100.000000
M63 P0

(End cutting path id: path26559)


(Start cutting path id: path26557)
(Change tool to Default tool)

M63 P0
G00 X65.191132 Y28.596449

M62 P0(Penetrate)
G01 X70.891132 Y25.305552 Z0.000000 F100.000000
M63 P0

(End cutting path id: path26557)


(Start cutting path id: path26555)
(Change tool to Default tool)

M63 P0
G00 X84.691130 Y28.596449

M62 P0(Penetrate)
G01 X90.391130 Y25.305552 Z0.000000 F100.000000
M63 P0

(End cutting path id: path26555)


(Start cutting path id: path26553)
(Change tool to Default tool)

M63 P0
G00 X104.191131 Y28.596449

M62 P0(Penetrate)
G01 X109.891131 Y25.305552 Z0.000000 F100.000000
M63 P0

(End cutting path id: path26553)


(Start cutting path id: path26551)
(Change tool to Default tool)

M63 P0
G00 X123.691131 Y28.596449

M62 P0(Penetrate)
G01 X129.391131 Y25.305552 Z0.000000 F100.000000
M63 P0

(End cutting path id: path26551)


(Start cutting path id: path26549)
(Change tool to Default tool)

M63 P0
G00 X45.691132 Y48.096450

M62 P0(Penetrate)
G01 X51.391132 Y44.805553 Z0.000000 F100.000000
M63 P0

(End cutting path id: path26549)


(Start cutting path id: path26547)
(Change tool to Default tool)

M63 P0
G00 X65.191132 Y48.096450

M62 P0(Penetrate)
G01 X70.891132 Y44.805553 Z0.000000 F100.000000
M63 P0

(End cutting path id: path26547)


(Start cutting path id: path26545)
(Change tool to Default tool)

M63 P0
G00 X84.691130 Y48.096450

M62 P0(Penetrate)
G01 X90.391130 Y44.805553 Z0.000000 F100.000000
M63 P0

(End cutting path id: path26545)


(Start cutting path id: path26543)
(Change tool to Default tool)

M63 P0
G00 X104.191131 Y48.096450

M62 P0(Penetrate)
G01 X109.891131 Y44.805553 Z0.000000 F100.000000
M63 P0

(End cutting path id: path26543)


(Start cutting path id: path26541)
(Change tool to Default tool)

M63 P0
G00 X123.691131 Y48.096450

M62 P0(Penetrate)
G01 X129.391131 Y44.805553 Z0.000000 F100.000000
M63 P0

(End cutting path id: path26541)


(Start cutting path id: path26539)
(Change tool to Default tool)

M63 P0
G00 X45.691132 Y67.596451

M62 P0(Penetrate)
G01 X51.391132 Y64.305553 Z0.000000 F100.000000
M63 P0

(End cutting path id: path26539)


(Start cutting path id: path26537)
(Change tool to Default tool)

M63 P0
G00 X65.191132 Y67.596451

M62 P0(Penetrate)
G01 X70.891132 Y64.305553 Z0.000000 F100.000000
M63 P0

(End cutting path id: path26537)


(Start cutting path id: path26535)
(Change tool to Default tool)

M63 P0
G00 X84.691130 Y67.596451

M62 P0(Penetrate)
G01 X90.391130 Y64.305553 Z0.000000 F100.000000
M63 P0

(End cutting path id: path26535)


(Start cutting path id: path26533)
(Change tool to Default tool)

M63 P0
G00 X104.191131 Y67.596451

M62 P0(Penetrate)
G01 X109.891131 Y64.305553 Z0.000000 F100.000000
M63 P0

(End cutting path id: path26533)


(Start cutting path id: path26531)
(Change tool to Default tool)

M63 P0
G00 X123.691131 Y67.596451

M62 P0(Penetrate)
G01 X129.391131 Y64.305553 Z0.000000 F100.000000
M63 P0

(End cutting path id: path26531)


(Start cutting path id: path26529)
(Change tool to Default tool)

M63 P0
G00 X6.691131 Y15.678241

M62 P0(Penetrate)
G01 X6.691131 Y9.096463 Z0.000000 F100.000000
M63 P0

(End cutting path id: path26529)


(Start cutting path id: path26527)
(Change tool to Default tool)

M63 P0
G00 X26.191131 Y15.678241

M62 P0(Penetrate)
G01 X26.191131 Y9.096463 Z0.000000 F100.000000
M63 P0

(End cutting path id: path26527)


(Start cutting path id: path26525)
(Change tool to Default tool)

M63 P0
G00 X6.691131 Y35.178241

M62 P0(Penetrate)
G01 X6.691131 Y28.596449 Z0.000000 F100.000000
M63 P0

(End cutting path id: path26525)


(Start cutting path id: path26523)
(Change tool to Default tool)

M63 P0
G00 X6.691131 Y54.678242

M62 P0(Penetrate)
G01 X6.691131 Y48.096450 Z0.000000 F100.000000
M63 P0

(End cutting path id: path26523)


(Start cutting path id: path26521)
(Change tool to Default tool)

M63 P0
G00 X6.691131 Y74.178243

M62 P0(Penetrate)
G01 X6.691131 Y67.596451 Z0.000000 F100.000000
M63 P0

(End cutting path id: path26521)


(Start cutting path id: path26519)
(Change tool to Default tool)

M63 P0
G00 X45.691132 Y15.678241

M62 P0(Penetrate)
G01 X45.691132 Y9.096463 Z0.000000 F100.000000
M63 P0

(End cutting path id: path26519)


(Start cutting path id: path26517)
(Change tool to Default tool)

M63 P0
G00 X65.191132 Y15.678241

M62 P0(Penetrate)
G01 X65.191132 Y9.096463 Z0.000000 F100.000000
M63 P0

(End cutting path id: path26517)


(Start cutting path id: path26515)
(Change tool to Default tool)

M63 P0
G00 X84.691130 Y15.678241

M62 P0(Penetrate)
G01 X84.691130 Y9.096463 Z0.000000 F100.000000
M63 P0

(End cutting path id: path26515)


(Start cutting path id: path26513)
(Change tool to Default tool)

M63 P0
G00 X104.191131 Y15.678241

M62 P0(Penetrate)
G01 X104.191131 Y9.096463 Z0.000000 F100.000000
M63 P0

(End cutting path id: path26513)


(Start cutting path id: path26511)
(Change tool to Default tool)

M63 P0
G00 X123.691131 Y15.678241

M62 P0(Penetrate)
G01 X123.691131 Y9.096463 Z0.000000 F100.000000
M63 P0

(End cutting path id: path26511)


(Start cutting path id: path26509)
(Change tool to Default tool)

M63 P0
G00 X26.191131 Y35.178241

M62 P0(Penetrate)
G01 X26.191131 Y28.596449 Z0.000000 F100.000000
M63 P0

(End cutting path id: path26509)


(Start cutting path id: path26507)
(Change tool to Default tool)

M63 P0
G00 X26.191131 Y54.678242

M62 P0(Penetrate)
G01 X26.191131 Y48.096450 Z0.000000 F100.000000
M63 P0

(End cutting path id: path26507)


(Start cutting path id: path26505)
(Change tool to Default tool)

M63 P0
G00 X26.191131 Y74.178243

M62 P0(Penetrate)
G01 X26.191131 Y67.596451 Z0.000000 F100.000000
M63 P0

(End cutting path id: path26505)


(Start cutting path id: path26503)
(Change tool to Default tool)

M63 P0
G00 X45.691132 Y35.178241

M62 P0(Penetrate)
G01 X45.691132 Y28.596449 Z0.000000 F100.000000
M63 P0

(End cutting path id: path26503)


(Start cutting path id: path26501)
(Change tool to Default tool)

M63 P0
G00 X65.191132 Y35.178241

M62 P0(Penetrate)
G01 X65.191132 Y28.596449 Z0.000000 F100.000000
M63 P0

(End cutting path id: path26501)


(Start cutting path id: path26499)
(Change tool to Default tool)

M63 P0
G00 X84.691130 Y35.178241

M62 P0(Penetrate)
G01 X84.691130 Y28.596449 Z0.000000 F100.000000
M63 P0

(End cutting path id: path26499)


(Start cutting path id: path26497)
(Change tool to Default tool)

M63 P0
G00 X104.191131 Y35.178241

M62 P0(Penetrate)
G01 X104.191131 Y28.596449 Z0.000000 F100.000000
M63 P0

(End cutting path id: path26497)


(Start cutting path id: path26495)
(Change tool to Default tool)

M63 P0
G00 X123.691131 Y35.178241

M62 P0(Penetrate)
G01 X123.691131 Y28.596449 Z0.000000 F100.000000
M63 P0

(End cutting path id: path26495)


(Start cutting path id: path26493)
(Change tool to Default tool)

M63 P0
G00 X45.691132 Y54.678242

M62 P0(Penetrate)
G01 X45.691132 Y48.096450 Z0.000000 F100.000000
M63 P0

(End cutting path id: path26493)


(Start cutting path id: path26491)
(Change tool to Default tool)

M63 P0
G00 X65.191132 Y54.678242

M62 P0(Penetrate)
G01 X65.191132 Y48.096450 Z0.000000 F100.000000
M63 P0

(End cutting path id: path26491)


(Start cutting path id: path26489)
(Change tool to Default tool)

M63 P0
G00 X84.691130 Y54.678242

M62 P0(Penetrate)
G01 X84.691130 Y48.096450 Z0.000000 F100.000000
M63 P0

(End cutting path id: path26489)


(Start cutting path id: path26487)
(Change tool to Default tool)

M63 P0
G00 X104.191131 Y54.678242

M62 P0(Penetrate)
G01 X104.191131 Y48.096450 Z0.000000 F100.000000
M63 P0

(End cutting path id: path26487)


(Start cutting path id: path26485)
(Change tool to Default tool)

M63 P0
G00 X123.691131 Y54.678242

M62 P0(Penetrate)
G01 X123.691131 Y48.096450 Z0.000000 F100.000000
M63 P0

(End cutting path id: path26485)


(Start cutting path id: path26483)
(Change tool to Default tool)

M63 P0
G00 X45.691132 Y74.178243

M62 P0(Penetrate)
G01 X45.691132 Y67.596451 Z0.000000 F100.000000
M63 P0

(End cutting path id: path26483)


(Start cutting path id: path26481)
(Change tool to Default tool)

M63 P0
G00 X65.191132 Y74.178243

M62 P0(Penetrate)
G01 X65.191132 Y67.596451 Z0.000000 F100.000000
M63 P0

(End cutting path id: path26481)


(Start cutting path id: path26479)
(Change tool to Default tool)

M63 P0
G00 X84.691130 Y74.178243

M62 P0(Penetrate)
G01 X84.691130 Y67.596451 Z0.000000 F100.000000
M63 P0

(End cutting path id: path26479)


(Start cutting path id: path26477)
(Change tool to Default tool)

M63 P0
G00 X104.191131 Y74.178243

M62 P0(Penetrate)
G01 X104.191131 Y67.596451 Z0.000000 F100.000000
M63 P0

(End cutting path id: path26477)


(Start cutting path id: path26475)
(Change tool to Default tool)

M63 P0
G00 X123.691131 Y74.178243

M62 P0(Penetrate)
G01 X123.691131 Y67.596451 Z0.000000 F100.000000
M63 P0

(End cutting path id: path26475)


(Start cutting path id: path26473)
(Change tool to Default tool)

M63 P0
G00 X12.391131 Y18.969138

M62 P0(Penetrate)
G01 X6.691131 Y15.678241 Z0.000000 F100.000000
M63 P0

(End cutting path id: path26473)


(Start cutting path id: path26471)
(Change tool to Default tool)

M63 P0
G00 X31.891131 Y18.969138

M62 P0(Penetrate)
G01 X26.191131 Y15.678241 Z0.000000 F100.000000
M63 P0

(End cutting path id: path26471)


(Start cutting path id: path26469)
(Change tool to Default tool)

M63 P0
G00 X12.391131 Y38.469139

M62 P0(Penetrate)
G01 X6.691131 Y35.178241 Z0.000000 F100.000000
M63 P0

(End cutting path id: path26469)


(Start cutting path id: path26467)
(Change tool to Default tool)

M63 P0
G00 X12.391131 Y57.969139

M62 P0(Penetrate)
G01 X6.691131 Y54.678242 Z0.000000 F100.000000
M63 P0

(End cutting path id: path26467)


(Start cutting path id: path26465)
(Change tool to Default tool)

M63 P0
G00 X12.391131 Y77.469140

M62 P0(Penetrate)
G01 X6.691131 Y74.178243 Z0.000000 F100.000000
M63 P0

(End cutting path id: path26465)


(Start cutting path id: path26463)
(Change tool to Default tool)

M63 P0
G00 X51.391132 Y18.969138

M62 P0(Penetrate)
G01 X45.691132 Y15.678241 Z0.000000 F100.000000
M63 P0

(End cutting path id: path26463)


(Start cutting path id: path26461)
(Change tool to Default tool)

M63 P0
G00 X70.891132 Y18.969138

M62 P0(Penetrate)
G01 X65.191132 Y15.678241 Z0.000000 F100.000000
M63 P0

(End cutting path id: path26461)


(Start cutting path id: path26459)
(Change tool to Default tool)

M63 P0
G00 X90.391130 Y18.969138

M62 P0(Penetrate)
G01 X84.691130 Y15.678241 Z0.000000 F100.000000
M63 P0

(End cutting path id: path26459)


(Start cutting path id: path26457)
(Change tool to Default tool)

M63 P0
G00 X109.891131 Y18.969138

M62 P0(Penetrate)
G01 X104.191131 Y15.678241 Z0.000000 F100.000000
M63 P0

(End cutting path id: path26457)


(Start cutting path id: path26455)
(Change tool to Default tool)

M63 P0
G00 X129.391131 Y18.969138

M62 P0(Penetrate)
G01 X123.691131 Y15.678241 Z0.000000 F100.000000
M63 P0

(End cutting path id: path26455)


(Start cutting path id: path26453)
(Change tool to Default tool)

M63 P0
G00 X31.891131 Y38.469139

M62 P0(Penetrate)
G01 X26.191131 Y35.178241 Z0.000000 F100.000000
M63 P0

(End cutting path id: path26453)


(Start cutting path id: path26451)
(Change tool to Default tool)

M63 P0
G00 X31.891131 Y57.969139

M62 P0(Penetrate)
G01 X26.191131 Y54.678242 Z0.000000 F100.000000
M63 P0

(End cutting path id: path26451)


(Start cutting path id: path26449)
(Change tool to Default tool)

M63 P0
G00 X31.891131 Y77.469140

M62 P0(Penetrate)
G01 X26.191131 Y74.178243 Z0.000000 F100.000000
M63 P0

(End cutting path id: path26449)


(Start cutting path id: path26447)
(Change tool to Default tool)

M63 P0
G00 X51.391132 Y38.469139

M62 P0(Penetrate)
G01 X45.691132 Y35.178241 Z0.000000 F100.000000
M63 P0

(End cutting path id: path26447)


(Start cutting path id: path26445)
(Change tool to Default tool)

M63 P0
G00 X70.891132 Y38.469139

M62 P0(Penetrate)
G01 X65.191132 Y35.178241 Z0.000000 F100.000000
M63 P0

(End cutting path id: path26445)


(Start cutting path id: path26443)
(Change tool to Default tool)

M63 P0
G00 X90.391130 Y38.469139

M62 P0(Penetrate)
G01 X84.691130 Y35.178241 Z0.000000 F100.000000
M63 P0

(End cutting path id: path26443)


(Start cutting path id: path26441)
(Change tool to Default tool)

M63 P0
G00 X109.891131 Y38.469139

M62 P0(Penetrate)
G01 X104.191131 Y35.178241 Z0.000000 F100.000000
M63 P0

(End cutting path id: path26441)


(Start cutting path id: path26439)
(Change tool to Default tool)

M63 P0
G00 X129.391131 Y38.469139

M62 P0(Penetrate)
G01 X123.691131 Y35.178241 Z0.000000 F100.000000
M63 P0

(End cutting path id: path26439)


(Start cutting path id: path26437)
(Change tool to Default tool)

M63 P0
G00 X51.391132 Y57.969139

M62 P0(Penetrate)
G01 X45.691132 Y54.678242 Z0.000000 F100.000000
M63 P0

(End cutting path id: path26437)


(Start cutting path id: path26435)
(Change tool to Default tool)

M63 P0
G00 X70.891132 Y57.969139

M62 P0(Penetrate)
G01 X65.191132 Y54.678242 Z0.000000 F100.000000
M63 P0

(End cutting path id: path26435)


(Start cutting path id: path26433)
(Change tool to Default tool)

M63 P0
G00 X90.391130 Y57.969139

M62 P0(Penetrate)
G01 X84.691130 Y54.678242 Z0.000000 F100.000000
M63 P0

(End cutting path id: path26433)


(Start cutting path id: path26431)
(Change tool to Default tool)

M63 P0
G00 X109.891131 Y57.969139

M62 P0(Penetrate)
G01 X104.191131 Y54.678242 Z0.000000 F100.000000
M63 P0

(End cutting path id: path26431)


(Start cutting path id: path26429)
(Change tool to Default tool)

M63 P0
G00 X129.391131 Y57.969139

M62 P0(Penetrate)
G01 X123.691131 Y54.678242 Z0.000000 F100.000000
M63 P0

(End cutting path id: path26429)


(Start cutting path id: path26427)
(Change tool to Default tool)

M63 P0
G00 X51.391132 Y77.469140

M62 P0(Penetrate)
G01 X45.691132 Y74.178243 Z0.000000 F100.000000
M63 P0

(End cutting path id: path26427)


(Start cutting path id: path26425)
(Change tool to Default tool)

M63 P0
G00 X70.891132 Y77.469140

M62 P0(Penetrate)
G01 X65.191132 Y74.178243 Z0.000000 F100.000000
M63 P0

(End cutting path id: path26425)


(Start cutting path id: path26423)
(Change tool to Default tool)

M63 P0
G00 X90.391130 Y77.469140

M62 P0(Penetrate)
G01 X84.691130 Y74.178243 Z0.000000 F100.000000
M63 P0

(End cutting path id: path26423)


(Start cutting path id: path26421)
(Change tool to Default tool)

M63 P0
G00 X109.891131 Y77.469140

M62 P0(Penetrate)
G01 X104.191131 Y74.178243 Z0.000000 F100.000000
M63 P0

(End cutting path id: path26421)


(Start cutting path id: path26419)
(Change tool to Default tool)

M63 P0
G00 X129.391131 Y77.469140

M62 P0(Penetrate)
G01 X123.691131 Y74.178243 Z0.000000 F100.000000
M63 P0

(End cutting path id: path26419)


(Start cutting path id: path26417)
(Change tool to Default tool)

M63 P0
G00 X18.091131 Y15.678241

M62 P0(Penetrate)
G01 X12.391131 Y18.969138 Z0.000000 F100.000000
M63 P0

(End cutting path id: path26417)


(Start cutting path id: path26415)
(Change tool to Default tool)

M63 P0
G00 X37.591131 Y15.678241

M62 P0(Penetrate)
G01 X31.891131 Y18.969138 Z0.000000 F100.000000
M63 P0

(End cutting path id: path26415)


(Start cutting path id: path26413)
(Change tool to Default tool)

M63 P0
G00 X18.091131 Y35.178241

M62 P0(Penetrate)
G01 X12.391131 Y38.469139 Z0.000000 F100.000000
M63 P0

(End cutting path id: path26413)


(Start cutting path id: path26411)
(Change tool to Default tool)

M63 P0
G00 X18.091131 Y54.678242

M62 P0(Penetrate)
G01 X12.391131 Y57.969139 Z0.000000 F100.000000
M63 P0

(End cutting path id: path26411)


(Start cutting path id: path26409)
(Change tool to Default tool)

M63 P0
G00 X18.091131 Y74.178243

M62 P0(Penetrate)
G01 X12.391131 Y77.469140 Z0.000000 F100.000000
M63 P0

(End cutting path id: path26409)


(Start cutting path id: path26407)
(Change tool to Default tool)

M63 P0
G00 X57.091132 Y15.678241

M62 P0(Penetrate)
G01 X51.391132 Y18.969138 Z0.000000 F100.000000
M63 P0

(End cutting path id: path26407)


(Start cutting path id: path26405)
(Change tool to Default tool)

M63 P0
G00 X76.591132 Y15.678241

M62 P0(Penetrate)
G01 X70.891132 Y18.969138 Z0.000000 F100.000000
M63 P0

(End cutting path id: path26405)


(Start cutting path id: path26403)
(Change tool to Default tool)

M63 P0
G00 X96.091133 Y15.678241

M62 P0(Penetrate)
G01 X90.391130 Y18.969138 Z0.000000 F100.000000
M63 P0

(End cutting path id: path26403)


(Start cutting path id: path26401)
(Change tool to Default tool)

M63 P0
G00 X115.591131 Y15.678241

M62 P0(Penetrate)
G01 X109.891131 Y18.969138 Z0.000000 F100.000000
M63 P0

(End cutting path id: path26401)


(Start cutting path id: path26399)
(Change tool to Default tool)

M63 P0
G00 X135.091131 Y15.678241

M62 P0(Penetrate)
G01 X129.391131 Y18.969138 Z0.000000 F100.000000
M63 P0

(End cutting path id: path26399)


(Start cutting path id: path26397)
(Change tool to Default tool)

M63 P0
G00 X37.591131 Y35.178241

M62 P0(Penetrate)
G01 X31.891131 Y38.469139 Z0.000000 F100.000000
M63 P0

(End cutting path id: path26397)


(Start cutting path id: path26395)
(Change tool to Default tool)

M63 P0
G00 X37.591131 Y54.678242

M62 P0(Penetrate)
G01 X31.891131 Y57.969139 Z0.000000 F100.000000
M63 P0

(End cutting path id: path26395)


(Start cutting path id: path26393)
(Change tool to Default tool)

M63 P0
G00 X37.591131 Y74.178243

M62 P0(Penetrate)
G01 X31.891131 Y77.469140 Z0.000000 F100.000000
M63 P0

(End cutting path id: path26393)


(Start cutting path id: path26391)
(Change tool to Default tool)

M63 P0
G00 X57.091132 Y35.178241

M62 P0(Penetrate)
G01 X51.391132 Y38.469139 Z0.000000 F100.000000
M63 P0

(End cutting path id: path26391)


(Start cutting path id: path26389)
(Change tool to Default tool)

M63 P0
G00 X76.591132 Y35.178241

M62 P0(Penetrate)
G01 X70.891132 Y38.469139 Z0.000000 F100.000000
M63 P0

(End cutting path id: path26389)


(Start cutting path id: path26387)
(Change tool to Default tool)

M63 P0
G00 X96.091133 Y35.178241

M62 P0(Penetrate)
G01 X90.391130 Y38.469139 Z0.000000 F100.000000
M63 P0

(End cutting path id: path26387)


(Start cutting path id: path26385)
(Change tool to Default tool)

M63 P0
G00 X115.591131 Y35.178241

M62 P0(Penetrate)
G01 X109.891131 Y38.469139 Z0.000000 F100.000000
M63 P0

(End cutting path id: path26385)


(Start cutting path id: path26383)
(Change tool to Default tool)

M63 P0
G00 X135.091131 Y35.178241

M62 P0(Penetrate)
G01 X129.391131 Y38.469139 Z0.000000 F100.000000
M63 P0

(End cutting path id: path26383)


(Start cutting path id: path26381)
(Change tool to Default tool)

M63 P0
G00 X57.091132 Y54.678242

M62 P0(Penetrate)
G01 X51.391132 Y57.969139 Z0.000000 F100.000000
M63 P0

(End cutting path id: path26381)


(Start cutting path id: path26379)
(Change tool to Default tool)

M63 P0
G00 X76.591132 Y54.678242

M62 P0(Penetrate)
G01 X70.891132 Y57.969139 Z0.000000 F100.000000
M63 P0

(End cutting path id: path26379)


(Start cutting path id: path26377)
(Change tool to Default tool)

M63 P0
G00 X96.091133 Y54.678242

M62 P0(Penetrate)
G01 X90.391130 Y57.969139 Z0.000000 F100.000000
M63 P0

(End cutting path id: path26377)


(Start cutting path id: path26375)
(Change tool to Default tool)

M63 P0
G00 X115.591131 Y54.678242

M62 P0(Penetrate)
G01 X109.891131 Y57.969139 Z0.000000 F100.000000
M63 P0

(End cutting path id: path26375)


(Start cutting path id: path26373)
(Change tool to Default tool)

M63 P0
G00 X135.091131 Y54.678242

M62 P0(Penetrate)
G01 X129.391131 Y57.969139 Z0.000000 F100.000000
M63 P0

(End cutting path id: path26373)


(Start cutting path id: path26371)
(Change tool to Default tool)

M63 P0
G00 X57.091132 Y74.178243

M62 P0(Penetrate)
G01 X51.391132 Y77.469140 Z0.000000 F100.000000
M63 P0

(End cutting path id: path26371)


(Start cutting path id: path26369)
(Change tool to Default tool)

M63 P0
G00 X76.591132 Y74.178243

M62 P0(Penetrate)
G01 X70.891132 Y77.469140 Z0.000000 F100.000000
M63 P0

(End cutting path id: path26369)


(Start cutting path id: path26367)
(Change tool to Default tool)

M63 P0
G00 X96.091133 Y74.178243

M62 P0(Penetrate)
G01 X90.391130 Y77.469140 Z0.000000 F100.000000
M63 P0

(End cutting path id: path26367)


(Start cutting path id: path26365)
(Change tool to Default tool)

M63 P0
G00 X115.591131 Y74.178243

M62 P0(Penetrate)
G01 X109.891131 Y77.469140 Z0.000000 F100.000000
M63 P0

(End cutting path id: path26365)


(Start cutting path id: path26363)
(Change tool to Default tool)

M63 P0
G00 X135.091131 Y74.178243

M62 P0(Penetrate)
G01 X129.391131 Y77.469140 Z0.000000 F100.000000
M63 P0

(End cutting path id: path26363)


(Start cutting path id: path26361)
(Change tool to Default tool)

M63 P0
G00 X18.091131 Y9.096463

M62 P0(Penetrate)
G01 X18.091131 Y15.678241 Z0.000000 F100.000000
M63 P0

(End cutting path id: path26361)


(Start cutting path id: path26359)
(Change tool to Default tool)

M63 P0
G00 X37.591131 Y9.096463

M62 P0(Penetrate)
G01 X37.591131 Y15.678241 Z0.000000 F100.000000
M63 P0

(End cutting path id: path26359)


(Start cutting path id: path26357)
(Change tool to Default tool)

M63 P0
G00 X18.091131 Y28.596449

M62 P0(Penetrate)
G01 X18.091131 Y35.178241 Z0.000000 F100.000000
M63 P0

(End cutting path id: path26357)


(Start cutting path id: path26355)
(Change tool to Default tool)

M63 P0
G00 X18.091131 Y48.096450

M62 P0(Penetrate)
G01 X18.091131 Y54.678242 Z0.000000 F100.000000
M63 P0

(End cutting path id: path26355)


(Start cutting path id: path26353)
(Change tool to Default tool)

M63 P0
G00 X18.091131 Y67.596451

M62 P0(Penetrate)
G01 X18.091131 Y74.178243 Z0.000000 F100.000000
M63 P0

(End cutting path id: path26353)


(Start cutting path id: path26351)
(Change tool to Default tool)

M63 P0
G00 X57.091132 Y9.096463

M62 P0(Penetrate)
G01 X57.091132 Y15.678241 Z0.000000 F100.000000
M63 P0

(End cutting path id: path26351)


(Start cutting path id: path26349)
(Change tool to Default tool)

M63 P0
G00 X76.591132 Y9.096463

M62 P0(Penetrate)
G01 X76.591132 Y15.678241 Z0.000000 F100.000000
M63 P0

(End cutting path id: path26349)


(Start cutting path id: path26347)
(Change tool to Default tool)

M63 P0
G00 X96.091133 Y9.096463

M62 P0(Penetrate)
G01 X96.091133 Y15.678241 Z0.000000 F100.000000
M63 P0

(End cutting path id: path26347)


(Start cutting path id: path26345)
(Change tool to Default tool)

M63 P0
G00 X115.591131 Y9.096463

M62 P0(Penetrate)
G01 X115.591131 Y15.678241 Z0.000000 F100.000000
M63 P0

(End cutting path id: path26345)


(Start cutting path id: path26343)
(Change tool to Default tool)

M63 P0
G00 X135.091131 Y9.096463

M62 P0(Penetrate)
G01 X135.091131 Y15.678241 Z0.000000 F100.000000
M63 P0

(End cutting path id: path26343)


(Start cutting path id: path26341)
(Change tool to Default tool)

M63 P0
G00 X37.591131 Y28.596449

M62 P0(Penetrate)
G01 X37.591131 Y35.178241 Z0.000000 F100.000000
M63 P0

(End cutting path id: path26341)


(Start cutting path id: path26339)
(Change tool to Default tool)

M63 P0
G00 X37.591131 Y48.096450

M62 P0(Penetrate)
G01 X37.591131 Y54.678242 Z0.000000 F100.000000
M63 P0

(End cutting path id: path26339)


(Start cutting path id: path26337)
(Change tool to Default tool)

M63 P0
G00 X37.591131 Y67.596451

M62 P0(Penetrate)
G01 X37.591131 Y74.178243 Z0.000000 F100.000000
M63 P0

(End cutting path id: path26337)


(Start cutting path id: path26335)
(Change tool to Default tool)

M63 P0
G00 X57.091132 Y28.596449

M62 P0(Penetrate)
G01 X57.091132 Y35.178241 Z0.000000 F100.000000
M63 P0

(End cutting path id: path26335)


(Start cutting path id: path26333)
(Change tool to Default tool)

M63 P0
G00 X76.591132 Y28.596449

M62 P0(Penetrate)
G01 X76.591132 Y35.178241 Z0.000000 F100.000000
M63 P0

(End cutting path id: path26333)


(Start cutting path id: path26331)
(Change tool to Default tool)

M63 P0
G00 X96.091133 Y28.596449

M62 P0(Penetrate)
G01 X96.091133 Y35.178241 Z0.000000 F100.000000
M63 P0

(End cutting path id: path26331)


(Start cutting path id: path26329)
(Change tool to Default tool)

M63 P0
G00 X115.591131 Y28.596449

M62 P0(Penetrate)
G01 X115.591131 Y35.178241 Z0.000000 F100.000000
M63 P0

(End cutting path id: path26329)


(Start cutting path id: path26327)
(Change tool to Default tool)

M63 P0
G00 X135.091131 Y28.596449

M62 P0(Penetrate)
G01 X135.091131 Y35.178241 Z0.000000 F100.000000
M63 P0

(End cutting path id: path26327)


(Start cutting path id: path26325)
(Change tool to Default tool)

M63 P0
G00 X57.091132 Y48.096450

M62 P0(Penetrate)
G01 X57.091132 Y54.678242 Z0.000000 F100.000000
M63 P0

(End cutting path id: path26325)


(Start cutting path id: path26323)
(Change tool to Default tool)

M63 P0
G00 X76.591132 Y48.096450

M62 P0(Penetrate)
G01 X76.591132 Y54.678242 Z0.000000 F100.000000
M63 P0

(End cutting path id: path26323)


(Start cutting path id: path26321)
(Change tool to Default tool)

M63 P0
G00 X96.091133 Y48.096450

M62 P0(Penetrate)
G01 X96.091133 Y54.678242 Z0.000000 F100.000000
M63 P0

(End cutting path id: path26321)


(Start cutting path id: path26319)
(Change tool to Default tool)

M63 P0
G00 X115.591131 Y48.096450

M62 P0(Penetrate)
G01 X115.591131 Y54.678242 Z0.000000 F100.000000
M63 P0

(End cutting path id: path26319)


(Start cutting path id: path26317)
(Change tool to Default tool)

M63 P0
G00 X135.091131 Y48.096450

M62 P0(Penetrate)
G01 X135.091131 Y54.678242 Z0.000000 F100.000000
M63 P0

(End cutting path id: path26317)


(Start cutting path id: path26315)
(Change tool to Default tool)

M63 P0
G00 X57.091132 Y67.596451

M62 P0(Penetrate)
G01 X57.091132 Y74.178243 Z0.000000 F100.000000
M63 P0

(End cutting path id: path26315)


(Start cutting path id: path26313)
(Change tool to Default tool)

M63 P0
G00 X76.591132 Y67.596451

M62 P0(Penetrate)
G01 X76.591132 Y74.178243 Z0.000000 F100.000000
M63 P0

(End cutting path id: path26313)


(Start cutting path id: path26311)
(Change tool to Default tool)

M63 P0
G00 X96.091133 Y67.596451

M62 P0(Penetrate)
G01 X96.091133 Y74.178243 Z0.000000 F100.000000
M63 P0

(End cutting path id: path26311)


(Start cutting path id: path26309)
(Change tool to Default tool)

M63 P0
G00 X115.591131 Y67.596451

M62 P0(Penetrate)
G01 X115.591131 Y74.178243 Z0.000000 F100.000000
M63 P0

(End cutting path id: path26309)


(Start cutting path id: path26307)
(Change tool to Default tool)

M63 P0
G00 X135.091131 Y67.596451

M62 P0(Penetrate)
G01 X135.091131 Y74.178243 Z0.000000 F100.000000
M63 P0

(End cutting path id: path26307)


(Start cutting path id: path26305)
(Change tool to Default tool)

M63 P0
G00 X12.391131 Y5.805554

M62 P0(Penetrate)
G01 X18.091131 Y9.096463 Z0.000000 F100.000000
M63 P0

(End cutting path id: path26305)


(Start cutting path id: path26303)
(Change tool to Default tool)

M63 P0
G00 X31.891131 Y5.805554

M62 P0(Penetrate)
G01 X37.591131 Y9.096463 Z0.000000 F100.000000
M63 P0

(End cutting path id: path26303)


(Start cutting path id: path26301)
(Change tool to Default tool)

M63 P0
G00 X12.391131 Y25.305552

M62 P0(Penetrate)
G01 X18.091131 Y28.596449 Z0.000000 F100.000000
M63 P0

(End cutting path id: path26301)


(Start cutting path id: path26299)
(Change tool to Default tool)

M63 P0
G00 X12.391131 Y44.805553

M62 P0(Penetrate)
G01 X18.091131 Y48.096450 Z0.000000 F100.000000
M63 P0

(End cutting path id: path26299)


(Start cutting path id: path26297)
(Change tool to Default tool)

M63 P0
G00 X12.391131 Y64.305553

M62 P0(Penetrate)
G01 X18.091131 Y67.596451 Z0.000000 F100.000000
M63 P0

(End cutting path id: path26297)


(Start cutting path id: path26295)
(Change tool to Default tool)

M63 P0
G00 X51.391132 Y5.805554

M62 P0(Penetrate)
G01 X57.091132 Y9.096463 Z0.000000 F100.000000
M63 P0

(End cutting path id: path26295)


(Start cutting path id: path26293)
(Change tool to Default tool)

M63 P0
G00 X70.891132 Y5.805554

M62 P0(Penetrate)
G01 X76.591132 Y9.096463 Z0.000000 F100.000000
M63 P0

(End cutting path id: path26293)


(Start cutting path id: path26291)
(Change tool to Default tool)

M63 P0
G00 X90.391130 Y5.805554

M62 P0(Penetrate)
G01 X96.091133 Y9.096463 Z0.000000 F100.000000
M63 P0

(End cutting path id: path26291)


(Start cutting path id: path26289)
(Change tool to Default tool)

M63 P0
G00 X109.891131 Y5.805554

M62 P0(Penetrate)
G01 X115.591131 Y9.096463 Z0.000000 F100.000000
M63 P0

(End cutting path id: path26289)


(Start cutting path id: path26287)
(Change tool to Default tool)

M63 P0
G00 X129.391131 Y5.805554

M62 P0(Penetrate)
G01 X135.091131 Y9.096463 Z0.000000 F100.000000
M63 P0

(End cutting path id: path26287)


(Start cutting path id: path26285)
(Change tool to Default tool)

M63 P0
G00 X31.891131 Y25.305552

M62 P0(Penetrate)
G01 X37.591131 Y28.596449 Z0.000000 F100.000000
M63 P0

(End cutting path id: path26285)


(Start cutting path id: path26283)
(Change tool to Default tool)

M63 P0
G00 X31.891131 Y44.805553

M62 P0(Penetrate)
G01 X37.591131 Y48.096450 Z0.000000 F100.000000
M63 P0

(End cutting path id: path26283)


(Start cutting path id: path26281)
(Change tool to Default tool)

M63 P0
G00 X31.891131 Y64.305553

M62 P0(Penetrate)
G01 X37.591131 Y67.596451 Z0.000000 F100.000000
M63 P0

(End cutting path id: path26281)


(Start cutting path id: path26279)
(Change tool to Default tool)

M63 P0
G00 X51.391132 Y25.305552

M62 P0(Penetrate)
G01 X57.091132 Y28.596449 Z0.000000 F100.000000
M63 P0

(End cutting path id: path26279)


(Start cutting path id: path26277)
(Change tool to Default tool)

M63 P0
G00 X70.891132 Y25.305552

M62 P0(Penetrate)
G01 X76.591132 Y28.596449 Z0.000000 F100.000000
M63 P0

(End cutting path id: path26277)


(Start cutting path id: path26275)
(Change tool to Default tool)

M63 P0
G00 X90.391130 Y25.305552

M62 P0(Penetrate)
G01 X96.091133 Y28.596449 Z0.000000 F100.000000
M63 P0

(End cutting path id: path26275)


(Start cutting path id: path26273)
(Change tool to Default tool)

M63 P0
G00 X109.891131 Y25.305552

M62 P0(Penetrate)
G01 X115.591131 Y28.596449 Z0.000000 F100.000000
M63 P0

(End cutting path id: path26273)


(Start cutting path id: path26271)
(Change tool to Default tool)

M63 P0
G00 X129.391131 Y25.305552

M62 P0(Penetrate)
G01 X135.091131 Y28.596449 Z0.000000 F100.000000
M63 P0

(End cutting path id: path26271)


(Start cutting path id: path26269)
(Change tool to Default tool)

M63 P0
G00 X51.391132 Y44.805553

M62 P0(Penetrate)
G01 X57.091132 Y48.096450 Z0.000000 F100.000000
M63 P0

(End cutting path id: path26269)


(Start cutting path id: path26267)
(Change tool to Default tool)

M63 P0
G00 X70.891132 Y44.805553

M62 P0(Penetrate)
G01 X76.591132 Y48.096450 Z0.000000 F100.000000
M63 P0

(End cutting path id: path26267)


