%
(Header)
(Generated by gcodetools from Inkscape.)
(Using default header. To add your own header create file "header" in the output dir.)
M3 S1 F500
(Header end.)
G21 (All units in mm)

(Start cutting path id: path3740)
(Change tool to Default tool)

M63 P0
G00 X91.417579 Y165.327119

M62 P0(Penetrate)
G02 X91.413736 Y165.285539 Z0.000000 I-0.226866 J0.000000 F25.000000
G02 X91.403027 Y165.249067 Z0.000000 I-0.184799 J0.034454
G02 X91.385158 Y165.215550 Z0.000000 I-0.171203 J0.069749
G02 X91.359371 Y165.184244 Z0.000000 I-0.174850 J0.117756
G02 X91.328064 Y165.158456 Z0.000000 I-0.149062 J0.149062
G02 X91.294548 Y165.140588 Z0.000000 I-0.103266 J0.153335
G02 X91.258076 Y165.129879 Z0.000000 I-0.070926 J0.174090
G02 X91.216496 Y165.126036 Z0.000000 I-0.041581 J0.223023
G02 X91.174879 Y165.129819 Z0.000000 I0.000000 J0.230784
G02 X91.137121 Y165.140588 Z0.000000 I0.036740 J0.200401
G02 X91.102098 Y165.158374 Z0.000000 I0.075253 J0.191554
G02 X91.068329 Y165.184244 Z0.000000 I0.129338 J0.203805
G02 X91.042541 Y165.215550 Z0.000000 I0.149062 J0.149062
G02 X91.024673 Y165.249067 Z0.000000 I0.153335 J0.103266
G02 X91.013964 Y165.285539 Z0.000000 I0.174090 J0.070926
G02 X91.010121 Y165.327119 Z0.000000 I0.223023 J0.041581
G02 X91.014015 Y165.371361 Z0.000000 I0.253256 J-0.000000
G02 X91.024673 Y165.409140 Z0.000000 I0.194795 J-0.034560
G02 X91.042716 Y165.443895 Z0.000000 I0.174676 J-0.068623
G02 X91.068329 Y165.475286 Z0.000000 I0.167658 J-0.110654
G02 X91.102098 Y165.501156 Z0.000000 I0.163107 J-0.177935
G02 X91.137121 Y165.518942 Z0.000000 I0.110276 J-0.173768
G02 X91.174879 Y165.529711 Z0.000000 I0.074498 J-0.189632
G02 X91.216496 Y165.533494 Z0.000000 I0.041617 J-0.227001
G02 X91.258076 Y165.529651 Z0.000000 I-0.000000 J-0.226866
G02 X91.294548 Y165.518942 Z0.000000 I-0.034454 J-0.184799
G02 X91.328064 Y165.501074 Z0.000000 I-0.069749 J-0.171203
G02 X91.359371 Y165.475286 Z0.000000 I-0.117756 J-0.174850
G02 X91.384984 Y165.443895 Z0.000000 I-0.142045 J-0.142045
G02 X91.403027 Y165.409140 Z0.000000 I-0.156633 J-0.103378
G02 X91.413685 Y165.371361 Z0.000000 I-0.184137 J-0.072340
G02 X91.417579 Y165.327119 Z0.000000 I-0.249362 J-0.044242
G01 X91.417579 Y165.327119 Z0.000000
M63 P0

(End cutting path id: path3740)


(Start cutting path id: path3740)
(Change tool to Default tool)

M63 P0
G00 X91.930871 Y165.327119

M62 P0(Penetrate)
G02 X91.927027 Y165.285539 Z0.000000 I-0.226866 J0.000000 F25.000000
G02 X91.916318 Y165.249067 Z0.000000 I-0.184799 J0.034454
G02 X91.898450 Y165.215550 Z0.000000 I-0.171203 J0.069749
G02 X91.872662 Y165.184244 Z0.000000 I-0.174850 J0.117756
G02 X91.841271 Y165.158631 Z0.000000 I-0.142045 J0.142045
G02 X91.806516 Y165.140588 Z0.000000 I-0.103378 J0.156633
G02 X91.768737 Y165.129930 Z0.000000 I-0.072340 J0.184137
G02 X91.724496 Y165.126036 Z0.000000 I-0.044242 J0.249362
G02 X91.682915 Y165.129879 Z0.000000 I0.000000 J0.226866
G02 X91.646443 Y165.140588 Z0.000000 I0.034454 J0.184799
G02 X91.612927 Y165.158456 Z0.000000 I0.069749 J0.171203
G02 X91.581621 Y165.184244 Z0.000000 I0.117756 J0.174850
G02 X91.555833 Y165.215550 Z0.000000 I0.149062 J0.149062
G02 X91.537964 Y165.249067 Z0.000000 I0.153335 J0.103266
G02 X91.527255 Y165.285539 Z0.000000 I0.174090 J0.070926
G02 X91.523412 Y165.327119 Z0.000000 I0.223023 J0.041581
G02 X91.527306 Y165.371361 Z0.000000 I0.253256 J-0.000000
G02 X91.537964 Y165.409140 Z0.000000 I0.194795 J-0.034560
G02 X91.556007 Y165.443895 Z0.000000 I0.174676 J-0.068623
G02 X91.581621 Y165.475286 Z0.000000 I0.167658 J-0.110654
G02 X91.612927 Y165.501074 Z0.000000 I0.149062 J-0.149062
G02 X91.646443 Y165.518942 Z0.000000 I0.103266 J-0.153335
G02 X91.682915 Y165.529651 Z0.000000 I0.070926 J-0.174090
G02 X91.724496 Y165.533494 Z0.000000 I0.041581 J-0.223023
G02 X91.768737 Y165.529600 Z0.000000 I-0.000000 J-0.253256
G02 X91.806516 Y165.518942 Z0.000000 I-0.034560 J-0.194795
G02 X91.841271 Y165.500899 Z0.000000 I-0.068623 J-0.174676
G02 X91.872662 Y165.475286 Z0.000000 I-0.110654 J-0.167658
G02 X91.898275 Y165.443895 Z0.000000 I-0.142045 J-0.142045
G02 X91.916318 Y165.409140 Z0.000000 I-0.156633 J-0.103378
G02 X91.926976 Y165.371361 Z0.000000 I-0.184137 J-0.072340
G02 X91.930871 Y165.327119 Z0.000000 I-0.249362 J-0.044242
G01 X91.930871 Y165.327119 Z0.000000
M63 P0

(End cutting path id: path3740)


(Start cutting path id: path3740)
(Change tool to Default tool)

M63 P0
G00 X92.438871 Y165.327119

M62 P0(Penetrate)
G02 X92.435027 Y165.285539 Z0.000000 I-0.226866 J0.000000 F25.000000
G02 X92.424318 Y165.249067 Z0.000000 I-0.184799 J0.034454
G02 X92.406450 Y165.215550 Z0.000000 I-0.171203 J0.069749
G02 X92.380662 Y165.184244 Z0.000000 I-0.174850 J0.117756
G02 X92.349356 Y165.158456 Z0.000000 I-0.149062 J0.149062
G02 X92.315839 Y165.140588 Z0.000000 I-0.103266 J0.153335
G02 X92.279368 Y165.129879 Z0.000000 I-0.070926 J0.174090
G02 X92.237787 Y165.126036 Z0.000000 I-0.041581 J0.223023
G02 X92.193546 Y165.129930 Z0.000000 I-0.000000 J0.253256
G02 X92.155766 Y165.140588 Z0.000000 I0.034560 J0.194795
G02 X92.121011 Y165.158631 Z0.000000 I0.068623 J0.174676
G02 X92.089621 Y165.184244 Z0.000000 I0.110654 J0.167658
G02 X92.063833 Y165.215550 Z0.000000 I0.149062 J0.149062
G02 X92.045964 Y165.249067 Z0.000000 I0.153335 J0.103266
G02 X92.035255 Y165.285539 Z0.000000 I0.174090 J0.070926
G02 X92.031412 Y165.327119 Z0.000000 I0.223023 J0.041581
G02 X92.035306 Y165.371361 Z0.000000 I0.253256 J-0.000000
G02 X92.045964 Y165.409140 Z0.000000 I0.194795 J-0.034560
G02 X92.064007 Y165.443895 Z0.000000 I0.174676 J-0.068623
G02 X92.089621 Y165.475286 Z0.000000 I0.167658 J-0.110654
G02 X92.121011 Y165.500899 Z0.000000 I0.142045 J-0.142045
G02 X92.155766 Y165.518942 Z0.000000 I0.103378 J-0.156633
G02 X92.193546 Y165.529600 Z0.000000 I0.072340 J-0.184137
G02 X92.237787 Y165.533494 Z0.000000 I0.044242 J-0.249362
G02 X92.279368 Y165.529651 Z0.000000 I-0.000000 J-0.226866
G02 X92.315839 Y165.518942 Z0.000000 I-0.034454 J-0.184799
G02 X92.349356 Y165.501074 Z0.000000 I-0.069749 J-0.171203
G02 X92.380662 Y165.475286 Z0.000000 I-0.117756 J-0.174850
G02 X92.406275 Y165.443895 Z0.000000 I-0.142045 J-0.142045
G02 X92.424318 Y165.409140 Z0.000000 I-0.156633 J-0.103378
G02 X92.434976 Y165.371361 Z0.000000 I-0.184137 J-0.072340
G02 X92.438871 Y165.327119 Z0.000000 I-0.249362 J-0.044242
G01 X92.438871 Y165.327119 Z0.000000
M63 P0

(End cutting path id: path3740)


(Start cutting path id: path3740)
(Change tool to Default tool)

M63 P0
G00 X92.952162 Y165.327119

M62 P0(Penetrate)
G02 X92.947990 Y165.285671 Z0.000000 I-0.207958 J-0.000000 F25.000000
G02 X92.936287 Y165.249067 Z0.000000 I-0.173427 J0.035273
G02 X92.916985 Y165.215814 Z0.000000 I-0.163428 J0.072635
G02 X92.888662 Y165.184244 Z0.000000 I-0.175362 J0.128838
G02 X92.857356 Y165.158456 Z0.000000 I-0.149062 J0.149062
G02 X92.823839 Y165.140588 Z0.000000 I-0.103266 J0.153335
G02 X92.787368 Y165.129879 Z0.000000 I-0.070926 J0.174090
G02 X92.745787 Y165.126036 Z0.000000 I-0.041581 J0.223023
G02 X92.704170 Y165.129819 Z0.000000 I0.000000 J0.230784
G02 X92.666412 Y165.140588 Z0.000000 I0.036740 J0.200401
G02 X92.631390 Y165.158374 Z0.000000 I0.075253 J0.191554
G02 X92.597621 Y165.184244 Z0.000000 I0.129338 J0.203805
G02 X92.571833 Y165.215550 Z0.000000 I0.149062 J0.149062
G02 X92.553964 Y165.249067 Z0.000000 I0.153335 J0.103266
G02 X92.543255 Y165.285539 Z0.000000 I0.174090 J0.070926
G02 X92.539412 Y165.327119 Z0.000000 I0.223023 J0.041581
G02 X92.543306 Y165.371361 Z0.000000 I0.253256 J-0.000000
G02 X92.553964 Y165.409140 Z0.000000 I0.194795 J-0.034560
G02 X92.572008 Y165.443895 Z0.000000 I0.174676 J-0.068623
G02 X92.597621 Y165.475286 Z0.000000 I0.167658 J-0.110654
G02 X92.631390 Y165.501156 Z0.000000 I0.163107 J-0.177935
G02 X92.666412 Y165.518942 Z0.000000 I0.110276 J-0.173768
G02 X92.704170 Y165.529711 Z0.000000 I0.074498 J-0.189632
G02 X92.745787 Y165.533494 Z0.000000 I0.041617 J-0.227001
G02 X92.787368 Y165.529651 Z0.000000 I0.000000 J-0.226866
G02 X92.823839 Y165.518942 Z0.000000 I-0.034454 J-0.184799
G02 X92.857356 Y165.501074 Z0.000000 I-0.069749 J-0.171203
G02 X92.888662 Y165.475286 Z0.000000 I-0.117756 J-0.174850
G02 X92.916799 Y165.443619 Z0.000000 I-0.139994 J-0.152721
G02 X92.936287 Y165.409140 Z0.000000 I-0.146970 J-0.105818
G02 X92.947933 Y165.371230 Z0.000000 I-0.170893 J-0.073240
G02 X92.952162 Y165.327119 Z0.000000 I-0.227907 J-0.044111
G01 X92.952162 Y165.327119 Z0.000000
M63 P0

(End cutting path id: path3740)


(Start cutting path id: path3740)
(Change tool to Default tool)

M63 P0
G00 X90.909579 Y164.819119

M62 P0(Penetrate)
G02 X90.905795 Y164.777502 Z0.000000 I-0.230784 J0.000000 F25.000000
G02 X90.895027 Y164.739744 Z0.000000 I-0.200401 J0.036740
G02 X90.877241 Y164.704722 Z0.000000 I-0.191554 J0.075253
G02 X90.851371 Y164.670953 Z0.000000 I-0.203805 J0.129338
G02 X90.819980 Y164.645340 Z0.000000 I-0.142045 J0.142045
G02 X90.785225 Y164.627296 Z0.000000 I-0.103378 J0.156633
G02 X90.747446 Y164.616639 Z0.000000 I-0.072340 J0.184137
G02 X90.703204 Y164.612744 Z0.000000 I-0.044242 J0.249362
G02 X90.661623 Y164.616587 Z0.000000 I0.000000 J0.226866
G02 X90.625152 Y164.627296 Z0.000000 I0.034454 J0.184799
G02 X90.591635 Y164.645165 Z0.000000 I0.069749 J0.171203
G02 X90.560329 Y164.670953 Z0.000000 I0.117756 J0.174850
G02 X90.534459 Y164.704722 Z0.000000 I0.177935 J0.163107
G02 X90.516673 Y164.739744 Z0.000000 I0.173768 J0.110276
G02 X90.505904 Y164.777502 Z0.000000 I0.189632 J0.074498
G02 X90.502121 Y164.819119 Z0.000000 I0.227001 J0.041617
G02 X90.505964 Y164.860700 Z0.000000 I0.226866 J-0.000000
G02 X90.516673 Y164.897171 Z0.000000 I0.184799 J-0.034454
G02 X90.534541 Y164.930688 Z0.000000 I0.171203 J-0.069749
G02 X90.560329 Y164.961994 Z0.000000 I0.174850 J-0.117756
G02 X90.591898 Y164.990317 Z0.000000 I0.160407 J-0.147040
G02 X90.625152 Y165.009619 Z0.000000 I0.105888 J-0.144126
G02 X90.661756 Y165.021322 Z0.000000 I0.071877 J-0.161724
G02 X90.703204 Y165.025494 Z0.000000 I0.041448 J-0.203786
G02 X90.747315 Y165.021265 Z0.000000 I0.000000 J-0.232136
G02 X90.785225 Y165.009619 Z0.000000 I-0.035330 J-0.182538
G02 X90.819704 Y164.990131 Z0.000000 I-0.071339 J-0.166458
G02 X90.851371 Y164.961994 Z0.000000 I-0.121054 J-0.168131
G02 X90.877158 Y164.930688 Z0.000000 I-0.149062 J-0.149062
G02 X90.895027 Y164.897171 Z0.000000 I-0.153335 J-0.103266
G02 X90.905736 Y164.860700 Z0.000000 I-0.174090 J-0.070926
G02 X90.909579 Y164.819119 Z0.000000 I-0.223023 J-0.041581
G01 X90.909579 Y164.819119 Z0.000000
M63 P0

(End cutting path id: path3740)


(Start cutting path id: path3740)
(Change tool to Default tool)

M63 P0
G00 X91.417579 Y164.819119

M62 P0(Penetrate)
G02 X91.413796 Y164.777502 Z0.000000 I-0.230784 J0.000000 F25.000000
G02 X91.403027 Y164.739744 Z0.000000 I-0.200401 J0.036740
G02 X91.385241 Y164.704722 Z0.000000 I-0.191554 J0.075253
G02 X91.359371 Y164.670953 Z0.000000 I-0.203805 J0.129338
G02 X91.328064 Y164.645165 Z0.000000 I-0.149062 J0.149062
G02 X91.294548 Y164.627296 Z0.000000 I-0.103266 J0.153335
G02 X91.258076 Y164.616587 Z0.000000 I-0.070926 J0.174090
G02 X91.216496 Y164.612744 Z0.000000 I-0.041581 J0.223023
G02 X91.174879 Y164.616528 Z0.000000 I-0.000000 J0.230784
G02 X91.137121 Y164.627296 Z0.000000 I0.036740 J0.200401
G02 X91.102098 Y164.645083 Z0.000000 I0.075253 J0.191554
G02 X91.068329 Y164.670953 Z0.000000 I0.129338 J0.203805
G02 X91.042459 Y164.704722 Z0.000000 I0.177935 J0.163107
G02 X91.024673 Y164.739744 Z0.000000 I0.173768 J0.110276
G02 X91.013904 Y164.777502 Z0.000000 I0.189632 J0.074498
G02 X91.010121 Y164.819119 Z0.000000 I0.227001 J0.041617
G02 X91.013964 Y164.860700 Z0.000000 I0.226866 J-0.000000
G02 X91.024673 Y164.897171 Z0.000000 I0.184799 J-0.034454
G02 X91.042541 Y164.930688 Z0.000000 I0.171203 J-0.069749
G02 X91.068329 Y164.961994 Z0.000000 I0.174850 J-0.117756
G02 X91.102351 Y164.990388 Z0.000000 I0.174458 J-0.174458
G02 X91.137121 Y165.009619 Z0.000000 I0.112905 J-0.163085
G02 X91.175005 Y165.021386 Z0.000000 I0.075447 J-0.176042
G02 X91.216496 Y165.025494 Z0.000000 I0.041490 J-0.207450
G02 X91.257943 Y165.021322 Z0.000000 I0.000000 J-0.207958
G02 X91.294548 Y165.009619 Z0.000000 I-0.035273 J-0.173427
G02 X91.327801 Y164.990317 Z0.000000 I-0.072635 J-0.163428
G02 X91.359371 Y164.961994 Z0.000000 I-0.128838 J-0.175362
G02 X91.385158 Y164.930688 Z0.000000 I-0.149062 J-0.149062
G02 X91.403027 Y164.897171 Z0.000000 I-0.153335 J-0.103266
G02 X91.413736 Y164.860700 Z0.000000 I-0.174090 J-0.070926
G02 X91.417579 Y164.819119 Z0.000000 I-0.223023 J-0.041581
G01 X91.417579 Y164.819119 Z0.000000
M63 P0

(End cutting path id: path3740)


(Start cutting path id: path3740)
(Change tool to Default tool)

M63 P0
G00 X91.930871 Y164.819119

M62 P0(Penetrate)
G02 X91.927087 Y164.777502 Z0.000000 I-0.230784 J0.000000 F25.000000
G02 X91.916318 Y164.739744 Z0.000000 I-0.200401 J0.036740
G02 X91.898532 Y164.704722 Z0.000000 I-0.191554 J0.075253
G02 X91.872662 Y164.670953 Z0.000000 I-0.203805 J0.129338
G02 X91.841271 Y164.645340 Z0.000000 I-0.142045 J0.142045
G02 X91.806516 Y164.627296 Z0.000000 I-0.103378 J0.156633
G02 X91.768737 Y164.616639 Z0.000000 I-0.072340 J0.184137
G02 X91.724496 Y164.612744 Z0.000000 I-0.044242 J0.249362
G02 X91.682915 Y164.616587 Z0.000000 I0.000000 J0.226866
G02 X91.646443 Y164.627296 Z0.000000 I0.034454 J0.184799
G02 X91.612927 Y164.645165 Z0.000000 I0.069749 J0.171203
G02 X91.581621 Y164.670953 Z0.000000 I0.117756 J0.174850
G02 X91.555750 Y164.704722 Z0.000000 I0.177935 J0.163107
G02 X91.537964 Y164.739744 Z0.000000 I0.173768 J0.110276
G02 X91.527196 Y164.777502 Z0.000000 I0.189632 J0.074498
G02 X91.523412 Y164.819119 Z0.000000 I0.227001 J0.041617
G02 X91.527255 Y164.860700 Z0.000000 I0.226866 J-0.000000
G02 X91.537964 Y164.897171 Z0.000000 I0.184799 J-0.034454
G02 X91.555833 Y164.930688 Z0.000000 I0.171203 J-0.069749
G02 X91.581621 Y164.961994 Z0.000000 I0.174850 J-0.117756
G02 X91.613190 Y164.990317 Z0.000000 I0.160407 J-0.147040
G02 X91.646443 Y165.009619 Z0.000000 I0.105888 J-0.144126
G02 X91.683048 Y165.021322 Z0.000000 I0.071877 J-0.161724
G02 X91.724496 Y165.025494 Z0.000000 I0.041448 J-0.203786
G02 X91.768607 Y165.021265 Z0.000000 I0.000000 J-0.232136
G02 X91.806516 Y165.009619 Z0.000000 I-0.035330 J-0.182538
G02 X91.840995 Y164.990131 Z0.000000 I-0.071339 J-0.166458
G02 X91.872662 Y164.961994 Z0.000000 I-0.121054 J-0.168131
G02 X91.898450 Y164.930688 Z0.000000 I-0.149062 J-0.149062
G02 X91.916318 Y164.897171 Z0.000000 I-0.153335 J-0.103266
G02 X91.927027 Y164.860700 Z0.000000 I-0.174090 J-0.070926
G02 X91.930871 Y164.819119 Z0.000000 I-0.223023 J-0.041581
G01 X91.930871 Y164.819119 Z0.000000
M63 P0

(End cutting path id: path3740)


(Start cutting path id: path3740)
(Change tool to Default tool)

M63 P0
G00 X92.438871 Y164.819119

M62 P0(Penetrate)
G02 X92.435087 Y164.777502 Z0.000000 I-0.230784 J0.000000 F25.000000
G02 X92.424318 Y164.739744 Z0.000000 I-0.200401 J0.036740
G02 X92.406532 Y164.704722 Z0.000000 I-0.191554 J0.075253
G02 X92.380662 Y164.670953 Z0.000000 I-0.203805 J0.129338
G02 X92.349356 Y164.645165 Z0.000000 I-0.149062 J0.149062
G02 X92.315839 Y164.627296 Z0.000000 I-0.103266 J0.153335
G02 X92.279368 Y164.616587 Z0.000000 I-0.070926 J0.174090
G02 X92.237787 Y164.612744 Z0.000000 I-0.041581 J0.223023
G02 X92.193546 Y164.616639 Z0.000000 I-0.000000 J0.253256
G02 X92.155766 Y164.627296 Z0.000000 I0.034560 J0.194795
G02 X92.121011 Y164.645340 Z0.000000 I0.068623 J0.174676
G02 X92.089621 Y164.670953 Z0.000000 I0.110654 J0.167658
G02 X92.063750 Y164.704722 Z0.000000 I0.177935 J0.163107
G02 X92.045964 Y164.739744 Z0.000000 I0.173768 J0.110276
G02 X92.035196 Y164.777502 Z0.000000 I0.189632 J0.074498
G02 X92.031412 Y164.819119 Z0.000000 I0.227001 J0.041617
G02 X92.035255 Y164.860700 Z0.000000 I0.226866 J-0.000000
G02 X92.045964 Y164.897171 Z0.000000 I0.184799 J-0.034454
G02 X92.063833 Y164.930688 Z0.000000 I0.171203 J-0.069749
G02 X92.089621 Y164.961994 Z0.000000 I0.174850 J-0.117756
G02 X92.121287 Y164.990131 Z0.000000 I0.152721 J-0.139994
G02 X92.155766 Y165.009619 Z0.000000 I0.105818 J-0.146970
G02 X92.193676 Y165.021265 Z0.000000 I0.073240 J-0.170893
G02 X92.237787 Y165.025494 Z0.000000 I0.044111 J-0.227907
G02 X92.279235 Y165.021322 Z0.000000 I0.000000 J-0.207958
G02 X92.315839 Y165.009619 Z0.000000 I-0.035273 J-0.173427
G02 X92.349093 Y164.990317 Z0.000000 I-0.072635 J-0.163428
G02 X92.380662 Y164.961994 Z0.000000 I-0.128838 J-0.175362
G02 X92.406450 Y164.930688 Z0.000000 I-0.149062 J-0.149062
G02 X92.424318 Y164.897171 Z0.000000 I-0.153335 J-0.103266
G02 X92.435027 Y164.860700 Z0.000000 I-0.174090 J-0.070926
G02 X92.438871 Y164.819119 Z0.000000 I-0.223023 J-0.041581
G01 X92.438871 Y164.819119 Z0.000000
M63 P0

(End cutting path id: path3740)


(Start cutting path id: path3740)
(Change tool to Default tool)

M63 P0
G00 X92.952162 Y164.819119

M62 P0(Penetrate)
G02 X92.948054 Y164.777629 Z0.000000 I-0.211559 J0.000000 F25.000000
G02 X92.936287 Y164.739744 Z0.000000 I-0.187809 J0.037562
G02 X92.917056 Y164.704975 Z0.000000 I-0.182316 J0.078135
G02 X92.888662 Y164.670953 Z0.000000 I-0.202852 J0.140436
G02 X92.857356 Y164.645165 Z0.000000 I-0.149062 J0.149062
G02 X92.823839 Y164.627296 Z0.000000 I-0.103266 J0.153335
G02 X92.787368 Y164.616587 Z0.000000 I-0.070926 J0.174090
G02 X92.745787 Y164.612744 Z0.000000 I-0.041581 J0.223023
G02 X92.704170 Y164.616528 Z0.000000 I-0.000000 J0.230784
G02 X92.666412 Y164.627296 Z0.000000 I0.036740 J0.200401
G02 X92.631390 Y164.645083 Z0.000000 I0.075253 J0.191554
G02 X92.597621 Y164.670953 Z0.000000 I0.129338 J0.203805
G02 X92.571750 Y164.704722 Z0.000000 I0.177935 J0.163107
G02 X92.553964 Y164.739744 Z0.000000 I0.173768 J0.110276
G02 X92.543196 Y164.777502 Z0.000000 I0.189632 J0.074498
G02 X92.539412 Y164.819119 Z0.000000 I0.227001 J0.041617
G02 X92.543255 Y164.860700 Z0.000000 I0.226866 J-0.000000
G02 X92.553964 Y164.897171 Z0.000000 I0.184799 J-0.034454
G02 X92.571833 Y164.930688 Z0.000000 I0.171203 J-0.069749
G02 X92.597621 Y164.961994 Z0.000000 I0.174850 J-0.117756
G02 X92.631643 Y164.990388 Z0.000000 I0.174458 J-0.174458
G02 X92.666412 Y165.009619 Z0.000000 I0.112905 J-0.163085
G02 X92.704297 Y165.021386 Z0.000000 I0.075447 J-0.176042
G02 X92.745787 Y165.025494 Z0.000000 I0.041490 J-0.207450
G02 X92.787235 Y165.021322 Z0.000000 I0.000000 J-0.207958
G02 X92.823839 Y165.009619 Z0.000000 I-0.035273 J-0.173427
G02 X92.857093 Y164.990317 Z0.000000 I-0.072635 J-0.163428
G02 X92.888662 Y164.961994 Z0.000000 I-0.128838 J-0.175362
G02 X92.916985 Y164.930425 Z0.000000 I-0.147040 J-0.160407
G02 X92.936287 Y164.897171 Z0.000000 I-0.144126 J-0.105888
G02 X92.947990 Y164.860567 Z0.000000 I-0.161724 J-0.071877
G02 X92.952162 Y164.819119 Z0.000000 I-0.203786 J-0.041448
G01 X92.952162 Y164.819119 Z0.000000
M63 P0

(End cutting path id: path3740)


(Start cutting path id: path3740)
(Change tool to Default tool)

M63 P0
G00 X93.460162 Y164.819119

M62 P0(Penetrate)
G02 X93.456379 Y164.777502 Z0.000000 I-0.230784 J0.000000 F25.000000
G02 X93.445610 Y164.739744 Z0.000000 I-0.200401 J0.036740
G02 X93.427824 Y164.704722 Z0.000000 I-0.191554 J0.075253
G02 X93.401954 Y164.670953 Z0.000000 I-0.203805 J0.129338
G02 X93.370563 Y164.645340 Z0.000000 I-0.142045 J0.142045
G02 X93.335808 Y164.627296 Z0.000000 I-0.103378 J0.156633
G02 X93.298029 Y164.616639 Z0.000000 I-0.072340 J0.184137
G02 X93.253787 Y164.612744 Z0.000000 I-0.044242 J0.249362
G02 X93.212207 Y164.616587 Z0.000000 I0.000000 J0.226866
G02 X93.175735 Y164.627296 Z0.000000 I0.034454 J0.184799
G02 X93.142218 Y164.645165 Z0.000000 I0.069749 J0.171203
G02 X93.110912 Y164.670953 Z0.000000 I0.117756 J0.174850
G02 X93.085042 Y164.704722 Z0.000000 I0.177935 J0.163107
G02 X93.067256 Y164.739744 Z0.000000 I0.173768 J0.110276
G02 X93.056487 Y164.777502 Z0.000000 I0.189632 J0.074498
G02 X93.052704 Y164.819119 Z0.000000 I0.227001 J0.041617
G02 X93.056547 Y164.860700 Z0.000000 I0.226866 J-0.000000
G02 X93.067256 Y164.897171 Z0.000000 I0.184799 J-0.034454
G02 X93.085124 Y164.930688 Z0.000000 I0.171203 J-0.069749
G02 X93.110912 Y164.961994 Z0.000000 I0.174850 J-0.117756
G02 X93.142482 Y164.990317 Z0.000000 I0.160407 J-0.147040
G02 X93.175735 Y165.009619 Z0.000000 I0.105888 J-0.144126
G02 X93.212339 Y165.021322 Z0.000000 I0.071877 J-0.161724
G02 X93.253787 Y165.025494 Z0.000000 I0.041448 J-0.203786
G02 X93.297898 Y165.021265 Z0.000000 I0.000000 J-0.232136
G02 X93.335808 Y165.009619 Z0.000000 I-0.035330 J-0.182538
G02 X93.370287 Y164.990131 Z0.000000 I-0.071339 J-0.166458
G02 X93.401954 Y164.961994 Z0.000000 I-0.121054 J-0.168131
G02 X93.427742 Y164.930688 Z0.000000 I-0.149062 J-0.149062
G02 X93.445610 Y164.897171 Z0.000000 I-0.153335 J-0.103266
G02 X93.456319 Y164.860700 Z0.000000 I-0.174090 J-0.070926
G02 X93.460162 Y164.819119 Z0.000000 I-0.223023 J-0.041581
G01 X93.460162 Y164.819119 Z0.000000
M63 P0

(End cutting path id: path3740)


(Start cutting path id: path3740)
(Change tool to Default tool)

M63 P0
G00 X90.909579 Y164.311119

M62 P0(Penetrate)
G02 X90.905685 Y164.266878 Z0.000000 I-0.253256 J0.000000 F25.000000
G02 X90.895027 Y164.229098 Z0.000000 I-0.194795 J0.034560
G02 X90.876984 Y164.194343 Z0.000000 I-0.174676 J0.068623
G02 X90.851371 Y164.162953 Z0.000000 I-0.167658 J0.110654
G02 X90.819980 Y164.137340 Z0.000000 I-0.142045 J0.142045
G02 X90.785225 Y164.119296 Z0.000000 I-0.103378 J0.156633
G02 X90.747446 Y164.108639 Z0.000000 I-0.072340 J0.184137
G02 X90.703204 Y164.104744 Z0.000000 I-0.044242 J0.249362
G02 X90.661623 Y164.108587 Z0.000000 I0.000000 J0.226866
G02 X90.625152 Y164.119296 Z0.000000 I0.034454 J0.184799
G02 X90.591635 Y164.137165 Z0.000000 I0.069749 J0.171203
G02 X90.560329 Y164.162953 Z0.000000 I0.117756 J0.174850
G02 X90.534716 Y164.194343 Z0.000000 I0.142045 J0.142045
G02 X90.516673 Y164.229098 Z0.000000 I0.156633 J0.103378
G02 X90.506015 Y164.266878 Z0.000000 I0.184137 J0.072340
G02 X90.502121 Y164.311119 Z0.000000 I0.249362 J0.044242
G02 X90.505964 Y164.352700 Z0.000000 I0.226866 J-0.000000
G02 X90.516673 Y164.389171 Z0.000000 I0.184799 J-0.034454
G02 X90.534541 Y164.422688 Z0.000000 I0.171203 J-0.069749
G02 X90.560329 Y164.453994 Z0.000000 I0.174850 J-0.117756
G02 X90.591635 Y164.479782 Z0.000000 I0.149062 J-0.149062
G02 X90.625152 Y164.497651 Z0.000000 I0.103266 J-0.153335
G02 X90.661623 Y164.508360 Z0.000000 I0.070926 J-0.174090
G02 X90.703204 Y164.512203 Z0.000000 I0.041581 J-0.223023
G02 X90.747446 Y164.508308 Z0.000000 I-0.000000 J-0.253256
G02 X90.785225 Y164.497651 Z0.000000 I-0.034560 J-0.194795
G02 X90.819980 Y164.479607 Z0.000000 I-0.068623 J-0.174676
G02 X90.851371 Y164.453994 Z0.000000 I-0.110654 J-0.167658
G02 X90.877158 Y164.422688 Z0.000000 I-0.149062 J-0.149062
G02 X90.895027 Y164.389171 Z0.000000 I-0.153335 J-0.103266
G02 X90.905736 Y164.352700 Z0.000000 I-0.174090 J-0.070926
G02 X90.909579 Y164.311119 Z0.000000 I-0.223023 J-0.041581
G01 X90.909579 Y164.311119 Z0.000000
M63 P0

(End cutting path id: path3740)


(Start cutting path id: path3740)
(Change tool to Default tool)

M63 P0
G00 X91.417579 Y164.311119

M62 P0(Penetrate)
G02 X91.413685 Y164.266878 Z0.000000 I-0.253256 J0.000000 F25.000000
G02 X91.403027 Y164.229098 Z0.000000 I-0.194795 J0.034560
G02 X91.384984 Y164.194343 Z0.000000 I-0.174676 J0.068623
G02 X91.359371 Y164.162953 Z0.000000 I-0.167658 J0.110654
G02 X91.328064 Y164.137165 Z0.000000 I-0.149062 J0.149062
G02 X91.294548 Y164.119296 Z0.000000 I-0.103266 J0.153335
G02 X91.258076 Y164.108587 Z0.000000 I-0.070926 J0.174090
G02 X91.216496 Y164.104744 Z0.000000 I-0.041581 J0.223023
G02 X91.174879 Y164.108528 Z0.000000 I0.000000 J0.230784
G02 X91.137121 Y164.119296 Z0.000000 I0.036740 J0.200401
G02 X91.102098 Y164.137083 Z0.000000 I0.075253 J0.191554
G02 X91.068329 Y164.162953 Z0.000000 I0.129338 J0.203805
G02 X91.042716 Y164.194343 Z0.000000 I0.142045 J0.142045
G02 X91.024673 Y164.229098 Z0.000000 I0.156633 J0.103378
G02 X91.014015 Y164.266878 Z0.000000 I0.184137 J0.072340
G02 X91.010121 Y164.311119 Z0.000000 I0.249362 J0.044242
G02 X91.013964 Y164.352700 Z0.000000 I0.226866 J-0.000000
G02 X91.024673 Y164.389171 Z0.000000 I0.184799 J-0.034454
G02 X91.042541 Y164.422688 Z0.000000 I0.171203 J-0.069749
G02 X91.068329 Y164.453994 Z0.000000 I0.174850 J-0.117756
G02 X91.102098 Y164.479864 Z0.000000 I0.163107 J-0.177935
G02 X91.137121 Y164.497651 Z0.000000 I0.110276 J-0.173768
G02 X91.174879 Y164.508419 Z0.000000 I0.074498 J-0.189632
G02 X91.216496 Y164.512203 Z0.000000 I0.041617 J-0.227001
G02 X91.258076 Y164.508360 Z0.000000 I-0.000000 J-0.226866
G02 X91.294548 Y164.497651 Z0.000000 I-0.034454 J-0.184799
G02 X91.328064 Y164.479782 Z0.000000 I-0.069749 J-0.171203
G02 X91.359371 Y164.453994 Z0.000000 I-0.117756 J-0.174850
G02 X91.385158 Y164.422688 Z0.000000 I-0.149062 J-0.149062
G02 X91.403027 Y164.389171 Z0.000000 I-0.153335 J-0.103266
G02 X91.413736 Y164.352700 Z0.000000 I-0.174090 J-0.070926
G02 X91.417579 Y164.311119 Z0.000000 I-0.223023 J-0.041581
G01 X91.417579 Y164.311119 Z0.000000
M63 P0

(End cutting path id: path3740)


(Start cutting path id: path3740)
(Change tool to Default tool)

M63 P0
G00 X92.952162 Y164.311119

M62 P0(Penetrate)
G02 X92.947933 Y164.267008 Z0.000000 I-0.232136 J0.000000 F25.000000
G02 X92.936287 Y164.229098 Z0.000000 I-0.182538 J0.035330
G02 X92.916799 Y164.194619 Z0.000000 I-0.166458 J0.071339
G02 X92.888662 Y164.162953 Z0.000000 I-0.168131 J0.121054
G02 X92.857356 Y164.137165 Z0.000000 I-0.149062 J0.149062
G02 X92.823839 Y164.119296 Z0.000000 I-0.103266 J0.153335
G02 X92.787368 Y164.108587 Z0.000000 I-0.070926 J0.174090
G02 X92.745787 Y164.104744 Z0.000000 I-0.041581 J0.223023
G02 X92.704170 Y164.108528 Z0.000000 I0.000000 J0.230784
G02 X92.666412 Y164.119296 Z0.000000 I0.036740 J0.200401
G02 X92.631390 Y164.137083 Z0.000000 I0.075253 J0.191554
G02 X92.597621 Y164.162953 Z0.000000 I0.129338 J0.203805
G02 X92.572008 Y164.194343 Z0.000000 I0.142045 J0.142045
G02 X92.553964 Y164.229098 Z0.000000 I0.156633 J0.103378
G02 X92.543306 Y164.266878 Z0.000000 I0.184137 J0.072340
G02 X92.539412 Y164.311119 Z0.000000 I0.249362 J0.044242
G02 X92.543255 Y164.352700 Z0.000000 I0.226866 J-0.000000
G02 X92.553964 Y164.389171 Z0.000000 I0.184799 J-0.034454
G02 X92.571833 Y164.422688 Z0.000000 I0.171203 J-0.069749
G02 X92.597621 Y164.453994 Z0.000000 I0.174850 J-0.117756
G02 X92.631390 Y164.479864 Z0.000000 I0.163107 J-0.177935
G02 X92.666412 Y164.497651 Z0.000000 I0.110276 J-0.173768
G02 X92.704170 Y164.508419 Z0.000000 I0.074498 J-0.189632
G02 X92.745787 Y164.512203 Z0.000000 I0.041617 J-0.227001
G02 X92.787368 Y164.508360 Z0.000000 I-0.000000 J-0.226866
G02 X92.823839 Y164.497651 Z0.000000 I-0.034454 J-0.184799
G02 X92.857356 Y164.479782 Z0.000000 I-0.069749 J-0.171203
G02 X92.888662 Y164.453994 Z0.000000 I-0.117756 J-0.174850
G02 X92.916985 Y164.422425 Z0.000000 I-0.147040 J-0.160407
G02 X92.936287 Y164.389171 Z0.000000 I-0.144126 J-0.105888
G02 X92.947990 Y164.352567 Z0.000000 I-0.161724 J-0.071877
G02 X92.952162 Y164.311119 Z0.000000 I-0.203786 J-0.041448
G01 X92.952162 Y164.311119 Z0.000000
M63 P0

(End cutting path id: path3740)


(Start cutting path id: path3740)
(Change tool to Default tool)

M63 P0
G00 X93.460162 Y164.311119

M62 P0(Penetrate)
G02 X93.456268 Y164.266878 Z0.000000 I-0.253256 J0.000000 F25.000000
G02 X93.445610 Y164.229098 Z0.000000 I-0.194795 J0.034560
G02 X93.427567 Y164.194343 Z0.000000 I-0.174676 J0.068623
G02 X93.401954 Y164.162953 Z0.000000 I-0.167658 J0.110654
G02 X93.370563 Y164.137340 Z0.000000 I-0.142045 J0.142045
G02 X93.335808 Y164.119296 Z0.000000 I-0.103378 J0.156633
G02 X93.298029 Y164.108639 Z0.000000 I-0.072340 J0.184137
G02 X93.253787 Y164.104744 Z0.000000 I-0.044242 J0.249362
G02 X93.212207 Y164.108587 Z0.000000 I-0.000000 J0.226866
G02 X93.175735 Y164.119296 Z0.000000 I0.034454 J0.184799
G02 X93.142218 Y164.137165 Z0.000000 I0.069749 J0.171203
G02 X93.110912 Y164.162953 Z0.000000 I0.117756 J0.174850
G02 X93.085299 Y164.194343 Z0.000000 I0.142045 J0.142045
G02 X93.067256 Y164.229098 Z0.000000 I0.156633 J0.103378
G02 X93.056598 Y164.266878 Z0.000000 I0.184137 J0.072340
G02 X93.052704 Y164.311119 Z0.000000 I0.249362 J0.044242
G02 X93.056547 Y164.352700 Z0.000000 I0.226866 J-0.000000
G02 X93.067256 Y164.389171 Z0.000000 I0.184799 J-0.034454
G02 X93.085124 Y164.422688 Z0.000000 I0.171203 J-0.069749
G02 X93.110912 Y164.453994 Z0.000000 I0.174850 J-0.117756
G02 X93.142218 Y164.479782 Z0.000000 I0.149062 J-0.149062
G02 X93.175735 Y164.497651 Z0.000000 I0.103266 J-0.153335
G02 X93.212207 Y164.508360 Z0.000000 I0.070926 J-0.174090
G02 X93.253787 Y164.512203 Z0.000000 I0.041581 J-0.223023
G02 X93.298029 Y164.508308 Z0.000000 I-0.000000 J-0.253256
G02 X93.335808 Y164.497651 Z0.000000 I-0.034560 J-0.194795
G02 X93.370563 Y164.479607 Z0.000000 I-0.068623 J-0.174676
G02 X93.401954 Y164.453994 Z0.000000 I-0.110654 J-0.167658
G02 X93.427742 Y164.422688 Z0.000000 I-0.149062 J-0.149062
G02 X93.445610 Y164.389171 Z0.000000 I-0.153335 J-0.103266
G02 X93.456319 Y164.352700 Z0.000000 I-0.174090 J-0.070926
G02 X93.460162 Y164.311119 Z0.000000 I-0.223023 J-0.041581
G01 X93.460162 Y164.311119 Z0.000000
M63 P0

(End cutting path id: path3740)


(Start cutting path id: path3740)
(Change tool to Default tool)

M63 P0
G00 X91.930871 Y163.797828

M62 P0(Penetrate)
G02 X91.927027 Y163.756247 Z0.000000 I-0.226866 J0.000000 F25.000000
G02 X91.916318 Y163.719776 Z0.000000 I-0.184799 J0.034454
G02 X91.898450 Y163.686259 Z0.000000 I-0.171203 J0.069749
G02 X91.872662 Y163.654953 Z0.000000 I-0.174850 J0.117756
G02 X91.841271 Y163.629340 Z0.000000 I-0.142045 J0.142045
G02 X91.806516 Y163.611296 Z0.000000 I-0.103378 J0.156633
G02 X91.768737 Y163.600639 Z0.000000 I-0.072340 J0.184137
G02 X91.724496 Y163.596744 Z0.000000 I-0.044242 J0.249362
G02 X91.682915 Y163.600587 Z0.000000 I0.000000 J0.226866
G02 X91.646443 Y163.611296 Z0.000000 I0.034454 J0.184799
G02 X91.612927 Y163.629165 Z0.000000 I0.069749 J0.171203
G02 X91.581621 Y163.654953 Z0.000000 I0.117756 J0.174850
G02 X91.555833 Y163.686259 Z0.000000 I0.149062 J0.149062
G02 X91.537964 Y163.719776 Z0.000000 I0.153335 J0.103266
G02 X91.527255 Y163.756247 Z0.000000 I0.174090 J0.070926
G02 X91.523412 Y163.797828 Z0.000000 I0.223023 J0.041581
G02 X91.527306 Y163.842069 Z0.000000 I0.253256 J-0.000000
G02 X91.537964 Y163.879848 Z0.000000 I0.194795 J-0.034560
G02 X91.556007 Y163.914604 Z0.000000 I0.174676 J-0.068623
G02 X91.581621 Y163.945994 Z0.000000 I0.167658 J-0.110654
G02 X91.612927 Y163.971782 Z0.000000 I0.149062 J-0.149062
G02 X91.646443 Y163.989651 Z0.000000 I0.103266 J-0.153335
G02 X91.682915 Y164.000360 Z0.000000 I0.070926 J-0.174090
G02 X91.724496 Y164.004203 Z0.000000 I0.041581 J-0.223023
G02 X91.768737 Y164.000308 Z0.000000 I-0.000000 J-0.253256
G02 X91.806516 Y163.989651 Z0.000000 I-0.034560 J-0.194795
G02 X91.841271 Y163.971607 Z0.000000 I-0.068623 J-0.174676
G02 X91.872662 Y163.945994 Z0.000000 I-0.110654 J-0.167658
G02 X91.898275 Y163.914604 Z0.000000 I-0.142045 J-0.142045
G02 X91.916318 Y163.879848 Z0.000000 I-0.156633 J-0.103378
G02 X91.926976 Y163.842069 Z0.000000 I-0.184137 J-0.072340
G02 X91.930871 Y163.797828 Z0.000000 I-0.249362 J-0.044242
G01 X91.930871 Y163.797828 Z0.000000
M63 P0

(End cutting path id: path3740)


(Start cutting path id: path3740)
(Change tool to Default tool)

M63 P0
G00 X92.438871 Y163.797828

M62 P0(Penetrate)
G02 X92.435027 Y163.756247 Z0.000000 I-0.226866 J0.000000 F25.000000
G02 X92.424318 Y163.719776 Z0.000000 I-0.184799 J0.034454
G02 X92.406450 Y163.686259 Z0.000000 I-0.171203 J0.069749
G02 X92.380662 Y163.654953 Z0.000000 I-0.174850 J0.117756
G02 X92.349356 Y163.629165 Z0.000000 I-0.149062 J0.149062
G02 X92.315839 Y163.611296 Z0.000000 I-0.103266 J0.153335
G02 X92.279368 Y163.600587 Z0.000000 I-0.070926 J0.174090
G02 X92.237787 Y163.596744 Z0.000000 I-0.041581 J0.223023
G02 X92.193546 Y163.600639 Z0.000000 I-0.000000 J0.253256
G02 X92.155766 Y163.611296 Z0.000000 I0.034560 J0.194795
G02 X92.121011 Y163.629340 Z0.000000 I0.068623 J0.174676
G02 X92.089621 Y163.654953 Z0.000000 I0.110654 J0.167658
G02 X92.063833 Y163.686259 Z0.000000 I0.149062 J0.149062
G02 X92.045964 Y163.719776 Z0.000000 I0.153335 J0.103266
G02 X92.035255 Y163.756247 Z0.000000 I0.174090 J0.070926
G02 X92.031412 Y163.797828 Z0.000000 I0.223023 J0.041581
G02 X92.035306 Y163.842069 Z0.000000 I0.253256 J-0.000000
G02 X92.045964 Y163.879848 Z0.000000 I0.194795 J-0.034560
G02 X92.064007 Y163.914604 Z0.000000 I0.174676 J-0.068623
G02 X92.089621 Y163.945994 Z0.000000 I0.167658 J-0.110654
G02 X92.121011 Y163.971607 Z0.000000 I0.142045 J-0.142045
G02 X92.155766 Y163.989651 Z0.000000 I0.103378 J-0.156633
G02 X92.193546 Y164.000308 Z0.000000 I0.072340 J-0.184137
G02 X92.237787 Y164.004203 Z0.000000 I0.044242 J-0.249362
G02 X92.279368 Y164.000360 Z0.000000 I-0.000000 J-0.226866
G02 X92.315839 Y163.989651 Z0.000000 I-0.034454 J-0.184799
G02 X92.349356 Y163.971782 Z0.000000 I-0.069749 J-0.171203
G02 X92.380662 Y163.945994 Z0.000000 I-0.117756 J-0.174850
G02 X92.406275 Y163.914604 Z0.000000 I-0.142045 J-0.142045
G02 X92.424318 Y163.879848 Z0.000000 I-0.156633 J-0.103378
G02 X92.434976 Y163.842069 Z0.000000 I-0.184137 J-0.072340
G02 X92.438871 Y163.797828 Z0.000000 I-0.249362 J-0.044242
G01 X92.438871 Y163.797828 Z0.000000
M63 P0

(End cutting path id: path3740)


(Start cutting path id: path3740)
(Change tool to Default tool)

M63 P0
G00 X92.952162 Y163.797828

M62 P0(Penetrate)
G02 X92.947990 Y163.756380 Z0.000000 I-0.207958 J-0.000000 F25.000000
G02 X92.936287 Y163.719776 Z0.000000 I-0.173427 J0.035273
G02 X92.916985 Y163.686522 Z0.000000 I-0.163428 J0.072635
G02 X92.888662 Y163.654953 Z0.000000 I-0.175362 J0.128838
G02 X92.857356 Y163.629165 Z0.000000 I-0.149062 J0.149062
G02 X92.823839 Y163.611296 Z0.000000 I-0.103266 J0.153335
G02 X92.787368 Y163.600587 Z0.000000 I-0.070926 J0.174090
G02 X92.745787 Y163.596744 Z0.000000 I-0.041581 J0.223023
G02 X92.704170 Y163.600528 Z0.000000 I-0.000000 J0.230784
G02 X92.666412 Y163.611296 Z0.000000 I0.036740 J0.200401
G02 X92.631390 Y163.629083 Z0.000000 I0.075253 J0.191554
G02 X92.597621 Y163.654953 Z0.000000 I0.129338 J0.203805
G02 X92.571833 Y163.686259 Z0.000000 I0.149062 J0.149062
G02 X92.553964 Y163.719776 Z0.000000 I0.153335 J0.103266
G02 X92.543255 Y163.756247 Z0.000000 I0.174090 J0.070926
G02 X92.539412 Y163.797828 Z0.000000 I0.223023 J0.041581
G02 X92.543306 Y163.842069 Z0.000000 I0.253256 J-0.000000
G02 X92.553964 Y163.879848 Z0.000000 I0.194795 J-0.034560
G02 X92.572008 Y163.914604 Z0.000000 I0.174676 J-0.068623
G02 X92.597621 Y163.945994 Z0.000000 I0.167658 J-0.110654
G02 X92.631390 Y163.971864 Z0.000000 I0.163107 J-0.177935
G02 X92.666412 Y163.989651 Z0.000000 I0.110276 J-0.173768
G02 X92.704170 Y164.000419 Z0.000000 I0.074498 J-0.189632
G02 X92.745787 Y164.004203 Z0.000000 I0.041617 J-0.227001
G02 X92.787368 Y164.000360 Z0.000000 I0.000000 J-0.226866
G02 X92.823839 Y163.989651 Z0.000000 I-0.034454 J-0.184799
G02 X92.857356 Y163.971782 Z0.000000 I-0.069749 J-0.171203
G02 X92.888662 Y163.945994 Z0.000000 I-0.117756 J-0.174850
G02 X92.916799 Y163.914327 Z0.000000 I-0.139994 J-0.152721
G02 X92.936287 Y163.879848 Z0.000000 I-0.146970 J-0.105818
G02 X92.947933 Y163.841939 Z0.000000 I-0.170893 J-0.073240
G02 X92.952162 Y163.797828 Z0.000000 I-0.227907 J-0.044111
G01 X92.952162 Y163.797828 Z0.000000
M63 P0

(End cutting path id: path3740)


(Start cutting path id: path3740)
(Change tool to Default tool)

M63 P0
G00 X93.460162 Y163.797828

M62 P0(Penetrate)
G02 X93.456319 Y163.756247 Z0.000000 I-0.226866 J0.000000 F25.000000
G02 X93.445610 Y163.719776 Z0.000000 I-0.184799 J0.034454
G02 X93.427742 Y163.686259 Z0.000000 I-0.171203 J0.069749
G02 X93.401954 Y163.654953 Z0.000000 I-0.174850 J0.117756
G02 X93.370563 Y163.629340 Z0.000000 I-0.142045 J0.142045
G02 X93.335808 Y163.611296 Z0.000000 I-0.103378 J0.156633
G02 X93.298029 Y163.600639 Z0.000000 I-0.072340 J0.184137
G02 X93.253787 Y163.596744 Z0.000000 I-0.044242 J0.249362
G02 X93.212207 Y163.600587 Z0.000000 I0.000000 J0.226866
G02 X93.175735 Y163.611296 Z0.000000 I0.034454 J0.184799
G02 X93.142218 Y163.629165 Z0.000000 I0.069749 J0.171203
G02 X93.110912 Y163.654953 Z0.000000 I0.117756 J0.174850
G02 X93.085124 Y163.686259 Z0.000000 I0.149062 J0.149062
G02 X93.067256 Y163.719776 Z0.000000 I0.153335 J0.103266
G02 X93.056547 Y163.756247 Z0.000000 I0.174090 J0.070926
G02 X93.052704 Y163.797828 Z0.000000 I0.223023 J0.041581
G02 X93.056598 Y163.842069 Z0.000000 I0.253256 J-0.000000
G02 X93.067256 Y163.879848 Z0.000000 I0.194795 J-0.034560
G02 X93.085299 Y163.914604 Z0.000000 I0.174676 J-0.068623
G02 X93.110912 Y163.945994 Z0.000000 I0.167658 J-0.110654
G02 X93.142218 Y163.971782 Z0.000000 I0.149062 J-0.149062
G02 X93.175735 Y163.989651 Z0.000000 I0.103266 J-0.153335
G02 X93.212207 Y164.000360 Z0.000000 I0.070926 J-0.174090
G02 X93.253787 Y164.004203 Z0.000000 I0.041581 J-0.223023
G02 X93.298029 Y164.000308 Z0.000000 I-0.000000 J-0.253256
G02 X93.335808 Y163.989651 Z0.000000 I-0.034560 J-0.194795
G02 X93.370563 Y163.971607 Z0.000000 I-0.068623 J-0.174676
G02 X93.401954 Y163.945994 Z0.000000 I-0.110654 J-0.167658
G02 X93.427567 Y163.914604 Z0.000000 I-0.142045 J-0.142045
G02 X93.445610 Y163.879848 Z0.000000 I-0.156633 J-0.103378
G02 X93.456268 Y163.842069 Z0.000000 I-0.184137 J-0.072340
G02 X93.460162 Y163.797828 Z0.000000 I-0.249362 J-0.044242
G01 X93.460162 Y163.797828 Z0.000000
M63 P0

(End cutting path id: path3740)


(Start cutting path id: path3740)
(Change tool to Default tool)

M63 P0
G00 X91.930871 Y163.289828

M62 P0(Penetrate)
G02 X91.927087 Y163.248211 Z0.000000 I-0.230784 J0.000000 F25.000000
G02 X91.916318 Y163.210453 Z0.000000 I-0.200401 J0.036740
G02 X91.898532 Y163.175430 Z0.000000 I-0.191554 J0.075253
G02 X91.872662 Y163.141661 Z0.000000 I-0.203805 J0.129338
G02 X91.841271 Y163.116048 Z0.000000 I-0.142045 J0.142045
G02 X91.806516 Y163.098005 Z0.000000 I-0.103378 J0.156633
G02 X91.768737 Y163.087347 Z0.000000 I-0.072340 J0.184137
G02 X91.724496 Y163.083453 Z0.000000 I-0.044242 J0.249362
G02 X91.682915 Y163.087296 Z0.000000 I0.000000 J0.226866
G02 X91.646443 Y163.098005 Z0.000000 I0.034454 J0.184799
G02 X91.612927 Y163.115873 Z0.000000 I0.069749 J0.171203
G02 X91.581621 Y163.141661 Z0.000000 I0.117756 J0.174850
G02 X91.555750 Y163.175430 Z0.000000 I0.177935 J0.163107
G02 X91.537964 Y163.210453 Z0.000000 I0.173768 J0.110276
G02 X91.527196 Y163.248211 Z0.000000 I0.189632 J0.074498
G02 X91.523412 Y163.289828 Z0.000000 I0.227001 J0.041617
G02 X91.527255 Y163.331408 Z0.000000 I0.226866 J-0.000000
G02 X91.537964 Y163.367880 Z0.000000 I0.184799 J-0.034454
G02 X91.555833 Y163.401397 Z0.000000 I0.171203 J-0.069749
G02 X91.581621 Y163.432703 Z0.000000 I0.174850 J-0.117756
G02 X91.612927 Y163.458491 Z0.000000 I0.149062 J-0.149062
G02 X91.646443 Y163.476359 Z0.000000 I0.103266 J-0.153335
G02 X91.682915 Y163.487068 Z0.000000 I0.070926 J-0.174090
G02 X91.724496 Y163.490911 Z0.000000 I0.041581 J-0.223023
G02 X91.768737 Y163.487017 Z0.000000 I-0.000000 J-0.253256
G02 X91.806516 Y163.476359 Z0.000000 I-0.034560 J-0.194795
G02 X91.841271 Y163.458316 Z0.000000 I-0.068623 J-0.174676
G02 X91.872662 Y163.432703 Z0.000000 I-0.110654 J-0.167658
G02 X91.898450 Y163.401397 Z0.000000 I-0.149062 J-0.149062
G02 X91.916318 Y163.367880 Z0.000000 I-0.153335 J-0.103266
G02 X91.927027 Y163.331408 Z0.000000 I-0.174090 J-0.070926
G02 X91.930871 Y163.289828 Z0.000000 I-0.223023 J-0.041581
G01 X91.930871 Y163.289828 Z0.000000
M63 P0

(End cutting path id: path3740)


(Start cutting path id: path3740)
(Change tool to Default tool)

M63 P0
G00 X92.438871 Y163.289828

M62 P0(Penetrate)
G02 X92.435087 Y163.248211 Z0.000000 I-0.230784 J0.000000 F25.000000
G02 X92.424318 Y163.210453 Z0.000000 I-0.200401 J0.036740
G02 X92.406532 Y163.175430 Z0.000000 I-0.191554 J0.075253
G02 X92.380662 Y163.141661 Z0.000000 I-0.203805 J0.129338
G02 X92.349356 Y163.115873 Z0.000000 I-0.149062 J0.149062
G02 X92.315839 Y163.098005 Z0.000000 I-0.103266 J0.153335
G02 X92.279368 Y163.087296 Z0.000000 I-0.070926 J0.174090
G02 X92.237787 Y163.083453 Z0.000000 I-0.041581 J0.223023
G02 X92.193546 Y163.087347 Z0.000000 I-0.000000 J0.253256
G02 X92.155766 Y163.098005 Z0.000000 I0.034560 J0.194795
G02 X92.121011 Y163.116048 Z0.000000 I0.068623 J0.174676
G02 X92.089621 Y163.141661 Z0.000000 I0.110654 J0.167658
G02 X92.063750 Y163.175430 Z0.000000 I0.177935 J0.163107
G02 X92.045964 Y163.210453 Z0.000000 I0.173768 J0.110276
G02 X92.035196 Y163.248211 Z0.000000 I0.189632 J0.074498
G02 X92.031412 Y163.289828 Z0.000000 I0.227001 J0.041617
G02 X92.035255 Y163.331408 Z0.000000 I0.226866 J-0.000000
G02 X92.045964 Y163.367880 Z0.000000 I0.184799 J-0.034454
G02 X92.063833 Y163.401397 Z0.000000 I0.171203 J-0.069749
G02 X92.089621 Y163.432703 Z0.000000 I0.174850 J-0.117756
G02 X92.121011 Y163.458316 Z0.000000 I0.142045 J-0.142045
G02 X92.155766 Y163.476359 Z0.000000 I0.103378 J-0.156633
G02 X92.193546 Y163.487017 Z0.000000 I0.072340 J-0.184137
G02 X92.237787 Y163.490911 Z0.000000 I0.044242 J-0.249362
G02 X92.279368 Y163.487068 Z0.000000 I-0.000000 J-0.226866
G02 X92.315839 Y163.476359 Z0.000000 I-0.034454 J-0.184799
G02 X92.349356 Y163.458491 Z0.000000 I-0.069749 J-0.171203
G02 X92.380662 Y163.432703 Z0.000000 I-0.117756 J-0.174850
G02 X92.406450 Y163.401397 Z0.000000 I-0.149062 J-0.149062
G02 X92.424318 Y163.367880 Z0.000000 I-0.153335 J-0.103266
G02 X92.435027 Y163.331408 Z0.000000 I-0.174090 J-0.070926
G02 X92.438871 Y163.289828 Z0.000000 I-0.223023 J-0.041581
G01 X92.438871 Y163.289828 Z0.000000
M63 P0

(End cutting path id: path3740)


(Start cutting path id: path3740)
(Change tool to Default tool)

M63 P0
G00 X92.952162 Y163.289828

M62 P0(Penetrate)
G02 X92.948054 Y163.248338 Z0.000000 I-0.211559 J0.000000 F25.000000
G02 X92.936287 Y163.210453 Z0.000000 I-0.187809 J0.037562
G02 X92.917056 Y163.175683 Z0.000000 I-0.182316 J0.078135
G02 X92.888662 Y163.141661 Z0.000000 I-0.202852 J0.140436
G02 X92.857356 Y163.115873 Z0.000000 I-0.149062 J0.149062
G02 X92.823839 Y163.098005 Z0.000000 I-0.103266 J0.153335
G02 X92.787368 Y163.087296 Z0.000000 I-0.070926 J0.174090
G02 X92.745787 Y163.083453 Z0.000000 I-0.041581 J0.223023
G02 X92.704170 Y163.087236 Z0.000000 I-0.000000 J0.230784
G02 X92.666412 Y163.098005 Z0.000000 I0.036740 J0.200401
G02 X92.631390 Y163.115791 Z0.000000 I0.075253 J0.191554
G02 X92.597621 Y163.141661 Z0.000000 I0.129338 J0.203805
G02 X92.571750 Y163.175430 Z0.000000 I0.177935 J0.163107
G02 X92.553964 Y163.210453 Z0.000000 I0.173768 J0.110276
G02 X92.543196 Y163.248211 Z0.000000 I0.189632 J0.074498
G02 X92.539412 Y163.289828 Z0.000000 I0.227001 J0.041617
G02 X92.543255 Y163.331408 Z0.000000 I0.226866 J-0.000000
G02 X92.553964 Y163.367880 Z0.000000 I0.184799 J-0.034454
G02 X92.571833 Y163.401397 Z0.000000 I0.171203 J-0.069749
G02 X92.597621 Y163.432703 Z0.000000 I0.174850 J-0.117756
G02 X92.631390 Y163.458573 Z0.000000 I0.163107 J-0.177935
G02 X92.666412 Y163.476359 Z0.000000 I0.110276 J-0.173768
G02 X92.704170 Y163.487128 Z0.000000 I0.074498 J-0.189632
G02 X92.745787 Y163.490911 Z0.000000 I0.041617 J-0.227001
G02 X92.787368 Y163.487068 Z0.000000 I-0.000000 J-0.226866
G02 X92.823839 Y163.476359 Z0.000000 I-0.034454 J-0.184799
G02 X92.857356 Y163.458491 Z0.000000 I-0.069749 J-0.171203
G02 X92.888662 Y163.432703 Z0.000000 I-0.117756 J-0.174850
G02 X92.916985 Y163.401133 Z0.000000 I-0.147040 J-0.160407
G02 X92.936287 Y163.367880 Z0.000000 I-0.144126 J-0.105888
G02 X92.947990 Y163.331276 Z0.000000 I-0.161724 J-0.071877
G02 X92.952162 Y163.289828 Z0.000000 I-0.203786 J-0.041448
G01 X92.952162 Y163.289828 Z0.000000
M63 P0

(End cutting path id: path3740)


(Start cutting path id: path3740)
(Change tool to Default tool)

M63 P0
G00 X93.460162 Y163.289828

M62 P0(Penetrate)
G02 X93.456379 Y163.248211 Z0.000000 I-0.230784 J0.000000 F25.000000
G02 X93.445610 Y163.210453 Z0.000000 I-0.200401 J0.036740
G02 X93.427824 Y163.175430 Z0.000000 I-0.191554 J0.075253
G02 X93.401954 Y163.141661 Z0.000000 I-0.203805 J0.129338
G02 X93.370563 Y163.116048 Z0.000000 I-0.142045 J0.142045
G02 X93.335808 Y163.098005 Z0.000000 I-0.103378 J0.156633
G02 X93.298029 Y163.087347 Z0.000000 I-0.072340 J0.184137
G02 X93.253787 Y163.083453 Z0.000000 I-0.044242 J0.249362
G02 X93.212207 Y163.087296 Z0.000000 I-0.000000 J0.226866
G02 X93.175735 Y163.098005 Z0.000000 I0.034454 J0.184799
G02 X93.142218 Y163.115873 Z0.000000 I0.069749 J0.171203
G02 X93.110912 Y163.141661 Z0.000000 I0.117756 J0.174850
G02 X93.085042 Y163.175430 Z0.000000 I0.177935 J0.163107
G02 X93.067256 Y163.210453 Z0.000000 I0.173768 J0.110276
G02 X93.056487 Y163.248211 Z0.000000 I0.189632 J0.074498
G02 X93.052704 Y163.289828 Z0.000000 I0.227001 J0.041617
G02 X93.056547 Y163.331408 Z0.000000 I0.226866 J-0.000000
G02 X93.067256 Y163.367880 Z0.000000 I0.184799 J-0.034454
G02 X93.085124 Y163.401397 Z0.000000 I0.171203 J-0.069749
G02 X93.110912 Y163.432703 Z0.000000 I0.174850 J-0.117756
G02 X93.142218 Y163.458491 Z0.000000 I0.149062 J-0.149062
G02 X93.175735 Y163.476359 Z0.000000 I0.103266 J-0.153335
G02 X93.212207 Y163.487068 Z0.000000 I0.070926 J-0.174090
G02 X93.253787 Y163.490911 Z0.000000 I0.041581 J-0.223023
G02 X93.298029 Y163.487017 Z0.000000 I-0.000000 J-0.253256
G02 X93.335808 Y163.476359 Z0.000000 I-0.034560 J-0.194795
G02 X93.370563 Y163.458316 Z0.000000 I-0.068623 J-0.174676
G02 X93.401954 Y163.432703 Z0.000000 I-0.110654 J-0.167658
G02 X93.427742 Y163.401397 Z0.000000 I-0.149062 J-0.149062
G02 X93.445610 Y163.367880 Z0.000000 I-0.153335 J-0.103266
G02 X93.456319 Y163.331408 Z0.000000 I-0.174090 J-0.070926
G02 X93.460162 Y163.289828 Z0.000000 I-0.223023 J-0.041581
G01 X93.460162 Y163.289828 Z0.000000
M63 P0

(End cutting path id: path3740)


(Start cutting path id: path3740)
(Change tool to Default tool)

M63 P0
G00 X90.909579 Y162.776536

M62 P0(Penetrate)
G02 X90.905736 Y162.734955 Z0.000000 I-0.226866 J0.000000 F25.000000
G02 X90.895027 Y162.698484 Z0.000000 I-0.184799 J0.034454
G02 X90.877158 Y162.664967 Z0.000000 I-0.171203 J0.069749
G02 X90.851371 Y162.633661 Z0.000000 I-0.174850 J0.117756
G02 X90.819980 Y162.608048 Z0.000000 I-0.142045 J0.142045
G02 X90.785225 Y162.590005 Z0.000000 I-0.103378 J0.156633
G02 X90.747446 Y162.579347 Z0.000000 I-0.072340 J0.184137
G02 X90.703204 Y162.575453 Z0.000000 I-0.044242 J0.249362
G02 X90.661623 Y162.579296 Z0.000000 I-0.000000 J0.226866
G02 X90.625152 Y162.590005 Z0.000000 I0.034454 J0.184799
G02 X90.591635 Y162.607873 Z0.000000 I0.069749 J0.171203
G02 X90.560329 Y162.633661 Z0.000000 I0.117756 J0.174850
G02 X90.534541 Y162.664967 Z0.000000 I0.149062 J0.149062
G02 X90.516673 Y162.698484 Z0.000000 I0.153335 J0.103266
G02 X90.505964 Y162.734955 Z0.000000 I0.174090 J0.070926
G02 X90.502121 Y162.776536 Z0.000000 I0.223023 J0.041581
G02 X90.506015 Y162.820778 Z0.000000 I0.253256 J-0.000000
G02 X90.516673 Y162.858557 Z0.000000 I0.194795 J-0.034560
G02 X90.534716 Y162.893312 Z0.000000 I0.174676 J-0.068623
G02 X90.560329 Y162.924703 Z0.000000 I0.167658 J-0.110654
G02 X90.591635 Y162.950491 Z0.000000 I0.149062 J-0.149062
G02 X90.625152 Y162.968359 Z0.000000 I0.103266 J-0.153335
G02 X90.661623 Y162.979068 Z0.000000 I0.070926 J-0.174090
G02 X90.703204 Y162.982911 Z0.000000 I0.041581 J-0.223023
G02 X90.747446 Y162.979017 Z0.000000 I-0.000000 J-0.253256
G02 X90.785225 Y162.968359 Z0.000000 I-0.034560 J-0.194795
G02 X90.819980 Y162.950316 Z0.000000 I-0.068623 J-0.174676
G02 X90.851371 Y162.924703 Z0.000000 I-0.110654 J-0.167658
G02 X90.876984 Y162.893312 Z0.000000 I-0.142045 J-0.142045
G02 X90.895027 Y162.858557 Z0.000000 I-0.156633 J-0.103378
G02 X90.905685 Y162.820778 Z0.000000 I-0.184137 J-0.072340
G02 X90.909579 Y162.776536 Z0.000000 I-0.249362 J-0.044242
G01 X90.909579 Y162.776536 Z0.000000
M63 P0

(End cutting path id: path3740)


(Start cutting path id: path3740)
(Change tool to Default tool)

M63 P0
G00 X91.417579 Y162.776536

M62 P0(Penetrate)
G02 X91.413736 Y162.734955 Z0.000000 I-0.226866 J0.000000 F25.000000
G02 X91.403027 Y162.698484 Z0.000000 I-0.184799 J0.034454
G02 X91.385158 Y162.664967 Z0.000000 I-0.171203 J0.069749
G02 X91.359371 Y162.633661 Z0.000000 I-0.174850 J0.117756
G02 X91.328064 Y162.607873 Z0.000000 I-0.149062 J0.149062
G02 X91.294548 Y162.590005 Z0.000000 I-0.103266 J0.153335
G02 X91.258076 Y162.579296 Z0.000000 I-0.070926 J0.174090
G02 X91.216496 Y162.575453 Z0.000000 I-0.041581 J0.223023
G02 X91.174879 Y162.579236 Z0.000000 I-0.000000 J0.230784
G02 X91.137121 Y162.590005 Z0.000000 I0.036740 J0.200401
G02 X91.102098 Y162.607791 Z0.000000 I0.075253 J0.191554
G02 X91.068329 Y162.633661 Z0.000000 I0.129338 J0.203805
G02 X91.042541 Y162.664967 Z0.000000 I0.149062 J0.149062
G02 X91.024673 Y162.698484 Z0.000000 I0.153335 J0.103266
G02 X91.013964 Y162.734955 Z0.000000 I0.174090 J0.070926
G02 X91.010121 Y162.776536 Z0.000000 I0.223023 J0.041581
G02 X91.014015 Y162.820778 Z0.000000 I0.253256 J-0.000000
G02 X91.024673 Y162.858557 Z0.000000 I0.194795 J-0.034560
G02 X91.042716 Y162.893312 Z0.000000 I0.174676 J-0.068623
G02 X91.068329 Y162.924703 Z0.000000 I0.167658 J-0.110654
G02 X91.102098 Y162.950573 Z0.000000 I0.163107 J-0.177935
G02 X91.137121 Y162.968359 Z0.000000 I0.110276 J-0.173768
G02 X91.174879 Y162.979128 Z0.000000 I0.074498 J-0.189632
G02 X91.216496 Y162.982911 Z0.000000 I0.041617 J-0.227001
G02 X91.258076 Y162.979068 Z0.000000 I-0.000000 J-0.226866
G02 X91.294548 Y162.968359 Z0.000000 I-0.034454 J-0.184799
G02 X91.328064 Y162.950491 Z0.000000 I-0.069749 J-0.171203
G02 X91.359371 Y162.924703 Z0.000000 I-0.117756 J-0.174850
G02 X91.384984 Y162.893312 Z0.000000 I-0.142045 J-0.142045
G02 X91.403027 Y162.858557 Z0.000000 I-0.156633 J-0.103378
G02 X91.413685 Y162.820778 Z0.000000 I-0.184137 J-0.072340
G02 X91.417579 Y162.776536 Z0.000000 I-0.249362 J-0.044242
G01 X91.417579 Y162.776536 Z0.000000
M63 P0

(End cutting path id: path3740)


(Start cutting path id: path3740)
(Change tool to Default tool)

M63 P0
G00 X92.952162 Y162.776536

M62 P0(Penetrate)
G02 X92.947990 Y162.735088 Z0.000000 I-0.207958 J-0.000000 F25.000000
G02 X92.936287 Y162.698484 Z0.000000 I-0.173427 J0.035273
G02 X92.916985 Y162.665230 Z0.000000 I-0.163428 J0.072635
G02 X92.888662 Y162.633661 Z0.000000 I-0.175362 J0.128838
G02 X92.857356 Y162.607873 Z0.000000 I-0.149062 J0.149062
G02 X92.823839 Y162.590005 Z0.000000 I-0.103266 J0.153335
G02 X92.787368 Y162.579296 Z0.000000 I-0.070926 J0.174090
G02 X92.745787 Y162.575453 Z0.000000 I-0.041581 J0.223023
G02 X92.704170 Y162.579236 Z0.000000 I-0.000000 J0.230784
G02 X92.666412 Y162.590005 Z0.000000 I0.036740 J0.200401
G02 X92.631390 Y162.607791 Z0.000000 I0.075253 J0.191554
G02 X92.597621 Y162.633661 Z0.000000 I0.129338 J0.203805
G02 X92.571833 Y162.664967 Z0.000000 I0.149062 J0.149062
G02 X92.553964 Y162.698484 Z0.000000 I0.153335 J0.103266
G02 X92.543255 Y162.734955 Z0.000000 I0.174090 J0.070926
G02 X92.539412 Y162.776536 Z0.000000 I0.223023 J0.041581
G02 X92.543306 Y162.820778 Z0.000000 I0.253256 J-0.000000
G02 X92.553964 Y162.858557 Z0.000000 I0.194795 J-0.034560
G02 X92.572008 Y162.893312 Z0.000000 I0.174676 J-0.068623
G02 X92.597621 Y162.924703 Z0.000000 I0.167658 J-0.110654
G02 X92.631390 Y162.950573 Z0.000000 I0.163107 J-0.177935
G02 X92.666412 Y162.968359 Z0.000000 I0.110276 J-0.173768
G02 X92.704170 Y162.979128 Z0.000000 I0.074498 J-0.189632
G02 X92.745787 Y162.982911 Z0.000000 I0.041617 J-0.227001
G02 X92.787368 Y162.979068 Z0.000000 I-0.000000 J-0.226866
G02 X92.823839 Y162.968359 Z0.000000 I-0.034454 J-0.184799
G02 X92.857356 Y162.950491 Z0.000000 I-0.069749 J-0.171203
G02 X92.888662 Y162.924703 Z0.000000 I-0.117756 J-0.174850
G02 X92.916799 Y162.893036 Z0.000000 I-0.139994 J-0.152721
G02 X92.936287 Y162.858557 Z0.000000 I-0.146970 J-0.105818
G02 X92.947933 Y162.820647 Z0.000000 I-0.170893 J-0.073240
G02 X92.952162 Y162.776536 Z0.000000 I-0.227907 J-0.044111
G01 X92.952162 Y162.776536 Z0.000000
M63 P0

(End cutting path id: path3740)


(Start cutting path id: path3740)
(Change tool to Default tool)

M63 P0
G00 X93.460162 Y162.776536

M62 P0(Penetrate)
G02 X93.456319 Y162.734955 Z0.000000 I-0.226866 J0.000000 F25.000000
G02 X93.445610 Y162.698484 Z0.000000 I-0.184799 J0.034454
G02 X93.427742 Y162.664967 Z0.000000 I-0.171203 J0.069749
G02 X93.401954 Y162.633661 Z0.000000 I-0.174850 J0.117756
G02 X93.370563 Y162.608048 Z0.000000 I-0.142045 J0.142045
G02 X93.335808 Y162.590005 Z0.000000 I-0.103378 J0.156633
G02 X93.298029 Y162.579347 Z0.000000 I-0.072340 J0.184137
G02 X93.253787 Y162.575453 Z0.000000 I-0.044242 J0.249362
G02 X93.212207 Y162.579296 Z0.000000 I-0.000000 J0.226866
G02 X93.175735 Y162.590005 Z0.000000 I0.034454 J0.184799
G02 X93.142218 Y162.607873 Z0.000000 I0.069749 J0.171203
G02 X93.110912 Y162.633661 Z0.000000 I0.117756 J0.174850
G02 X93.085124 Y162.664967 Z0.000000 I0.149062 J0.149062
G02 X93.067256 Y162.698484 Z0.000000 I0.153335 J0.103266
G02 X93.056547 Y162.734955 Z0.000000 I0.174090 J0.070926
G02 X93.052704 Y162.776536 Z0.000000 I0.223023 J0.041581
G02 X93.056598 Y162.820778 Z0.000000 I0.253256 J-0.000000
G02 X93.067256 Y162.858557 Z0.000000 I0.194795 J-0.034560
G02 X93.085299 Y162.893312 Z0.000000 I0.174676 J-0.068623
G02 X93.110912 Y162.924703 Z0.000000 I0.167658 J-0.110654
G02 X93.142218 Y162.950491 Z0.000000 I0.149062 J-0.149062
G02 X93.175735 Y162.968359 Z0.000000 I0.103266 J-0.153335
G02 X93.212207 Y162.979068 Z0.000000 I0.070926 J-0.174090
G02 X93.253787 Y162.982911 Z0.000000 I0.041581 J-0.223023
G02 X93.298029 Y162.979017 Z0.000000 I-0.000000 J-0.253256
G02 X93.335808 Y162.968359 Z0.000000 I-0.034560 J-0.194795
G02 X93.370563 Y162.950316 Z0.000000 I-0.068623 J-0.174676
G02 X93.401954 Y162.924703 Z0.000000 I-0.110654 J-0.167658
G02 X93.427567 Y162.893312 Z0.000000 I-0.142045 J-0.142045
G02 X93.445610 Y162.858557 Z0.000000 I-0.156633 J-0.103378
G02 X93.456268 Y162.820778 Z0.000000 I-0.184137 J-0.072340
G02 X93.460162 Y162.776536 Z0.000000 I-0.249362 J-0.044242
G01 X93.460162 Y162.776536 Z0.000000
M63 P0

(End cutting path id: path3740)


(Start cutting path id: path3740)
(Change tool to Default tool)

M63 P0
G00 X90.909579 Y162.268536

M62 P0(Penetrate)
G02 X90.905736 Y162.226955 Z0.000000 I-0.226866 J0.000000 F25.000000
G02 X90.895027 Y162.190484 Z0.000000 I-0.184799 J0.034454
G02 X90.877158 Y162.156967 Z0.000000 I-0.171203 J0.069749
G02 X90.851371 Y162.125661 Z0.000000 I-0.174850 J0.117756
G02 X90.819980 Y162.100048 Z0.000000 I-0.142045 J0.142045
G02 X90.785225 Y162.082005 Z0.000000 I-0.103378 J0.156633
G02 X90.747446 Y162.071347 Z0.000000 I-0.072340 J0.184137
G02 X90.703204 Y162.067453 Z0.000000 I-0.044242 J0.249362
G02 X90.661623 Y162.071296 Z0.000000 I-0.000000 J0.226866
G02 X90.625152 Y162.082005 Z0.000000 I0.034454 J0.184799
G02 X90.591635 Y162.099873 Z0.000000 I0.069749 J0.171203
G02 X90.560329 Y162.125661 Z0.000000 I0.117756 J0.174850
G02 X90.534541 Y162.156967 Z0.000000 I0.149062 J0.149062
G02 X90.516673 Y162.190484 Z0.000000 I0.153335 J0.103266
G02 X90.505964 Y162.226955 Z0.000000 I0.174090 J0.070926
G02 X90.502121 Y162.268536 Z0.000000 I0.223023 J0.041581
G02 X90.505964 Y162.310116 Z0.000000 I0.226866 J-0.000000
G02 X90.516673 Y162.346588 Z0.000000 I0.184799 J-0.034454
G02 X90.534541 Y162.380105 Z0.000000 I0.171203 J-0.069749
G02 X90.560329 Y162.411411 Z0.000000 I0.174850 J-0.117756
G02 X90.591898 Y162.439734 Z0.000000 I0.160407 J-0.147040
G02 X90.625152 Y162.459036 Z0.000000 I0.105888 J-0.144126
G02 X90.661756 Y162.470739 Z0.000000 I0.071877 J-0.161724
G02 X90.703204 Y162.474911 Z0.000000 I0.041448 J-0.203786
G02 X90.747315 Y162.470681 Z0.000000 I0.000000 J-0.232136
G02 X90.785225 Y162.459036 Z0.000000 I-0.035330 J-0.182538
G02 X90.819704 Y162.439548 Z0.000000 I-0.071339 J-0.166458
G02 X90.851371 Y162.411411 Z0.000000 I-0.121054 J-0.168131
G02 X90.877158 Y162.380105 Z0.000000 I-0.149062 J-0.149062
G02 X90.895027 Y162.346588 Z0.000000 I-0.153335 J-0.103266
G02 X90.905736 Y162.310116 Z0.000000 I-0.174090 J-0.070926
G02 X90.909579 Y162.268536 Z0.000000 I-0.223023 J-0.041581
G01 X90.909579 Y162.268536 Z0.000000
M63 P0

(End cutting path id: path3740)


(Start cutting path id: path3740)
(Change tool to Default tool)

M63 P0
G00 X91.417579 Y162.268536

M62 P0(Penetrate)
G02 X91.413736 Y162.226955 Z0.000000 I-0.226866 J0.000000 F25.000000
G02 X91.403027 Y162.190484 Z0.000000 I-0.184799 J0.034454
G02 X91.385158 Y162.156967 Z0.000000 I-0.171203 J0.069749
G02 X91.359371 Y162.125661 Z0.000000 I-0.174850 J0.117756
G02 X91.328064 Y162.099873 Z0.000000 I-0.149062 J0.149062
G02 X91.294548 Y162.082005 Z0.000000 I-0.103266 J0.153335
G02 X91.258076 Y162.071296 Z0.000000 I-0.070926 J0.174090
G02 X91.216496 Y162.067453 Z0.000000 I-0.041581 J0.223023
G02 X91.174879 Y162.071236 Z0.000000 I-0.000000 J0.230784
G02 X91.137121 Y162.082005 Z0.000000 I0.036740 J0.200401
G02 X91.102098 Y162.099791 Z0.000000 I0.075253 J0.191554
G02 X91.068329 Y162.125661 Z0.000000 I0.129338 J0.203805
G02 X91.042541 Y162.156967 Z0.000000 I0.149062 J0.149062
G02 X91.024673 Y162.190484 Z0.000000 I0.153335 J0.103266
G02 X91.013964 Y162.226955 Z0.000000 I0.174090 J0.070926
G02 X91.010121 Y162.268536 Z0.000000 I0.223023 J0.041581
G02 X91.013964 Y162.310116 Z0.000000 I0.226866 J-0.000000
G02 X91.024673 Y162.346588 Z0.000000 I0.184799 J-0.034454
G02 X91.042541 Y162.380105 Z0.000000 I0.171203 J-0.069749
G02 X91.068329 Y162.411411 Z0.000000 I0.174850 J-0.117756
G02 X91.102351 Y162.439805 Z0.000000 I0.174458 J-0.174458
G02 X91.137121 Y162.459036 Z0.000000 I0.112905 J-0.163085
G02 X91.175005 Y162.470803 Z0.000000 I0.075447 J-0.176042
G02 X91.216496 Y162.474911 Z0.000000 I0.041490 J-0.207450
G02 X91.257943 Y162.470739 Z0.000000 I-0.000000 J-0.207958
G02 X91.294548 Y162.459036 Z0.000000 I-0.035273 J-0.173427
G02 X91.327801 Y162.439734 Z0.000000 I-0.072635 J-0.163428
G02 X91.359371 Y162.411411 Z0.000000 I-0.128838 J-0.175362
G02 X91.385158 Y162.380105 Z0.000000 I-0.149062 J-0.149062
G02 X91.403027 Y162.346588 Z0.000000 I-0.153335 J-0.103266
G02 X91.413736 Y162.310116 Z0.000000 I-0.174090 J-0.070926
G02 X91.417579 Y162.268536 Z0.000000 I-0.223023 J-0.041581
G01 X91.417579 Y162.268536 Z0.000000
M63 P0

(End cutting path id: path3740)


(Start cutting path id: path3740)
(Change tool to Default tool)

M63 P0
G00 X91.930871 Y162.268536

M62 P0(Penetrate)
G02 X91.927027 Y162.226955 Z0.000000 I-0.226866 J0.000000 F25.000000
G02 X91.916318 Y162.190484 Z0.000000 I-0.184799 J0.034454
G02 X91.898450 Y162.156967 Z0.000000 I-0.171203 J0.069749
G02 X91.872662 Y162.125661 Z0.000000 I-0.174850 J0.117756
G02 X91.841271 Y162.100048 Z0.000000 I-0.142045 J0.142045
G02 X91.806516 Y162.082005 Z0.000000 I-0.103378 J0.156633
G02 X91.768737 Y162.071347 Z0.000000 I-0.072340 J0.184137
G02 X91.724496 Y162.067453 Z0.000000 I-0.044242 J0.249362
G02 X91.682915 Y162.071296 Z0.000000 I-0.000000 J0.226866
G02 X91.646443 Y162.082005 Z0.000000 I0.034454 J0.184799
G02 X91.612927 Y162.099873 Z0.000000 I0.069749 J0.171203
G02 X91.581621 Y162.125661 Z0.000000 I0.117756 J0.174850
G02 X91.555833 Y162.156967 Z0.000000 I0.149062 J0.149062
G02 X91.537964 Y162.190484 Z0.000000 I0.153335 J0.103266
G02 X91.527255 Y162.226955 Z0.000000 I0.174090 J0.070926
G02 X91.523412 Y162.268536 Z0.000000 I0.223023 J0.041581
G02 X91.527255 Y162.310116 Z0.000000 I0.226866 J-0.000000
G02 X91.537964 Y162.346588 Z0.000000 I0.184799 J-0.034454
G02 X91.555833 Y162.380105 Z0.000000 I0.171203 J-0.069749
G02 X91.581621 Y162.411411 Z0.000000 I0.174850 J-0.117756
G02 X91.613190 Y162.439734 Z0.000000 I0.160407 J-0.147040
G02 X91.646443 Y162.459036 Z0.000000 I0.105888 J-0.144126
G02 X91.683048 Y162.470739 Z0.000000 I0.071877 J-0.161724
G02 X91.724496 Y162.474911 Z0.000000 I0.041448 J-0.203786
G02 X91.768607 Y162.470681 Z0.000000 I0.000000 J-0.232136
G02 X91.806516 Y162.459036 Z0.000000 I-0.035330 J-0.182538
G02 X91.840995 Y162.439548 Z0.000000 I-0.071339 J-0.166458
G02 X91.872662 Y162.411411 Z0.000000 I-0.121054 J-0.168131
G02 X91.898450 Y162.380105 Z0.000000 I-0.149062 J-0.149062
G02 X91.916318 Y162.346588 Z0.000000 I-0.153335 J-0.103266
G02 X91.927027 Y162.310116 Z0.000000 I-0.174090 J-0.070926
G02 X91.930871 Y162.268536 Z0.000000 I-0.223023 J-0.041581
G01 X91.930871 Y162.268536 Z0.000000
M63 P0

(End cutting path id: path3740)


(Start cutting path id: path3740)
(Change tool to Default tool)

M63 P0
G00 X92.438871 Y162.268536

M62 P0(Penetrate)
G02 X92.435027 Y162.226955 Z0.000000 I-0.226866 J0.000000 F25.000000
G02 X92.424318 Y162.190484 Z0.000000 I-0.184799 J0.034454
G02 X92.406450 Y162.156967 Z0.000000 I-0.171203 J0.069749
G02 X92.380662 Y162.125661 Z0.000000 I-0.174850 J0.117756
G02 X92.349356 Y162.099873 Z0.000000 I-0.149062 J0.149062
G02 X92.315839 Y162.082005 Z0.000000 I-0.103266 J0.153335
G02 X92.279368 Y162.071296 Z0.000000 I-0.070926 J0.174090
G02 X92.237787 Y162.067453 Z0.000000 I-0.041581 J0.223023
G02 X92.193546 Y162.071347 Z0.000000 I-0.000000 J0.253256
G02 X92.155766 Y162.082005 Z0.000000 I0.034560 J0.194795
G02 X92.121011 Y162.100048 Z0.000000 I0.068623 J0.174676
G02 X92.089621 Y162.125661 Z0.000000 I0.110654 J0.167658
G02 X92.063833 Y162.156967 Z0.000000 I0.149062 J0.149062
G02 X92.045964 Y162.190484 Z0.000000 I0.153335 J0.103266
G02 X92.035255 Y162.226955 Z0.000000 I0.174090 J0.070926
G02 X92.031412 Y162.268536 Z0.000000 I0.223023 J0.041581
G02 X92.035255 Y162.310116 Z0.000000 I0.226866 J-0.000000
G02 X92.045964 Y162.346588 Z0.000000 I0.184799 J-0.034454
G02 X92.063833 Y162.380105 Z0.000000 I0.171203 J-0.069749
G02 X92.089621 Y162.411411 Z0.000000 I0.174850 J-0.117756
G02 X92.121287 Y162.439548 Z0.000000 I0.152721 J-0.139994
G02 X92.155766 Y162.459036 Z0.000000 I0.105818 J-0.146970
G02 X92.193676 Y162.470681 Z0.000000 I0.073240 J-0.170893
G02 X92.237787 Y162.474911 Z0.000000 I0.044111 J-0.227907
G02 X92.279235 Y162.470739 Z0.000000 I0.000000 J-0.207958
G02 X92.315839 Y162.459036 Z0.000000 I-0.035273 J-0.173427
G02 X92.349093 Y162.439734 Z0.000000 I-0.072635 J-0.163428
G02 X92.380662 Y162.411411 Z0.000000 I-0.128838 J-0.175362
G02 X92.406450 Y162.380105 Z0.000000 I-0.149062 J-0.149062
G02 X92.424318 Y162.346588 Z0.000000 I-0.153335 J-0.103266
G02 X92.435027 Y162.310116 Z0.000000 I-0.174090 J-0.070926
G02 X92.438871 Y162.268536 Z0.000000 I-0.223023 J-0.041581
G01 X92.438871 Y162.268536 Z0.000000
M63 P0

(End cutting path id: path3740)


(Start cutting path id: path3740)
(Change tool to Default tool)

M63 P0
G00 X92.952162 Y162.268536

M62 P0(Penetrate)
G02 X92.947990 Y162.227088 Z0.000000 I-0.207958 J-0.000000 F25.000000
G02 X92.936287 Y162.190484 Z0.000000 I-0.173427 J0.035273
G02 X92.916985 Y162.157230 Z0.000000 I-0.163428 J0.072635
G02 X92.888662 Y162.125661 Z0.000000 I-0.175362 J0.128838
G02 X92.857356 Y162.099873 Z0.000000 I-0.149062 J0.149062
G02 X92.823839 Y162.082005 Z0.000000 I-0.103266 J0.153335
G02 X92.787368 Y162.071296 Z0.000000 I-0.070926 J0.174090
G02 X92.745787 Y162.067453 Z0.000000 I-0.041581 J0.223023
G02 X92.704170 Y162.071236 Z0.000000 I-0.000000 J0.230784
G02 X92.666412 Y162.082005 Z0.000000 I0.036740 J0.200401
G02 X92.631390 Y162.099791 Z0.000000 I0.075253 J0.191554
G02 X92.597621 Y162.125661 Z0.000000 I0.129338 J0.203805
G02 X92.571833 Y162.156967 Z0.000000 I0.149062 J0.149062
G02 X92.553964 Y162.190484 Z0.000000 I0.153335 J0.103266
G02 X92.543255 Y162.226955 Z0.000000 I0.174090 J0.070926
G02 X92.539412 Y162.268536 Z0.000000 I0.223023 J0.041581
G02 X92.543255 Y162.310116 Z0.000000 I0.226866 J-0.000000
G02 X92.553964 Y162.346588 Z0.000000 I0.184799 J-0.034454
G02 X92.571833 Y162.380105 Z0.000000 I0.171203 J-0.069749
G02 X92.597621 Y162.411411 Z0.000000 I0.174850 J-0.117756
G02 X92.631643 Y162.439805 Z0.000000 I0.174458 J-0.174458
G02 X92.666412 Y162.459036 Z0.000000 I0.112905 J-0.163085
G02 X92.704297 Y162.470803 Z0.000000 I0.075447 J-0.176042
G02 X92.745787 Y162.474911 Z0.000000 I0.041490 J-0.207450
G02 X92.787235 Y162.470739 Z0.000000 I0.000000 J-0.207958
G02 X92.823839 Y162.459036 Z0.000000 I-0.035273 J-0.173427
G02 X92.857093 Y162.439734 Z0.000000 I-0.072635 J-0.163428
G02 X92.888662 Y162.411411 Z0.000000 I-0.128838 J-0.175362
G02 X92.916985 Y162.379842 Z0.000000 I-0.147040 J-0.160407
G02 X92.936287 Y162.346588 Z0.000000 I-0.144126 J-0.105888
G02 X92.947990 Y162.309984 Z0.000000 I-0.161724 J-0.071877
G02 X92.952162 Y162.268536 Z0.000000 I-0.203786 J-0.041448
G01 X92.952162 Y162.268536 Z0.000000
M63 P0

(End cutting path id: path3740)


(Start cutting path id: path3740)
(Change tool to Default tool)

M63 P0
G00 X93.460162 Y162.268536

M62 P0(Penetrate)
G02 X93.456319 Y162.226955 Z0.000000 I-0.226866 J0.000000 F25.000000
G02 X93.445610 Y162.190484 Z0.000000 I-0.184799 J0.034454
G02 X93.427742 Y162.156967 Z0.000000 I-0.171203 J0.069749
G02 X93.401954 Y162.125661 Z0.000000 I-0.174850 J0.117756
G02 X93.370563 Y162.100048 Z0.000000 I-0.142045 J0.142045
G02 X93.335808 Y162.082005 Z0.000000 I-0.103378 J0.156633
G02 X93.298029 Y162.071347 Z0.000000 I-0.072340 J0.184137
G02 X93.253787 Y162.067453 Z0.000000 I-0.044242 J0.249362
G02 X93.212207 Y162.071296 Z0.000000 I0.000000 J0.226866
G02 X93.175735 Y162.082005 Z0.000000 I0.034454 J0.184799
G02 X93.142218 Y162.099873 Z0.000000 I0.069749 J0.171203
G02 X93.110912 Y162.125661 Z0.000000 I0.117756 J0.174850
G02 X93.085124 Y162.156967 Z0.000000 I0.149062 J0.149062
G02 X93.067256 Y162.190484 Z0.000000 I0.153335 J0.103266
G02 X93.056547 Y162.226955 Z0.000000 I0.174090 J0.070926
G02 X93.052704 Y162.268536 Z0.000000 I0.223023 J0.041581
G02 X93.056547 Y162.310116 Z0.000000 I0.226866 J-0.000000
G02 X93.067256 Y162.346588 Z0.000000 I0.184799 J-0.034454
G02 X93.085124 Y162.380105 Z0.000000 I0.171203 J-0.069749
G02 X93.110912 Y162.411411 Z0.000000 I0.174850 J-0.117756
G02 X93.142482 Y162.439734 Z0.000000 I0.160407 J-0.147040
G02 X93.175735 Y162.459036 Z0.000000 I0.105888 J-0.144126
G02 X93.212339 Y162.470739 Z0.000000 I0.071877 J-0.161724
G02 X93.253787 Y162.474911 Z0.000000 I0.041448 J-0.203786
G02 X93.297898 Y162.470681 Z0.000000 I0.000000 J-0.232136
G02 X93.335808 Y162.459036 Z0.000000 I-0.035330 J-0.182538
G02 X93.370287 Y162.439548 Z0.000000 I-0.071339 J-0.166458
G02 X93.401954 Y162.411411 Z0.000000 I-0.121054 J-0.168131
G02 X93.427742 Y162.380105 Z0.000000 I-0.149062 J-0.149062
G02 X93.445610 Y162.346588 Z0.000000 I-0.153335 J-0.103266
G02 X93.456319 Y162.310116 Z0.000000 I-0.174090 J-0.070926
G02 X93.460162 Y162.268536 Z0.000000 I-0.223023 J-0.041581
G01 X93.460162 Y162.268536 Z0.000000
M63 P0

(End cutting path id: path3740)


(Start cutting path id: path3740)
(Change tool to Default tool)

M63 P0
G00 X91.417579 Y161.760536

M62 P0(Penetrate)
G02 X91.413685 Y161.716294 Z0.000000 I-0.253256 J0.000000 F25.000000
G02 X91.403027 Y161.678515 Z0.000000 I-0.194795 J0.034560
G02 X91.384984 Y161.643760 Z0.000000 I-0.174676 J0.068623
G02 X91.359371 Y161.612369 Z0.000000 I-0.167658 J0.110654
G02 X91.328064 Y161.586581 Z0.000000 I-0.149062 J0.149062
G02 X91.294548 Y161.568713 Z0.000000 I-0.103266 J0.153335
G02 X91.258076 Y161.558004 Z0.000000 I-0.070926 J0.174090
G02 X91.216496 Y161.554161 Z0.000000 I-0.041581 J0.223023
G02 X91.174879 Y161.557944 Z0.000000 I-0.000000 J0.230784
G02 X91.137121 Y161.568713 Z0.000000 I0.036740 J0.200401
G02 X91.102098 Y161.586499 Z0.000000 I0.075253 J0.191554
G02 X91.068329 Y161.612369 Z0.000000 I0.129338 J0.203805
G02 X91.042716 Y161.643760 Z0.000000 I0.142045 J0.142045
G02 X91.024673 Y161.678515 Z0.000000 I0.156633 J0.103378
G02 X91.014015 Y161.716294 Z0.000000 I0.184137 J0.072340
G02 X91.010121 Y161.760536 Z0.000000 I0.249362 J0.044242
G02 X91.013964 Y161.802116 Z0.000000 I0.226866 J-0.000000
G02 X91.024673 Y161.838588 Z0.000000 I0.184799 J-0.034454
G02 X91.042541 Y161.872105 Z0.000000 I0.171203 J-0.069749
G02 X91.068329 Y161.903411 Z0.000000 I0.174850 J-0.117756
G02 X91.102098 Y161.929281 Z0.000000 I0.163107 J-0.177935
G02 X91.137121 Y161.947067 Z0.000000 I0.110276 J-0.173768
G02 X91.174879 Y161.957836 Z0.000000 I0.074498 J-0.189632
G02 X91.216496 Y161.961619 Z0.000000 I0.041617 J-0.227001
G02 X91.258076 Y161.957776 Z0.000000 I0.000000 J-0.226866
G02 X91.294548 Y161.947067 Z0.000000 I-0.034454 J-0.184799
G02 X91.328064 Y161.929199 Z0.000000 I-0.069749 J-0.171203
G02 X91.359371 Y161.903411 Z0.000000 I-0.117756 J-0.174850
G02 X91.385158 Y161.872105 Z0.000000 I-0.149062 J-0.149062
G02 X91.403027 Y161.838588 Z0.000000 I-0.153335 J-0.103266
G02 X91.413736 Y161.802116 Z0.000000 I-0.174090 J-0.070926
G02 X91.417579 Y161.760536 Z0.000000 I-0.223023 J-0.041581
G01 X91.417579 Y161.760536 Z0.000000
M63 P0

(End cutting path id: path3740)


(Start cutting path id: path3740)
(Change tool to Default tool)

M63 P0
G00 X91.930871 Y161.760536

M62 P0(Penetrate)
G02 X91.926976 Y161.716294 Z0.000000 I-0.253256 J-0.000000 F25.000000
G02 X91.916318 Y161.678515 Z0.000000 I-0.194795 J0.034560
G02 X91.898275 Y161.643760 Z0.000000 I-0.174676 J0.068623
G02 X91.872662 Y161.612369 Z0.000000 I-0.167658 J0.110654
G02 X91.841271 Y161.586756 Z0.000000 I-0.142045 J0.142045
G02 X91.806516 Y161.568713 Z0.000000 I-0.103378 J0.156633
G02 X91.768737 Y161.558055 Z0.000000 I-0.072340 J0.184137
G02 X91.724496 Y161.554161 Z0.000000 I-0.044242 J0.249362
G02 X91.682915 Y161.558004 Z0.000000 I0.000000 J0.226866
G02 X91.646443 Y161.568713 Z0.000000 I0.034454 J0.184799
G02 X91.612927 Y161.586581 Z0.000000 I0.069749 J0.171203
G02 X91.581621 Y161.612369 Z0.000000 I0.117756 J0.174850
G02 X91.556007 Y161.643760 Z0.000000 I0.142045 J0.142045
G02 X91.537964 Y161.678515 Z0.000000 I0.156633 J0.103378
G02 X91.527306 Y161.716294 Z0.000000 I0.184137 J0.072340
G02 X91.523412 Y161.760536 Z0.000000 I0.249362 J0.044242
G02 X91.527255 Y161.802116 Z0.000000 I0.226866 J-0.000000
G02 X91.537964 Y161.838588 Z0.000000 I0.184799 J-0.034454
G02 X91.555833 Y161.872105 Z0.000000 I0.171203 J-0.069749
G02 X91.581621 Y161.903411 Z0.000000 I0.174850 J-0.117756
G02 X91.612927 Y161.929199 Z0.000000 I0.149062 J-0.149062
G02 X91.646443 Y161.947067 Z0.000000 I0.103266 J-0.153335
G02 X91.682915 Y161.957776 Z0.000000 I0.070926 J-0.174090
G02 X91.724496 Y161.961619 Z0.000000 I0.041581 J-0.223023
G02 X91.768737 Y161.957725 Z0.000000 I-0.000000 J-0.253256
G02 X91.806516 Y161.947067 Z0.000000 I-0.034560 J-0.194795
G02 X91.841271 Y161.929024 Z0.000000 I-0.068623 J-0.174676
G02 X91.872662 Y161.903411 Z0.000000 I-0.110654 J-0.167658
G02 X91.898450 Y161.872105 Z0.000000 I-0.149062 J-0.149062
G02 X91.916318 Y161.838588 Z0.000000 I-0.153335 J-0.103266
G02 X91.927027 Y161.802116 Z0.000000 I-0.174090 J-0.070926
G02 X91.930871 Y161.760536 Z0.000000 I-0.223023 J-0.041581
G01 X91.930871 Y161.760536 Z0.000000
M63 P0

(End cutting path id: path3740)


(Start cutting path id: path3740)
(Change tool to Default tool)

M63 P0
G00 X92.438871 Y161.760536

M62 P0(Penetrate)
G02 X92.434976 Y161.716294 Z0.000000 I-0.253256 J-0.000000 F25.000000
G02 X92.424318 Y161.678515 Z0.000000 I-0.194795 J0.034560
G02 X92.406275 Y161.643760 Z0.000000 I-0.174676 J0.068623
G02 X92.380662 Y161.612369 Z0.000000 I-0.167658 J0.110654
G02 X92.349356 Y161.586581 Z0.000000 I-0.149062 J0.149062
G02 X92.315839 Y161.568713 Z0.000000 I-0.103266 J0.153335
G02 X92.279368 Y161.558004 Z0.000000 I-0.070926 J0.174090
G02 X92.237787 Y161.554161 Z0.000000 I-0.041581 J0.223023
G02 X92.193546 Y161.558055 Z0.000000 I-0.000000 J0.253256
G02 X92.155766 Y161.568713 Z0.000000 I0.034560 J0.194795
G02 X92.121011 Y161.586756 Z0.000000 I0.068623 J0.174676
G02 X92.089621 Y161.612369 Z0.000000 I0.110654 J0.167658
G02 X92.064007 Y161.643760 Z0.000000 I0.142045 J0.142045
G02 X92.045964 Y161.678515 Z0.000000 I0.156633 J0.103378
G02 X92.035306 Y161.716294 Z0.000000 I0.184137 J0.072340
G02 X92.031412 Y161.760536 Z0.000000 I0.249362 J0.044242
G02 X92.035255 Y161.802116 Z0.000000 I0.226866 J-0.000000
G02 X92.045964 Y161.838588 Z0.000000 I0.184799 J-0.034454
G02 X92.063833 Y161.872105 Z0.000000 I0.171203 J-0.069749
G02 X92.089621 Y161.903411 Z0.000000 I0.174850 J-0.117756
G02 X92.121011 Y161.929024 Z0.000000 I0.142045 J-0.142045
G02 X92.155766 Y161.947067 Z0.000000 I0.103378 J-0.156633
G02 X92.193546 Y161.957725 Z0.000000 I0.072340 J-0.184137
G02 X92.237787 Y161.961619 Z0.000000 I0.044242 J-0.249362
G02 X92.279368 Y161.957776 Z0.000000 I0.000000 J-0.226866
G02 X92.315839 Y161.947067 Z0.000000 I-0.034454 J-0.184799
G02 X92.349356 Y161.929199 Z0.000000 I-0.069749 J-0.171203
G02 X92.380662 Y161.903411 Z0.000000 I-0.117756 J-0.174850
G02 X92.406450 Y161.872105 Z0.000000 I-0.149062 J-0.149062
G02 X92.424318 Y161.838588 Z0.000000 I-0.153335 J-0.103266
G02 X92.435027 Y161.802116 Z0.000000 I-0.174090 J-0.070926
G02 X92.438871 Y161.760536 Z0.000000 I-0.223023 J-0.041581
G01 X92.438871 Y161.760536 Z0.000000
M63 P0

(End cutting path id: path3740)


(Start cutting path id: path3740)
(Change tool to Default tool)

M63 P0
G00 X92.952162 Y161.760536

M62 P0(Penetrate)
G02 X92.947933 Y161.716425 Z0.000000 I-0.232136 J0.000000 F25.000000
G02 X92.936287 Y161.678515 Z0.000000 I-0.182538 J0.035330
G02 X92.916799 Y161.644036 Z0.000000 I-0.166458 J0.071339
G02 X92.888662 Y161.612369 Z0.000000 I-0.168131 J0.121054
G02 X92.857356 Y161.586581 Z0.000000 I-0.149062 J0.149062
G02 X92.823839 Y161.568713 Z0.000000 I-0.103266 J0.153335
G02 X92.787368 Y161.558004 Z0.000000 I-0.070926 J0.174090
G02 X92.745787 Y161.554161 Z0.000000 I-0.041581 J0.223023
G02 X92.704170 Y161.557944 Z0.000000 I0.000000 J0.230784
G02 X92.666412 Y161.568713 Z0.000000 I0.036740 J0.200401
G02 X92.631390 Y161.586499 Z0.000000 I0.075253 J0.191554
G02 X92.597621 Y161.612369 Z0.000000 I0.129338 J0.203805
G02 X92.572008 Y161.643760 Z0.000000 I0.142045 J0.142045
G02 X92.553964 Y161.678515 Z0.000000 I0.156633 J0.103378
G02 X92.543306 Y161.716294 Z0.000000 I0.184137 J0.072340
G02 X92.539412 Y161.760536 Z0.000000 I0.249362 J0.044242
G02 X92.543255 Y161.802116 Z0.000000 I0.226866 J-0.000000
G02 X92.553964 Y161.838588 Z0.000000 I0.184799 J-0.034454
G02 X92.571833 Y161.872105 Z0.000000 I0.171203 J-0.069749
G02 X92.597621 Y161.903411 Z0.000000 I0.174850 J-0.117756
G02 X92.631390 Y161.929281 Z0.000000 I0.163107 J-0.177935
G02 X92.666412 Y161.947067 Z0.000000 I0.110276 J-0.173768
G02 X92.704170 Y161.957836 Z0.000000 I0.074498 J-0.189632
G02 X92.745787 Y161.961619 Z0.000000 I0.041617 J-0.227001
G02 X92.787368 Y161.957776 Z0.000000 I0.000000 J-0.226866
G02 X92.823839 Y161.947067 Z0.000000 I-0.034454 J-0.184799
G02 X92.857356 Y161.929199 Z0.000000 I-0.069749 J-0.171203
G02 X92.888662 Y161.903411 Z0.000000 I-0.117756 J-0.174850
G02 X92.916985 Y161.871842 Z0.000000 I-0.147040 J-0.160407
G02 X92.936287 Y161.838588 Z0.000000 I-0.144126 J-0.105888
G02 X92.947990 Y161.801984 Z0.000000 I-0.161724 J-0.071877
G02 X92.952162 Y161.760536 Z0.000000 I-0.203786 J-0.041448
G01 X92.952162 Y161.760536 Z0.000000
M63 P0

(End cutting path id: path3740)


(Start cutting path id: path3738)
(Change tool to Default tool)

M63 P0
G00 X88.048274 Y165.327119

M62 P0(Penetrate)
G02 X88.044431 Y165.285539 Z0.000000 I-0.226866 J0.000000 F25.000000
G02 X88.033722 Y165.249067 Z0.000000 I-0.184799 J0.034454
G02 X88.015854 Y165.215550 Z0.000000 I-0.171203 J0.069749
G02 X87.990066 Y165.184244 Z0.000000 I-0.174850 J0.117756
G02 X87.958760 Y165.158456 Z0.000000 I-0.149062 J0.149062
G02 X87.925243 Y165.140588 Z0.000000 I-0.103266 J0.153335
G02 X87.888772 Y165.129879 Z0.000000 I-0.070926 J0.174090
G02 X87.847191 Y165.126036 Z0.000000 I-0.041581 J0.223023
G02 X87.805574 Y165.129819 Z0.000000 I-0.000000 J0.230784
G02 X87.767816 Y165.140588 Z0.000000 I0.036740 J0.200401
G02 X87.732794 Y165.158374 Z0.000000 I0.075253 J0.191554
G02 X87.699024 Y165.184244 Z0.000000 I0.129338 J0.203805
G02 X87.673237 Y165.215550 Z0.000000 I0.149062 J0.149062
G02 X87.655368 Y165.249067 Z0.000000 I0.153335 J0.103266
G02 X87.644659 Y165.285539 Z0.000000 I0.174090 J0.070926
G02 X87.640816 Y165.327119 Z0.000000 I0.223023 J0.041581
G02 X87.644710 Y165.371361 Z0.000000 I0.253256 J-0.000000
G02 X87.655368 Y165.409140 Z0.000000 I0.194795 J-0.034560
G02 X87.673411 Y165.443895 Z0.000000 I0.174676 J-0.068623
G02 X87.699024 Y165.475286 Z0.000000 I0.167658 J-0.110654
G02 X87.732794 Y165.501156 Z0.000000 I0.163107 J-0.177935
G02 X87.767816 Y165.518942 Z0.000000 I0.110276 J-0.173768
G02 X87.805574 Y165.529711 Z0.000000 I0.074498 J-0.189632
G02 X87.847191 Y165.533494 Z0.000000 I0.041617 J-0.227001
G02 X87.888772 Y165.529651 Z0.000000 I-0.000000 J-0.226866
G02 X87.925243 Y165.518942 Z0.000000 I-0.034454 J-0.184799
G02 X87.958760 Y165.501074 Z0.000000 I-0.069749 J-0.171203
G02 X87.990066 Y165.475286 Z0.000000 I-0.117756 J-0.174850
G02 X88.015679 Y165.443895 Z0.000000 I-0.142045 J-0.142045
G02 X88.033722 Y165.409140 Z0.000000 I-0.156633 J-0.103378
G02 X88.044380 Y165.371361 Z0.000000 I-0.184137 J-0.072340
G02 X88.048274 Y165.327119 Z0.000000 I-0.249362 J-0.044242
G01 X88.048274 Y165.327119 Z0.000000
M63 P0

(End cutting path id: path3738)


(Start cutting path id: path3738)
(Change tool to Default tool)

M63 P0
G00 X88.561566 Y165.327119

M62 P0(Penetrate)
G02 X88.557723 Y165.285539 Z0.000000 I-0.226866 J0.000000 F25.000000
G02 X88.547014 Y165.249067 Z0.000000 I-0.184799 J0.034454
G02 X88.529146 Y165.215550 Z0.000000 I-0.171203 J0.069749
G02 X88.503358 Y165.184244 Z0.000000 I-0.174850 J0.117756
G02 X88.471967 Y165.158631 Z0.000000 I-0.142045 J0.142045
G02 X88.437212 Y165.140588 Z0.000000 I-0.103378 J0.156633
G02 X88.399433 Y165.129930 Z0.000000 I-0.072340 J0.184137
G02 X88.355191 Y165.126036 Z0.000000 I-0.044242 J0.249362
G02 X88.313611 Y165.129879 Z0.000000 I0.000000 J0.226866
G02 X88.277139 Y165.140588 Z0.000000 I0.034454 J0.184799
G02 X88.243622 Y165.158456 Z0.000000 I0.069749 J0.171203
G02 X88.212316 Y165.184244 Z0.000000 I0.117756 J0.174850
G02 X88.186528 Y165.215550 Z0.000000 I0.149062 J0.149062
G02 X88.168660 Y165.249067 Z0.000000 I0.153335 J0.103266
G02 X88.157951 Y165.285539 Z0.000000 I0.174090 J0.070926
G02 X88.154108 Y165.327119 Z0.000000 I0.223023 J0.041581
G02 X88.158002 Y165.371361 Z0.000000 I0.253256 J-0.000000
G02 X88.168660 Y165.409140 Z0.000000 I0.194795 J-0.034560
G02 X88.186703 Y165.443895 Z0.000000 I0.174676 J-0.068623
G02 X88.212316 Y165.475286 Z0.000000 I0.167658 J-0.110654
G02 X88.243622 Y165.501074 Z0.000000 I0.149062 J-0.149062
G02 X88.277139 Y165.518942 Z0.000000 I0.103266 J-0.153335
G02 X88.313611 Y165.529651 Z0.000000 I0.070926 J-0.174090
G02 X88.355191 Y165.533494 Z0.000000 I0.041581 J-0.223023
G02 X88.399433 Y165.529600 Z0.000000 I0.000000 J-0.253256
G02 X88.437212 Y165.518942 Z0.000000 I-0.034560 J-0.194795
G02 X88.471967 Y165.500899 Z0.000000 I-0.068623 J-0.174676
G02 X88.503358 Y165.475286 Z0.000000 I-0.110654 J-0.167658
G02 X88.528971 Y165.443895 Z0.000000 I-0.142045 J-0.142045
G02 X88.547014 Y165.409140 Z0.000000 I-0.156633 J-0.103378
G02 X88.557672 Y165.371361 Z0.000000 I-0.184137 J-0.072340
G02 X88.561566 Y165.327119 Z0.000000 I-0.249362 J-0.044242
G01 X88.561566 Y165.327119 Z0.000000
M63 P0

(End cutting path id: path3738)


(Start cutting path id: path3738)
(Change tool to Default tool)

M63 P0
G00 X89.069566 Y165.327119

M62 P0(Penetrate)
G02 X89.065723 Y165.285539 Z0.000000 I-0.226866 J0.000000 F25.000000
G02 X89.055014 Y165.249067 Z0.000000 I-0.184799 J0.034454
G02 X89.037146 Y165.215550 Z0.000000 I-0.171203 J0.069749
G02 X89.011358 Y165.184244 Z0.000000 I-0.174850 J0.117756
G02 X88.980052 Y165.158456 Z0.000000 I-0.149062 J0.149062
G02 X88.946535 Y165.140588 Z0.000000 I-0.103266 J0.153335
G02 X88.910063 Y165.129879 Z0.000000 I-0.070926 J0.174090
G02 X88.868483 Y165.126036 Z0.000000 I-0.041581 J0.223023
G02 X88.824241 Y165.129930 Z0.000000 I-0.000000 J0.253256
G02 X88.786462 Y165.140588 Z0.000000 I0.034560 J0.194795
G02 X88.751707 Y165.158631 Z0.000000 I0.068623 J0.174676
G02 X88.720316 Y165.184244 Z0.000000 I0.110654 J0.167658
G02 X88.694528 Y165.215550 Z0.000000 I0.149062 J0.149062
G02 X88.676660 Y165.249067 Z0.000000 I0.153335 J0.103266
G02 X88.665951 Y165.285539 Z0.000000 I0.174090 J0.070926
G02 X88.662108 Y165.327119 Z0.000000 I0.223023 J0.041581
G02 X88.666002 Y165.371361 Z0.000000 I0.253256 J-0.000000
G02 X88.676660 Y165.409140 Z0.000000 I0.194795 J-0.034560
G02 X88.694703 Y165.443895 Z0.000000 I0.174676 J-0.068623
G02 X88.720316 Y165.475286 Z0.000000 I0.167658 J-0.110654
G02 X88.751707 Y165.500899 Z0.000000 I0.142045 J-0.142045
G02 X88.786462 Y165.518942 Z0.000000 I0.103378 J-0.156633
G02 X88.824241 Y165.529600 Z0.000000 I0.072340 J-0.184137
G02 X88.868483 Y165.533494 Z0.000000 I0.044242 J-0.249362
G02 X88.910063 Y165.529651 Z0.000000 I-0.000000 J-0.226866
G02 X88.946535 Y165.518942 Z0.000000 I-0.034454 J-0.184799
G02 X88.980052 Y165.501074 Z0.000000 I-0.069749 J-0.171203
G02 X89.011358 Y165.475286 Z0.000000 I-0.117756 J-0.174850
G02 X89.036971 Y165.443895 Z0.000000 I-0.142045 J-0.142045
G02 X89.055014 Y165.409140 Z0.000000 I-0.156633 J-0.103378
G02 X89.065672 Y165.371361 Z0.000000 I-0.184137 J-0.072340
G02 X89.069566 Y165.327119 Z0.000000 I-0.249362 J-0.044242
G01 X89.069566 Y165.327119 Z0.000000
M63 P0

(End cutting path id: path3738)


(Start cutting path id: path3738)
(Change tool to Default tool)

M63 P0
G00 X89.582858 Y165.327119

M62 P0(Penetrate)
G02 X89.578685 Y165.285671 Z0.000000 I-0.207958 J-0.000000 F25.000000
G02 X89.566983 Y165.249067 Z0.000000 I-0.173427 J0.035273
G02 X89.547680 Y165.215814 Z0.000000 I-0.163428 J0.072635
G02 X89.519358 Y165.184244 Z0.000000 I-0.175362 J0.128838
G02 X89.488052 Y165.158456 Z0.000000 I-0.149062 J0.149062
G02 X89.454535 Y165.140588 Z0.000000 I-0.103266 J0.153335
G02 X89.418063 Y165.129879 Z0.000000 I-0.070926 J0.174090
G02 X89.376483 Y165.126036 Z0.000000 I-0.041581 J0.223023
G02 X89.334866 Y165.129819 Z0.000000 I0.000000 J0.230784
G02 X89.297108 Y165.140588 Z0.000000 I0.036740 J0.200401
G02 X89.262085 Y165.158374 Z0.000000 I0.075253 J0.191554
G02 X89.228316 Y165.184244 Z0.000000 I0.129338 J0.203805
G02 X89.202528 Y165.215550 Z0.000000 I0.149062 J0.149062
G02 X89.184660 Y165.249067 Z0.000000 I0.153335 J0.103266
G02 X89.173951 Y165.285539 Z0.000000 I0.174090 J0.070926
G02 X89.170108 Y165.327119 Z0.000000 I0.223023 J0.041581
G02 X89.174002 Y165.371361 Z0.000000 I0.253256 J-0.000000
G02 X89.184660 Y165.409140 Z0.000000 I0.194795 J-0.034560
G02 X89.202703 Y165.443895 Z0.000000 I0.174676 J-0.068623
G02 X89.228316 Y165.475286 Z0.000000 I0.167658 J-0.110654
G02 X89.262085 Y165.501156 Z0.000000 I0.163107 J-0.177935
G02 X89.297108 Y165.518942 Z0.000000 I0.110276 J-0.173768
G02 X89.334866 Y165.529711 Z0.000000 I0.074498 J-0.189632
G02 X89.376483 Y165.533494 Z0.000000 I0.041617 J-0.227001
G02 X89.418063 Y165.529651 Z0.000000 I-0.000000 J-0.226866
G02 X89.454535 Y165.518942 Z0.000000 I-0.034454 J-0.184799
G02 X89.488052 Y165.501074 Z0.000000 I-0.069749 J-0.171203
G02 X89.519358 Y165.475286 Z0.000000 I-0.117756 J-0.174850
G02 X89.547494 Y165.443619 Z0.000000 I-0.139994 J-0.152721
G02 X89.566983 Y165.409140 Z0.000000 I-0.146970 J-0.105818
G02 X89.578628 Y165.371230 Z0.000000 I-0.170893 J-0.073240
G02 X89.582858 Y165.327119 Z0.000000 I-0.227907 J-0.044111
G01 X89.582858 Y165.327119 Z0.000000
M63 P0

(End cutting path id: path3738)


(Start cutting path id: path3738)
(Change tool to Default tool)

M63 P0
G00 X87.540274 Y164.819119

M62 P0(Penetrate)
G02 X87.536431 Y164.777539 Z0.000000 I-0.226866 J0.000000 F25.000000
G02 X87.525722 Y164.741067 Z0.000000 I-0.184799 J0.034454
G02 X87.507854 Y164.707550 Z0.000000 I-0.171203 J0.069749
G02 X87.482066 Y164.676244 Z0.000000 I-0.174850 J0.117756
G02 X87.450760 Y164.650456 Z0.000000 I-0.149062 J0.149062
G02 X87.417243 Y164.632588 Z0.000000 I-0.103266 J0.153335
G02 X87.380772 Y164.621879 Z0.000000 I-0.070926 J0.174090
G02 X87.339191 Y164.618036 Z0.000000 I-0.041581 J0.223023
G02 X87.294949 Y164.621930 Z0.000000 I-0.000000 J0.253256
G02 X87.257170 Y164.632588 Z0.000000 I0.034560 J0.194795
G02 X87.222415 Y164.650631 Z0.000000 I0.068623 J0.174676
G02 X87.191024 Y164.676244 Z0.000000 I0.110654 J0.167658
G02 X87.165237 Y164.707550 Z0.000000 I0.149062 J0.149062
G02 X87.147368 Y164.741067 Z0.000000 I0.153335 J0.103266
G02 X87.136659 Y164.777539 Z0.000000 I0.174090 J0.070926
G02 X87.132816 Y164.819119 Z0.000000 I0.223023 J0.041581
G02 X87.136659 Y164.860700 Z0.000000 I0.226866 J-0.000000
G02 X87.147368 Y164.897171 Z0.000000 I0.184799 J-0.034454
G02 X87.165237 Y164.930688 Z0.000000 I0.171203 J-0.069749
G02 X87.191024 Y164.961994 Z0.000000 I0.174850 J-0.117756
G02 X87.222691 Y164.990131 Z0.000000 I0.152721 J-0.139994
G02 X87.257170 Y165.009619 Z0.000000 I0.105818 J-0.146970
G02 X87.295080 Y165.021265 Z0.000000 I0.073240 J-0.170893
G02 X87.339191 Y165.025494 Z0.000000 I0.044111 J-0.227907
G02 X87.380639 Y165.021322 Z0.000000 I0.000000 J-0.207958
G02 X87.417243 Y165.009619 Z0.000000 I-0.035273 J-0.173427
G02 X87.450497 Y164.990317 Z0.000000 I-0.072635 J-0.163428
G02 X87.482066 Y164.961994 Z0.000000 I-0.128838 J-0.175362
G02 X87.507854 Y164.930688 Z0.000000 I-0.149062 J-0.149062
G02 X87.525722 Y164.897171 Z0.000000 I-0.153335 J-0.103266
G02 X87.536431 Y164.860700 Z0.000000 I-0.174090 J-0.070926
G02 X87.540274 Y164.819119 Z0.000000 I-0.223023 J-0.041581
G01 X87.540274 Y164.819119 Z0.000000
M63 P0

(End cutting path id: path3738)


(Start cutting path id: path3738)
(Change tool to Default tool)

M63 P0
G00 X88.048274 Y164.819119

M62 P0(Penetrate)
G02 X88.044431 Y164.777539 Z0.000000 I-0.226866 J0.000000 F25.000000
G02 X88.033722 Y164.741067 Z0.000000 I-0.184799 J0.034454
G02 X88.015854 Y164.707550 Z0.000000 I-0.171203 J0.069749
G02 X87.990066 Y164.676244 Z0.000000 I-0.174850 J0.117756
G02 X87.958760 Y164.650456 Z0.000000 I-0.149062 J0.149062
G02 X87.925243 Y164.632588 Z0.000000 I-0.103266 J0.153335
G02 X87.888772 Y164.621879 Z0.000000 I-0.070926 J0.174090
G02 X87.847191 Y164.618036 Z0.000000 I-0.041581 J0.223023
G02 X87.805574 Y164.621819 Z0.000000 I-0.000000 J0.230784
G02 X87.767816 Y164.632588 Z0.000000 I0.036740 J0.200401
G02 X87.732794 Y164.650374 Z0.000000 I0.075253 J0.191554
G02 X87.699024 Y164.676244 Z0.000000 I0.129338 J0.203805
G02 X87.673237 Y164.707550 Z0.000000 I0.149062 J0.149062
G02 X87.655368 Y164.741067 Z0.000000 I0.153335 J0.103266
G02 X87.644659 Y164.777539 Z0.000000 I0.174090 J0.070926
G02 X87.640816 Y164.819119 Z0.000000 I0.223023 J0.041581
G02 X87.644659 Y164.860700 Z0.000000 I0.226866 J-0.000000
G02 X87.655368 Y164.897171 Z0.000000 I0.184799 J-0.034454
G02 X87.673237 Y164.930688 Z0.000000 I0.171203 J-0.069749
G02 X87.699024 Y164.961994 Z0.000000 I0.174850 J-0.117756
G02 X87.733047 Y164.990388 Z0.000000 I0.174458 J-0.174458
G02 X87.767816 Y165.009619 Z0.000000 I0.112905 J-0.163085
G02 X87.805701 Y165.021386 Z0.000000 I0.075447 J-0.176042
G02 X87.847191 Y165.025494 Z0.000000 I0.041490 J-0.207450
G02 X87.888639 Y165.021322 Z0.000000 I0.000000 J-0.207958
G02 X87.925243 Y165.009619 Z0.000000 I-0.035273 J-0.173427
G02 X87.958497 Y164.990317 Z0.000000 I-0.072635 J-0.163428
G02 X87.990066 Y164.961994 Z0.000000 I-0.128838 J-0.175362
G02 X88.015854 Y164.930688 Z0.000000 I-0.149062 J-0.149062
G02 X88.033722 Y164.897171 Z0.000000 I-0.153335 J-0.103266
G02 X88.044431 Y164.860700 Z0.000000 I-0.174090 J-0.070926
G02 X88.048274 Y164.819119 Z0.000000 I-0.223023 J-0.041581
G01 X88.048274 Y164.819119 Z0.000000
M63 P0

(End cutting path id: path3738)


(Start cutting path id: path3738)
(Change tool to Default tool)

M63 P0
G00 X88.561566 Y164.819119

M62 P0(Penetrate)
G02 X88.557723 Y164.777539 Z0.000000 I-0.226866 J0.000000 F25.000000
G02 X88.547014 Y164.741067 Z0.000000 I-0.184799 J0.034454
G02 X88.529146 Y164.707550 Z0.000000 I-0.171203 J0.069749
G02 X88.503358 Y164.676244 Z0.000000 I-0.174850 J0.117756
G02 X88.471967 Y164.650631 Z0.000000 I-0.142045 J0.142045
G02 X88.437212 Y164.632588 Z0.000000 I-0.103378 J0.156633
G02 X88.399433 Y164.621930 Z0.000000 I-0.072340 J0.184137
G02 X88.355191 Y164.618036 Z0.000000 I-0.044242 J0.249362
G02 X88.313611 Y164.621879 Z0.000000 I0.000000 J0.226866
G02 X88.277139 Y164.632588 Z0.000000 I0.034454 J0.184799
G02 X88.243622 Y164.650456 Z0.000000 I0.069749 J0.171203
G02 X88.212316 Y164.676244 Z0.000000 I0.117756 J0.174850
G02 X88.186528 Y164.707550 Z0.000000 I0.149062 J0.149062
G02 X88.168660 Y164.741067 Z0.000000 I0.153335 J0.103266
G02 X88.157951 Y164.777539 Z0.000000 I0.174090 J0.070926
G02 X88.154108 Y164.819119 Z0.000000 I0.223023 J0.041581
G02 X88.157951 Y164.860700 Z0.000000 I0.226866 J-0.000000
G02 X88.168660 Y164.897171 Z0.000000 I0.184799 J-0.034454
G02 X88.186528 Y164.930688 Z0.000000 I0.171203 J-0.069749
G02 X88.212316 Y164.961994 Z0.000000 I0.174850 J-0.117756
G02 X88.243886 Y164.990317 Z0.000000 I0.160407 J-0.147040
G02 X88.277139 Y165.009619 Z0.000000 I0.105888 J-0.144126
G02 X88.313743 Y165.021322 Z0.000000 I0.071877 J-0.161724
G02 X88.355191 Y165.025494 Z0.000000 I0.041448 J-0.203786
G02 X88.399302 Y165.021265 Z0.000000 I0.000000 J-0.232136
G02 X88.437212 Y165.009619 Z0.000000 I-0.035330 J-0.182538
G02 X88.471691 Y164.990131 Z0.000000 I-0.071339 J-0.166458
G02 X88.503358 Y164.961994 Z0.000000 I-0.121054 J-0.168131
G02 X88.529146 Y164.930688 Z0.000000 I-0.149062 J-0.149062
G02 X88.547014 Y164.897171 Z0.000000 I-0.153335 J-0.103266
G02 X88.557723 Y164.860700 Z0.000000 I-0.174090 J-0.070926
G02 X88.561566 Y164.819119 Z0.000000 I-0.223023 J-0.041581
G01 X88.561566 Y164.819119 Z0.000000
M63 P0

(End cutting path id: path3738)


(Start cutting path id: path3738)
(Change tool to Default tool)

M63 P0
G00 X89.069566 Y164.819119

M62 P0(Penetrate)
G02 X89.065723 Y164.777539 Z0.000000 I-0.226866 J0.000000 F25.000000
G02 X89.055014 Y164.741067 Z0.000000 I-0.184799 J0.034454
G02 X89.037146 Y164.707550 Z0.000000 I-0.171203 J0.069749
G02 X89.011358 Y164.676244 Z0.000000 I-0.174850 J0.117756
G02 X88.980052 Y164.650456 Z0.000000 I-0.149062 J0.149062
G02 X88.946535 Y164.632588 Z0.000000 I-0.103266 J0.153335
G02 X88.910063 Y164.621879 Z0.000000 I-0.070926 J0.174090
G02 X88.868483 Y164.618036 Z0.000000 I-0.041581 J0.223023
G02 X88.824241 Y164.621930 Z0.000000 I-0.000000 J0.253256
G02 X88.786462 Y164.632588 Z0.000000 I0.034560 J0.194795
G02 X88.751707 Y164.650631 Z0.000000 I0.068623 J0.174676
G02 X88.720316 Y164.676244 Z0.000000 I0.110654 J0.167658
G02 X88.694528 Y164.707550 Z0.000000 I0.149062 J0.149062
G02 X88.676660 Y164.741067 Z0.000000 I0.153335 J0.103266
G02 X88.665951 Y164.777539 Z0.000000 I0.174090 J0.070926
G02 X88.662108 Y164.819119 Z0.000000 I0.223023 J0.041581
G02 X88.665951 Y164.860700 Z0.000000 I0.226866 J-0.000000
G02 X88.676660 Y164.897171 Z0.000000 I0.184799 J-0.034454
G02 X88.694528 Y164.930688 Z0.000000 I0.171203 J-0.069749
G02 X88.720316 Y164.961994 Z0.000000 I0.174850 J-0.117756
G02 X88.751983 Y164.990131 Z0.000000 I0.152721 J-0.139994
G02 X88.786462 Y165.009619 Z0.000000 I0.105818 J-0.146970
G02 X88.824372 Y165.021265 Z0.000000 I0.073240 J-0.170893
G02 X88.868483 Y165.025494 Z0.000000 I0.044111 J-0.227907
G02 X88.909931 Y165.021322 Z0.000000 I0.000000 J-0.207958
G02 X88.946535 Y165.009619 Z0.000000 I-0.035273 J-0.173427
G02 X88.979788 Y164.990317 Z0.000000 I-0.072635 J-0.163428
G02 X89.011358 Y164.961994 Z0.000000 I-0.128838 J-0.175362
G02 X89.037146 Y164.930688 Z0.000000 I-0.149062 J-0.149062
G02 X89.055014 Y164.897171 Z0.000000 I-0.153335 J-0.103266
G02 X89.065723 Y164.860700 Z0.000000 I-0.174090 J-0.070926
G02 X89.069566 Y164.819119 Z0.000000 I-0.223023 J-0.041581
G01 X89.069566 Y164.819119 Z0.000000
M63 P0

(End cutting path id: path3738)


(Start cutting path id: path3738)
(Change tool to Default tool)

M63 P0
G00 X89.582858 Y164.819119

M62 P0(Penetrate)
G02 X89.578685 Y164.777671 Z0.000000 I-0.207958 J-0.000000 F25.000000
G02 X89.566983 Y164.741067 Z0.000000 I-0.173427 J0.035273
G02 X89.547680 Y164.707814 Z0.000000 I-0.163428 J0.072635
G02 X89.519358 Y164.676244 Z0.000000 I-0.175362 J0.128838
G02 X89.488052 Y164.650456 Z0.000000 I-0.149062 J0.149062
G02 X89.454535 Y164.632588 Z0.000000 I-0.103266 J0.153335
G02 X89.418063 Y164.621879 Z0.000000 I-0.070926 J0.174090
G02 X89.376483 Y164.618036 Z0.000000 I-0.041581 J0.223023
G02 X89.334866 Y164.621819 Z0.000000 I0.000000 J0.230784
G02 X89.297108 Y164.632588 Z0.000000 I0.036740 J0.200401
G02 X89.262085 Y164.650374 Z0.000000 I0.075253 J0.191554
G02 X89.228316 Y164.676244 Z0.000000 I0.129338 J0.203805
G02 X89.202528 Y164.707550 Z0.000000 I0.149062 J0.149062
G02 X89.184660 Y164.741067 Z0.000000 I0.153335 J0.103266
G02 X89.173951 Y164.777539 Z0.000000 I0.174090 J0.070926
G02 X89.170108 Y164.819119 Z0.000000 I0.223023 J0.041581
G02 X89.173951 Y164.860700 Z0.000000 I0.226866 J-0.000000
G02 X89.184660 Y164.897171 Z0.000000 I0.184799 J-0.034454
G02 X89.202528 Y164.930688 Z0.000000 I0.171203 J-0.069749
G02 X89.228316 Y164.961994 Z0.000000 I0.174850 J-0.117756
G02 X89.262338 Y164.990388 Z0.000000 I0.174458 J-0.174458
G02 X89.297108 Y165.009619 Z0.000000 I0.112905 J-0.163085
G02 X89.334993 Y165.021386 Z0.000000 I0.075447 J-0.176042
G02 X89.376483 Y165.025494 Z0.000000 I0.041490 J-0.207450
G02 X89.417931 Y165.021322 Z0.000000 I0.000000 J-0.207958
G02 X89.454535 Y165.009619 Z0.000000 I-0.035273 J-0.173427
G02 X89.487788 Y164.990317 Z0.000000 I-0.072635 J-0.163428
G02 X89.519358 Y164.961994 Z0.000000 I-0.128838 J-0.175362
G02 X89.547680 Y164.930425 Z0.000000 I-0.147040 J-0.160407
G02 X89.566983 Y164.897171 Z0.000000 I-0.144126 J-0.105888
G02 X89.578685 Y164.860567 Z0.000000 I-0.161724 J-0.071877
G02 X89.582858 Y164.819119 Z0.000000 I-0.203786 J-0.041448
G01 X89.582858 Y164.819119 Z0.000000
M63 P0

(End cutting path id: path3738)


(Start cutting path id: path3738)
(Change tool to Default tool)

M63 P0
G00 X90.090858 Y164.819119

M62 P0(Penetrate)
G02 X90.087015 Y164.777539 Z0.000000 I-0.226866 J0.000000 F25.000000
G02 X90.076306 Y164.741067 Z0.000000 I-0.184799 J0.034454
G02 X90.058437 Y164.707550 Z0.000000 I-0.171203 J0.069749
G02 X90.032649 Y164.676244 Z0.000000 I-0.174850 J0.117756
G02 X90.001259 Y164.650631 Z0.000000 I-0.142045 J0.142045
G02 X89.966504 Y164.632588 Z0.000000 I-0.103378 J0.156633
G02 X89.928724 Y164.621930 Z0.000000 I-0.072340 J0.184137
G02 X89.884483 Y164.618036 Z0.000000 I-0.044242 J0.249362
G02 X89.842902 Y164.621879 Z0.000000 I0.000000 J0.226866
G02 X89.806431 Y164.632588 Z0.000000 I0.034454 J0.184799
G02 X89.772914 Y164.650456 Z0.000000 I0.069749 J0.171203
G02 X89.741608 Y164.676244 Z0.000000 I0.117756 J0.174850
G02 X89.715820 Y164.707550 Z0.000000 I0.149062 J0.149062
G02 X89.697952 Y164.741067 Z0.000000 I0.153335 J0.103266
G02 X89.687243 Y164.777539 Z0.000000 I0.174090 J0.070926
G02 X89.683399 Y164.819119 Z0.000000 I0.223023 J0.041581
G02 X89.687243 Y164.860700 Z0.000000 I0.226866 J-0.000000
G02 X89.697952 Y164.897171 Z0.000000 I0.184799 J-0.034454
G02 X89.715820 Y164.930688 Z0.000000 I0.171203 J-0.069749
G02 X89.741608 Y164.961994 Z0.000000 I0.174850 J-0.117756
G02 X89.773177 Y164.990317 Z0.000000 I0.160407 J-0.147040
G02 X89.806431 Y165.009619 Z0.000000 I0.105888 J-0.144126
G02 X89.843035 Y165.021322 Z0.000000 I0.071877 J-0.161724
G02 X89.884483 Y165.025494 Z0.000000 I0.041448 J-0.203786
G02 X89.928594 Y165.021265 Z0.000000 I-0.000000 J-0.232136
G02 X89.966504 Y165.009619 Z0.000000 I-0.035330 J-0.182538
G02 X90.000983 Y164.990131 Z0.000000 I-0.071339 J-0.166458
G02 X90.032649 Y164.961994 Z0.000000 I-0.121054 J-0.168131
G02 X90.058437 Y164.930688 Z0.000000 I-0.149062 J-0.149062
G02 X90.076306 Y164.897171 Z0.000000 I-0.153335 J-0.103266
G02 X90.087015 Y164.860700 Z0.000000 I-0.174090 J-0.070926
G02 X90.090858 Y164.819119 Z0.000000 I-0.223023 J-0.041581
G01 X90.090858 Y164.819119 Z0.000000
M63 P0

(End cutting path id: path3738)


(Start cutting path id: path3738)
(Change tool to Default tool)

M63 P0
G00 X87.540274 Y164.311119

M62 P0(Penetrate)
G02 X87.536380 Y164.266878 Z0.000000 I-0.253256 J0.000000 F25.000000
G02 X87.525722 Y164.229098 Z0.000000 I-0.194795 J0.034560
G02 X87.507679 Y164.194343 Z0.000000 I-0.174676 J0.068623
G02 X87.482066 Y164.162953 Z0.000000 I-0.167658 J0.110654
G02 X87.450760 Y164.137165 Z0.000000 I-0.149062 J0.149062
G02 X87.417243 Y164.119296 Z0.000000 I-0.103266 J0.153335
G02 X87.380772 Y164.108587 Z0.000000 I-0.070926 J0.174090
G02 X87.339191 Y164.104744 Z0.000000 I-0.041581 J0.223023
G02 X87.294949 Y164.108639 Z0.000000 I-0.000000 J0.253256
G02 X87.257170 Y164.119296 Z0.000000 I0.034560 J0.194795
G02 X87.222415 Y164.137340 Z0.000000 I0.068623 J0.174676
G02 X87.191024 Y164.162953 Z0.000000 I0.110654 J0.167658
G02 X87.165411 Y164.194343 Z0.000000 I0.142045 J0.142045
G02 X87.147368 Y164.229098 Z0.000000 I0.156633 J0.103378
G02 X87.136710 Y164.266878 Z0.000000 I0.184137 J0.072340
G02 X87.132816 Y164.311119 Z0.000000 I0.249362 J0.044242
G02 X87.136659 Y164.352700 Z0.000000 I0.226866 J-0.000000
G02 X87.147368 Y164.389171 Z0.000000 I0.184799 J-0.034454
G02 X87.165237 Y164.422688 Z0.000000 I0.171203 J-0.069749
G02 X87.191024 Y164.453994 Z0.000000 I0.174850 J-0.117756
G02 X87.222415 Y164.479607 Z0.000000 I0.142045 J-0.142045
G02 X87.257170 Y164.497651 Z0.000000 I0.103378 J-0.156633
G02 X87.294949 Y164.508308 Z0.000000 I0.072340 J-0.184137
G02 X87.339191 Y164.512203 Z0.000000 I0.044242 J-0.249362
G02 X87.380772 Y164.508360 Z0.000000 I-0.000000 J-0.226866
G02 X87.417243 Y164.497651 Z0.000000 I-0.034454 J-0.184799
G02 X87.450760 Y164.479782 Z0.000000 I-0.069749 J-0.171203
G02 X87.482066 Y164.453994 Z0.000000 I-0.117756 J-0.174850
G02 X87.507854 Y164.422688 Z0.000000 I-0.149062 J-0.149062
G02 X87.525722 Y164.389171 Z0.000000 I-0.153335 J-0.103266
G02 X87.536431 Y164.352700 Z0.000000 I-0.174090 J-0.070926
G02 X87.540274 Y164.311119 Z0.000000 I-0.223023 J-0.041581
G01 X87.540274 Y164.311119 Z0.000000
M63 P0

(End cutting path id: path3738)


(Start cutting path id: path3738)
(Change tool to Default tool)

M63 P0
G00 X88.048274 Y164.311119

M62 P0(Penetrate)
G02 X88.044380 Y164.266878 Z0.000000 I-0.253256 J0.000000 F25.000000
G02 X88.033722 Y164.229098 Z0.000000 I-0.194795 J0.034560
G02 X88.015679 Y164.194343 Z0.000000 I-0.174676 J0.068623
G02 X87.990066 Y164.162953 Z0.000000 I-0.167658 J0.110654
G02 X87.958760 Y164.137165 Z0.000000 I-0.149062 J0.149062
G02 X87.925243 Y164.119296 Z0.000000 I-0.103266 J0.153335
G02 X87.888772 Y164.108587 Z0.000000 I-0.070926 J0.174090
G02 X87.847191 Y164.104744 Z0.000000 I-0.041581 J0.223023
G02 X87.805574 Y164.108528 Z0.000000 I0.000000 J0.230784
G02 X87.767816 Y164.119296 Z0.000000 I0.036740 J0.200401
G02 X87.732794 Y164.137083 Z0.000000 I0.075253 J0.191554
G02 X87.699024 Y164.162953 Z0.000000 I0.129338 J0.203805
G02 X87.673411 Y164.194343 Z0.000000 I0.142045 J0.142045
G02 X87.655368 Y164.229098 Z0.000000 I0.156633 J0.103378
G02 X87.644710 Y164.266878 Z0.000000 I0.184137 J0.072340
G02 X87.640816 Y164.311119 Z0.000000 I0.249362 J0.044242
G02 X87.644659 Y164.352700 Z0.000000 I0.226866 J-0.000000
G02 X87.655368 Y164.389171 Z0.000000 I0.184799 J-0.034454
G02 X87.673237 Y164.422688 Z0.000000 I0.171203 J-0.069749
G02 X87.699024 Y164.453994 Z0.000000 I0.174850 J-0.117756
G02 X87.732794 Y164.479864 Z0.000000 I0.163107 J-0.177935
G02 X87.767816 Y164.497651 Z0.000000 I0.110276 J-0.173768
G02 X87.805574 Y164.508419 Z0.000000 I0.074498 J-0.189632
G02 X87.847191 Y164.512203 Z0.000000 I0.041617 J-0.227001
G02 X87.888772 Y164.508360 Z0.000000 I-0.000000 J-0.226866
G02 X87.925243 Y164.497651 Z0.000000 I-0.034454 J-0.184799
G02 X87.958760 Y164.479782 Z0.000000 I-0.069749 J-0.171203
G02 X87.990066 Y164.453994 Z0.000000 I-0.117756 J-0.174850
G02 X88.015854 Y164.422688 Z0.000000 I-0.149062 J-0.149062
G02 X88.033722 Y164.389171 Z0.000000 I-0.153335 J-0.103266
G02 X88.044431 Y164.352700 Z0.000000 I-0.174090 J-0.070926
G02 X88.048274 Y164.311119 Z0.000000 I-0.223023 J-0.041581
G01 X88.048274 Y164.311119 Z0.000000
M63 P0

(End cutting path id: path3738)


(Start cutting path id: path3738)
(Change tool to Default tool)

M63 P0
G00 X89.582858 Y164.311119

M62 P0(Penetrate)
G02 X89.578628 Y164.267008 Z0.000000 I-0.232136 J0.000000 F25.000000
G02 X89.566983 Y164.229098 Z0.000000 I-0.182538 J0.035330
G02 X89.547494 Y164.194619 Z0.000000 I-0.166458 J0.071339
G02 X89.519358 Y164.162953 Z0.000000 I-0.168131 J0.121054
G02 X89.488052 Y164.137165 Z0.000000 I-0.149062 J0.149062
G02 X89.454535 Y164.119296 Z0.000000 I-0.103266 J0.153335
G02 X89.418063 Y164.108587 Z0.000000 I-0.070926 J0.174090
G02 X89.376483 Y164.104744 Z0.000000 I-0.041581 J0.223023
G02 X89.334866 Y164.108528 Z0.000000 I0.000000 J0.230784
G02 X89.297108 Y164.119296 Z0.000000 I0.036740 J0.200401
