%
(Header)
(Generated by gcodetools from Inkscape.)
(Using default header. To add your own header create file "header" in the output dir.)
M3
(Header end.)
G21 (All units in mm)

(Start cutting path id: path3758)
(Change tool to Default tool)

G00 Z5.000000
G00 X99.667121 Y165.625219

G01 Z-0.125000 F100.0(Penetrate)
G02 X99.646667 Y165.520803 Z-0.125000 I-0.276749 J0.000000 F400.000000
G02 X99.589510 Y165.434719 Z-0.125000 I-0.241719 J0.098478
G02 X99.503426 Y165.377562 Z-0.125000 I-0.184561 J0.184561
G02 X99.399010 Y165.357108 Z-0.125000 I-0.104417 J0.256295
G02 X99.293866 Y165.377021 Z-0.125000 I0.000000 J0.287550
G02 X99.201454 Y165.434719 Z-0.125000 I0.108977 J0.277396
G02 X99.144297 Y165.520803 Z-0.125000 I0.184561 J0.184561
G02 X99.123843 Y165.625219 Z-0.125000 I0.256295 J0.104417
G02 X99.144906 Y165.736439 Z-0.125000 I0.304168 J0.000000
G02 X99.201454 Y165.822775 Z-0.125000 I0.235338 J-0.092454
G02 X99.293866 Y165.880474 Z-0.125000 I0.201389 J-0.219697
G02 X99.399010 Y165.900386 Z-0.125000 I0.105143 J-0.267637
G02 X99.503426 Y165.879932 Z-0.125000 I-0.000000 J-0.276749
G02 X99.589510 Y165.822775 Z-0.125000 I-0.098478 J-0.241719
G02 X99.646058 Y165.736439 Z-0.125000 I-0.178790 J-0.178790
G02 X99.667121 Y165.625219 Z-0.125000 I-0.283105 J-0.111220
G01 X99.667121 Y165.625219 Z-0.125000
G00 Z5.000000

(End cutting path id: path3758)


(Start cutting path id: path3758)
(Change tool to Default tool)

G00 Z5.000000
G00 X100.351510 Y165.625219

G01 Z-0.125000 F100.0(Penetrate)
G02 X100.331056 Y165.520803 Z-0.125000 I-0.276749 J0.000000 F400.000000
G02 X100.273898 Y165.434719 Z-0.125000 I-0.241719 J0.098478
G02 X100.187563 Y165.378171 Z-0.125000 I-0.178790 J0.178790
G02 X100.076343 Y165.357108 Z-0.125000 I-0.111220 J0.283105
G02 X99.971926 Y165.377562 Z-0.125000 I0.000000 J0.276749
G02 X99.885843 Y165.434719 Z-0.125000 I0.098478 J0.241719
G02 X99.828686 Y165.520803 Z-0.125000 I0.184561 J0.184561
G02 X99.808232 Y165.625219 Z-0.125000 I0.256295 J0.104417
G02 X99.829295 Y165.736439 Z-0.125000 I0.304168 J0.000000
G02 X99.885843 Y165.822775 Z-0.125000 I0.235338 J-0.092454
G02 X99.971926 Y165.879932 Z-0.125000 I0.184561 J-0.184561
G02 X100.076343 Y165.900386 Z-0.125000 I0.104417 J-0.256295
G02 X100.187563 Y165.879323 Z-0.125000 I0.000000 J-0.304168
G02 X100.273898 Y165.822775 Z-0.125000 I-0.092454 J-0.235338
G02 X100.330446 Y165.736439 Z-0.125000 I-0.178790 J-0.178790
G02 X100.351510 Y165.625219 Z-0.125000 I-0.283105 J-0.111220
G01 X100.351510 Y165.625219 Z-0.125000
G00 Z5.000000

(End cutting path id: path3758)


(Start cutting path id: path3758)
(Change tool to Default tool)

G00 Z5.000000
G00 X101.028843 Y165.625219

G01 Z-0.125000 F100.0(Penetrate)
G02 X101.008389 Y165.520803 Z-0.125000 I-0.276749 J0.000000 F400.000000
G02 X100.951232 Y165.434719 Z-0.125000 I-0.241719 J0.098478
G02 X100.865148 Y165.377562 Z-0.125000 I-0.184561 J0.184561
G02 X100.760732 Y165.357108 Z-0.125000 I-0.104417 J0.256295
G02 X100.649512 Y165.378171 Z-0.125000 I0.000000 J0.304168
G02 X100.563176 Y165.434719 Z-0.125000 I0.092454 J0.235338
G02 X100.506019 Y165.520803 Z-0.125000 I0.184561 J0.184561
G02 X100.485565 Y165.625219 Z-0.125000 I0.256295 J0.104417
G02 X100.506628 Y165.736439 Z-0.125000 I0.304168 J0.000000
G02 X100.563176 Y165.822775 Z-0.125000 I0.235338 J-0.092454
G02 X100.649512 Y165.879323 Z-0.125000 I0.178790 J-0.178790
G02 X100.760732 Y165.900386 Z-0.125000 I0.111220 J-0.283105
G02 X100.865148 Y165.879932 Z-0.125000 I-0.000000 J-0.276749
G02 X100.951232 Y165.822775 Z-0.125000 I-0.098478 J-0.241719
G02 X101.007780 Y165.736439 Z-0.125000 I-0.178790 J-0.178790
G02 X101.028843 Y165.625219 Z-0.125000 I-0.283105 J-0.111220
G01 X101.028843 Y165.625219 Z-0.125000
G00 Z5.000000

(End cutting path id: path3758)


(Start cutting path id: path3758)
(Change tool to Default tool)

G00 Z5.000000
G00 X101.713232 Y165.625219

G01 Z-0.125000 F100.0(Penetrate)
G02 X101.707669 Y165.569955 Z-0.125000 I-0.277277 J-0.000000 F400.000000
G02 X101.692065 Y165.521150 Z-0.125000 I-0.231236 J0.047031
G02 X101.666329 Y165.476812 Z-0.125000 I-0.217904 J0.096846
G02 X101.628565 Y165.434719 Z-0.125000 I-0.233817 J0.171784
G02 X101.542482 Y165.377562 Z-0.125000 I-0.184561 J0.184561
G02 X101.438065 Y165.357108 Z-0.125000 I-0.104417 J0.256295
G02 X101.332922 Y165.377021 Z-0.125000 I0.000000 J0.287550
G02 X101.240510 Y165.434719 Z-0.125000 I0.108977 J0.277396
G02 X101.183352 Y165.520803 Z-0.125000 I0.184561 J0.184561
G02 X101.162899 Y165.625219 Z-0.125000 I0.256295 J0.104417
G02 X101.183962 Y165.736439 Z-0.125000 I0.304168 J0.000000
G02 X101.240510 Y165.822775 Z-0.125000 I0.235338 J-0.092454
G02 X101.332922 Y165.880474 Z-0.125000 I0.201389 J-0.219697
G02 X101.438065 Y165.900386 Z-0.125000 I0.105143 J-0.267637
G02 X101.542482 Y165.879932 Z-0.125000 I-0.000000 J-0.276749
G02 X101.628565 Y165.822775 Z-0.125000 I-0.098478 J-0.241719
G02 X101.666081 Y165.780553 Z-0.125000 I-0.186659 J-0.203628
G02 X101.692065 Y165.734580 Z-0.125000 I-0.195960 J-0.141091
G02 X101.707592 Y165.684034 Z-0.125000 I-0.227857 J-0.097653
G02 X101.713232 Y165.625219 Z-0.125000 I-0.303876 J-0.058815
G01 X101.713232 Y165.625219 Z-0.125000
G00 Z5.000000

(End cutting path id: path3758)


(Start cutting path id: path3758)
(Change tool to Default tool)

G00 Z5.000000
G00 X98.989787 Y164.947886

G01 Z-0.125000 F100.0(Penetrate)
G02 X98.969875 Y164.842743 Z-0.125000 I-0.287550 J-0.000000 F400.000000
G02 X98.912176 Y164.750330 Z-0.125000 I-0.277396 J0.108977
G02 X98.825841 Y164.693783 Z-0.125000 I-0.178790 J0.178790
G02 X98.714621 Y164.672719 Z-0.125000 I-0.111220 J0.283105
G02 X98.610204 Y164.693173 Z-0.125000 I0.000000 J0.276749
G02 X98.524121 Y164.750330 Z-0.125000 I0.098478 J0.241719
G02 X98.466422 Y164.842743 Z-0.125000 I0.219697 J0.201389
G02 X98.446510 Y164.947886 Z-0.125000 I0.267637 J0.105143
G02 X98.466963 Y165.052303 Z-0.125000 I0.276749 J0.000000
G02 X98.524121 Y165.138386 Z-0.125000 I0.241719 J-0.098478
G02 X98.566213 Y165.176149 Z-0.125000 I0.213876 J-0.196053
G02 X98.610551 Y165.201886 Z-0.125000 I0.141184 J-0.192168
G02 X98.659357 Y165.217490 Z-0.125000 I0.095837 J-0.215632
G02 X98.714621 Y165.223053 Z-0.125000 I0.055264 J-0.271714
G02 X98.773435 Y165.217413 Z-0.125000 I-0.000000 J-0.309515
G02 X98.823982 Y165.201886 Z-0.125000 I-0.047107 J-0.243384
G02 X98.869954 Y165.175901 Z-0.125000 I-0.095119 J-0.221944
G02 X98.912176 Y165.138386 Z-0.125000 I-0.161406 J-0.224174
G02 X98.969334 Y165.052303 Z-0.125000 I-0.184561 J-0.184561
G02 X98.989787 Y164.947886 Z-0.125000 I-0.256295 J-0.104417
G01 X98.989787 Y164.947886 Z-0.125000
G00 Z5.000000

(End cutting path id: path3758)


(Start cutting path id: path3758)
(Change tool to Default tool)

G00 Z5.000000
G00 X99.667121 Y164.947886

G01 Z-0.125000 F100.0(Penetrate)
G02 X99.647208 Y164.842743 Z-0.125000 I-0.287550 J-0.000000 F400.000000
G02 X99.589510 Y164.750330 Z-0.125000 I-0.277396 J0.108977
G02 X99.503426 Y164.693173 Z-0.125000 I-0.184561 J0.184561
G02 X99.399010 Y164.672719 Z-0.125000 I-0.104417 J0.256295
G02 X99.293866 Y164.692632 Z-0.125000 I0.000000 J0.287550
G02 X99.201454 Y164.750330 Z-0.125000 I0.108977 J0.277396
G02 X99.143755 Y164.842743 Z-0.125000 I0.219697 J0.201389
G02 X99.123843 Y164.947886 Z-0.125000 I0.267637 J0.105143
G02 X99.144297 Y165.052303 Z-0.125000 I0.276749 J0.000000
G02 X99.201454 Y165.138386 Z-0.125000 I0.241719 J-0.098478
G02 X99.294967 Y165.201697 Z-0.125000 I0.211130 J-0.211130
G02 X99.399010 Y165.223053 Z-0.125000 I0.104043 J-0.242767
G02 X99.454273 Y165.217490 Z-0.125000 I0.000000 J-0.277277
G02 X99.503079 Y165.201886 Z-0.125000 I-0.047031 J-0.231236
G02 X99.547417 Y165.176149 Z-0.125000 I-0.096846 J-0.217904
G02 X99.589510 Y165.138386 Z-0.125000 I-0.171784 J-0.233817
G02 X99.646667 Y165.052303 Z-0.125000 I-0.184561 J-0.184561
G02 X99.667121 Y164.947886 Z-0.125000 I-0.256295 J-0.104417
G01 X99.667121 Y164.947886 Z-0.125000
G00 Z5.000000

(End cutting path id: path3758)


(Start cutting path id: path3758)
(Change tool to Default tool)

G00 Z5.000000
G00 X100.351510 Y164.947886

G01 Z-0.125000 F100.0(Penetrate)
G02 X100.331597 Y164.842743 Z-0.125000 I-0.287550 J0.000000 F400.000000
G02 X100.273898 Y164.750330 Z-0.125000 I-0.277396 J0.108977
G02 X100.187563 Y164.693783 Z-0.125000 I-0.178790 J0.178790
G02 X100.076343 Y164.672719 Z-0.125000 I-0.111220 J0.283105
G02 X99.971926 Y164.693173 Z-0.125000 I0.000000 J0.276749
G02 X99.885843 Y164.750330 Z-0.125000 I0.098478 J0.241719
G02 X99.828144 Y164.842743 Z-0.125000 I0.219697 J0.201389
G02 X99.808232 Y164.947886 Z-0.125000 I0.267637 J0.105143
G02 X99.828686 Y165.052303 Z-0.125000 I0.276749 J0.000000
G02 X99.885843 Y165.138386 Z-0.125000 I0.241719 J-0.098478
G02 X99.927935 Y165.176149 Z-0.125000 I0.213876 J-0.196053
G02 X99.972273 Y165.201886 Z-0.125000 I0.141184 J-0.192168
G02 X100.021079 Y165.217490 Z-0.125000 I0.095837 J-0.215632
G02 X100.076343 Y165.223053 Z-0.125000 I0.055264 J-0.271714
G02 X100.135158 Y165.217413 Z-0.125000 I-0.000000 J-0.309515
G02 X100.185704 Y165.201886 Z-0.125000 I-0.047107 J-0.243384
G02 X100.231676 Y165.175901 Z-0.125000 I-0.095119 J-0.221944
G02 X100.273898 Y165.138386 Z-0.125000 I-0.161406 J-0.224174
G02 X100.331056 Y165.052303 Z-0.125000 I-0.184561 J-0.184561
G02 X100.351510 Y164.947886 Z-0.125000 I-0.256295 J-0.104417
G01 X100.351510 Y164.947886 Z-0.125000
G00 Z5.000000

(End cutting path id: path3758)


(Start cutting path id: path3758)
(Change tool to Default tool)

G00 Z5.000000
G00 X101.028843 Y164.947886

G01 Z-0.125000 F100.0(Penetrate)
G02 X101.008931 Y164.842743 Z-0.125000 I-0.287550 J-0.000000 F400.000000
G02 X100.951232 Y164.750330 Z-0.125000 I-0.277396 J0.108977
G02 X100.865148 Y164.693173 Z-0.125000 I-0.184561 J0.184561
G02 X100.760732 Y164.672719 Z-0.125000 I-0.104417 J0.256295
G02 X100.649512 Y164.693783 Z-0.125000 I0.000000 J0.304168
G02 X100.563176 Y164.750330 Z-0.125000 I0.092454 J0.235338
G02 X100.505478 Y164.842743 Z-0.125000 I0.219697 J0.201389
G02 X100.485565 Y164.947886 Z-0.125000 I0.267637 J0.105143
G02 X100.506019 Y165.052303 Z-0.125000 I0.276749 J0.000000
G02 X100.563176 Y165.138386 Z-0.125000 I0.241719 J-0.098478
G02 X100.605399 Y165.175901 Z-0.125000 I0.203628 J-0.186659
G02 X100.651371 Y165.201886 Z-0.125000 I0.141091 J-0.195960
G02 X100.701917 Y165.217413 Z-0.125000 I0.097653 J-0.227857
G02 X100.760732 Y165.223053 Z-0.125000 I0.058815 J-0.303876
G02 X100.815996 Y165.217490 Z-0.125000 I0.000000 J-0.277277
G02 X100.864801 Y165.201886 Z-0.125000 I-0.047031 J-0.231236
G02 X100.909139 Y165.176149 Z-0.125000 I-0.096846 J-0.217904
G02 X100.951232 Y165.138386 Z-0.125000 I-0.171784 J-0.233817
G02 X101.008389 Y165.052303 Z-0.125000 I-0.184561 J-0.184561
G02 X101.028843 Y164.947886 Z-0.125000 I-0.256295 J-0.104417
G01 X101.028843 Y164.947886 Z-0.125000
G00 Z5.000000

(End cutting path id: path3758)


(Start cutting path id: path3758)
(Change tool to Default tool)

G00 Z5.000000
G00 X101.713232 Y164.947886

G01 Z-0.125000 F100.0(Penetrate)
G02 X101.691876 Y164.843843 Z-0.125000 I-0.264123 J0.000000 F400.000000
G02 X101.628565 Y164.750330 Z-0.125000 I-0.274441 J0.117618
G02 X101.542482 Y164.693173 Z-0.125000 I-0.184561 J0.184561
G02 X101.438065 Y164.672719 Z-0.125000 I-0.104417 J0.256295
G02 X101.332922 Y164.692632 Z-0.125000 I0.000000 J0.287550
G02 X101.240510 Y164.750330 Z-0.125000 I0.108977 J0.277396
G02 X101.182811 Y164.842743 Z-0.125000 I0.219697 J0.201389
G02 X101.162899 Y164.947886 Z-0.125000 I0.267637 J0.105143
G02 X101.183352 Y165.052303 Z-0.125000 I0.276749 J0.000000
G02 X101.240510 Y165.138386 Z-0.125000 I0.241719 J-0.098478
G02 X101.334022 Y165.201697 Z-0.125000 I0.211130 J-0.211130
G02 X101.438065 Y165.223053 Z-0.125000 I0.104043 J-0.242767
G02 X101.493329 Y165.217490 Z-0.125000 I-0.000000 J-0.277277
G02 X101.542135 Y165.201886 Z-0.125000 I-0.047031 J-0.231236
G02 X101.586473 Y165.176149 Z-0.125000 I-0.096846 J-0.217904
G02 X101.628565 Y165.138386 Z-0.125000 I-0.171784 J-0.233817
G02 X101.666329 Y165.096294 Z-0.125000 I-0.196053 J-0.213876
G02 X101.692065 Y165.051955 Z-0.125000 I-0.192168 J-0.141184
G02 X101.707669 Y165.003150 Z-0.125000 I-0.215632 J-0.095837
G02 X101.713232 Y164.947886 Z-0.125000 I-0.271714 J-0.055264
G01 X101.713232 Y164.947886 Z-0.125000
G00 Z5.000000

(End cutting path id: path3758)


(Start cutting path id: path3758)
(Change tool to Default tool)

G00 Z5.000000
G00 X102.390565 Y164.947886

G01 Z-0.125000 F100.0(Penetrate)
G02 X102.370653 Y164.842743 Z-0.125000 I-0.287550 J-0.000000 F400.000000
G02 X102.312954 Y164.750330 Z-0.125000 I-0.277396 J0.108977
G02 X102.226618 Y164.693783 Z-0.125000 I-0.178790 J0.178790
G02 X102.115399 Y164.672719 Z-0.125000 I-0.111220 J0.283105
G02 X102.010982 Y164.693173 Z-0.125000 I0.000000 J0.276749
G02 X101.924899 Y164.750330 Z-0.125000 I0.098478 J0.241719
G02 X101.867200 Y164.842743 Z-0.125000 I0.219697 J0.201389
G02 X101.847287 Y164.947886 Z-0.125000 I0.267637 J0.105143
G02 X101.867741 Y165.052303 Z-0.125000 I0.276749 J0.000000
G02 X101.924899 Y165.138386 Z-0.125000 I0.241719 J-0.098478
G02 X101.966991 Y165.176149 Z-0.125000 I0.213876 J-0.196053
G02 X102.011329 Y165.201886 Z-0.125000 I0.141184 J-0.192168
G02 X102.060135 Y165.217490 Z-0.125000 I0.095837 J-0.215632
G02 X102.115399 Y165.223053 Z-0.125000 I0.055264 J-0.271714
G02 X102.174213 Y165.217413 Z-0.125000 I-0.000000 J-0.309515
G02 X102.224760 Y165.201886 Z-0.125000 I-0.047107 J-0.243384
G02 X102.270732 Y165.175901 Z-0.125000 I-0.095119 J-0.221944
G02 X102.312954 Y165.138386 Z-0.125000 I-0.161406 J-0.224174
G02 X102.370111 Y165.052303 Z-0.125000 I-0.184561 J-0.184561
G02 X102.390565 Y164.947886 Z-0.125000 I-0.256295 J-0.104417
G01 X102.390565 Y164.947886 Z-0.125000
G00 Z5.000000

(End cutting path id: path3758)


(Start cutting path id: path3758)
(Change tool to Default tool)

G00 Z5.000000
G00 X98.989787 Y164.270553

G01 Z-0.125000 F100.0(Penetrate)
G02 X98.968724 Y164.159333 Z-0.125000 I-0.304168 J-0.000000 F400.000000
G02 X98.912176 Y164.072997 Z-0.125000 I-0.235338 J0.092454
G02 X98.825841 Y164.016449 Z-0.125000 I-0.178790 J0.178790
G02 X98.714621 Y163.995386 Z-0.125000 I-0.111220 J0.283105
G02 X98.610204 Y164.015840 Z-0.125000 I0.000000 J0.276749
G02 X98.524121 Y164.072997 Z-0.125000 I0.098478 J0.241719
G02 X98.467573 Y164.159333 Z-0.125000 I0.178790 J0.178790
G02 X98.446510 Y164.270553 Z-0.125000 I0.283105 J0.111220
G02 X98.466963 Y164.374969 Z-0.125000 I0.276749 J0.000000
G02 X98.524121 Y164.461053 Z-0.125000 I0.241719 J-0.098478
G02 X98.610204 Y164.518210 Z-0.125000 I0.184561 J-0.184561
G02 X98.714621 Y164.538664 Z-0.125000 I0.104417 J-0.256295
G02 X98.825841 Y164.517601 Z-0.125000 I0.000000 J-0.304168
G02 X98.912176 Y164.461053 Z-0.125000 I-0.092454 J-0.235338
G02 X98.969334 Y164.374969 Z-0.125000 I-0.184561 J-0.184561
G02 X98.989787 Y164.270553 Z-0.125000 I-0.256295 J-0.104417
G01 X98.989787 Y164.270553 Z-0.125000
G00 Z5.000000

(End cutting path id: path3758)


(Start cutting path id: path3758)
(Change tool to Default tool)

G00 Z5.000000
G00 X99.667121 Y164.270553

G01 Z-0.125000 F100.0(Penetrate)
G02 X99.646058 Y164.159333 Z-0.125000 I-0.304168 J-0.000000 F400.000000
G02 X99.589510 Y164.072997 Z-0.125000 I-0.235338 J0.092454
G02 X99.503426 Y164.015840 Z-0.125000 I-0.184561 J0.184561
G02 X99.399010 Y163.995386 Z-0.125000 I-0.104417 J0.256295
G02 X99.293866 Y164.015298 Z-0.125000 I0.000000 J0.287550
G02 X99.201454 Y164.072997 Z-0.125000 I0.108977 J0.277396
G02 X99.144906 Y164.159333 Z-0.125000 I0.178790 J0.178790
G02 X99.123843 Y164.270553 Z-0.125000 I0.283105 J0.111220
G02 X99.144297 Y164.374969 Z-0.125000 I0.276749 J0.000000
G02 X99.201454 Y164.461053 Z-0.125000 I0.241719 J-0.098478
G02 X99.293866 Y164.518751 Z-0.125000 I0.201389 J-0.219697
G02 X99.399010 Y164.538664 Z-0.125000 I0.105143 J-0.267637
G02 X99.503426 Y164.518210 Z-0.125000 I-0.000000 J-0.276749
G02 X99.589510 Y164.461053 Z-0.125000 I-0.098478 J-0.241719
G02 X99.646667 Y164.374969 Z-0.125000 I-0.184561 J-0.184561
G02 X99.667121 Y164.270553 Z-0.125000 I-0.256295 J-0.104417
G01 X99.667121 Y164.270553 Z-0.125000
G00 Z5.000000

(End cutting path id: path3758)


(Start cutting path id: path3758)
(Change tool to Default tool)

G00 Z5.000000
G00 X101.713232 Y164.270553

G01 Z-0.125000 F100.0(Penetrate)
G02 X101.707592 Y164.211738 Z-0.125000 I-0.309515 J0.000000 F400.000000
G02 X101.692065 Y164.161192 Z-0.125000 I-0.243384 J0.047107
G02 X101.666081 Y164.115220 Z-0.125000 I-0.221944 J0.095119
G02 X101.628565 Y164.072997 Z-0.125000 I-0.224174 J0.161406
G02 X101.542482 Y164.015840 Z-0.125000 I-0.184561 J0.184561
G02 X101.438065 Y163.995386 Z-0.125000 I-0.104417 J0.256295
G02 X101.332922 Y164.015298 Z-0.125000 I0.000000 J0.287550
G02 X101.240510 Y164.072997 Z-0.125000 I0.108977 J0.277396
G02 X101.183962 Y164.159333 Z-0.125000 I0.178790 J0.178790
G02 X101.162899 Y164.270553 Z-0.125000 I0.283105 J0.111220
G02 X101.183352 Y164.374969 Z-0.125000 I0.276749 J0.000000
G02 X101.240510 Y164.461053 Z-0.125000 I0.241719 J-0.098478
G02 X101.332922 Y164.518751 Z-0.125000 I0.201389 J-0.219697
G02 X101.438065 Y164.538664 Z-0.125000 I0.105143 J-0.267637
G02 X101.542482 Y164.518210 Z-0.125000 I0.000000 J-0.276749
G02 X101.628565 Y164.461053 Z-0.125000 I-0.098478 J-0.241719
G02 X101.666329 Y164.418960 Z-0.125000 I-0.196053 J-0.213876
G02 X101.692065 Y164.374622 Z-0.125000 I-0.192168 J-0.141184
G02 X101.707669 Y164.325817 Z-0.125000 I-0.215632 J-0.095837
G02 X101.713232 Y164.270553 Z-0.125000 I-0.271714 J-0.055264
G01 X101.713232 Y164.270553 Z-0.125000
G00 Z5.000000

(End cutting path id: path3758)


(Start cutting path id: path3758)
(Change tool to Default tool)

G00 Z5.000000
G00 X102.390565 Y164.270553

G01 Z-0.125000 F100.0(Penetrate)
G02 X102.369502 Y164.159333 Z-0.125000 I-0.304168 J-0.000000 F400.000000
G02 X102.312954 Y164.072997 Z-0.125000 I-0.235338 J0.092454
G02 X102.226618 Y164.016449 Z-0.125000 I-0.178790 J0.178790
G02 X102.115399 Y163.995386 Z-0.125000 I-0.111220 J0.283105
G02 X102.010982 Y164.015840 Z-0.125000 I0.000000 J0.276749
G02 X101.924899 Y164.072997 Z-0.125000 I0.098478 J0.241719
G02 X101.868351 Y164.159333 Z-0.125000 I0.178790 J0.178790
G02 X101.847287 Y164.270553 Z-0.125000 I0.283105 J0.111220
G02 X101.867741 Y164.374969 Z-0.125000 I0.276749 J0.000000
G02 X101.924899 Y164.461053 Z-0.125000 I0.241719 J-0.098478
G02 X102.010982 Y164.518210 Z-0.125000 I0.184561 J-0.184561
G02 X102.115399 Y164.538664 Z-0.125000 I0.104417 J-0.256295
G02 X102.226618 Y164.517601 Z-0.125000 I0.000000 J-0.304168
G02 X102.312954 Y164.461053 Z-0.125000 I-0.092454 J-0.235338
G02 X102.370111 Y164.374969 Z-0.125000 I-0.184561 J-0.184561
G02 X102.390565 Y164.270553 Z-0.125000 I-0.256295 J-0.104417
G01 X102.390565 Y164.270553 Z-0.125000
G00 Z5.000000

(End cutting path id: path3758)


(Start cutting path id: path3758)
(Change tool to Default tool)

G00 Z5.000000
G00 X100.351510 Y163.586164

G01 Z-0.125000 F100.0(Penetrate)
G02 X100.331056 Y163.481747 Z-0.125000 I-0.276749 J-0.000000 F400.000000
G02 X100.273898 Y163.395664 Z-0.125000 I-0.241719 J0.098478
G02 X100.187563 Y163.339116 Z-0.125000 I-0.178790 J0.178790
G02 X100.076343 Y163.318053 Z-0.125000 I-0.111220 J0.283105
G02 X99.971926 Y163.338507 Z-0.125000 I0.000000 J0.276749
G02 X99.885843 Y163.395664 Z-0.125000 I0.098478 J0.241719
G02 X99.828686 Y163.481747 Z-0.125000 I0.184561 J0.184561
G02 X99.808232 Y163.586164 Z-0.125000 I0.256295 J0.104417
G02 X99.829295 Y163.697384 Z-0.125000 I0.304168 J-0.000000
G02 X99.885843 Y163.783719 Z-0.125000 I0.235338 J-0.092454
G02 X99.971926 Y163.840877 Z-0.125000 I0.184561 J-0.184561
G02 X100.076343 Y163.861330 Z-0.125000 I0.104417 J-0.256295
G02 X100.187563 Y163.840267 Z-0.125000 I0.000000 J-0.304168
G02 X100.273898 Y163.783719 Z-0.125000 I-0.092454 J-0.235338
G02 X100.330446 Y163.697384 Z-0.125000 I-0.178790 J-0.178790
G02 X100.351510 Y163.586164 Z-0.125000 I-0.283105 J-0.111220
G01 X100.351510 Y163.586164 Z-0.125000
G00 Z5.000000

(End cutting path id: path3758)


(Start cutting path id: path3758)
(Change tool to Default tool)

G00 Z5.000000
G00 X101.028843 Y163.586164

G01 Z-0.125000 F100.0(Penetrate)
G02 X101.008389 Y163.481747 Z-0.125000 I-0.276749 J-0.000000 F400.000000
G02 X100.951232 Y163.395664 Z-0.125000 I-0.241719 J0.098478
G02 X100.865148 Y163.338507 Z-0.125000 I-0.184561 J0.184561
G02 X100.760732 Y163.318053 Z-0.125000 I-0.104417 J0.256295
G02 X100.649512 Y163.339116 Z-0.125000 I0.000000 J0.304168
G02 X100.563176 Y163.395664 Z-0.125000 I0.092454 J0.235338
G02 X100.506019 Y163.481747 Z-0.125000 I0.184561 J0.184561
G02 X100.485565 Y163.586164 Z-0.125000 I0.256295 J0.104417
G02 X100.506628 Y163.697384 Z-0.125000 I0.304168 J-0.000000
G02 X100.563176 Y163.783719 Z-0.125000 I0.235338 J-0.092454
G02 X100.649512 Y163.840267 Z-0.125000 I0.178790 J-0.178790
G02 X100.760732 Y163.861330 Z-0.125000 I0.111220 J-0.283105
G02 X100.865148 Y163.840877 Z-0.125000 I0.000000 J-0.276749
G02 X100.951232 Y163.783719 Z-0.125000 I-0.098478 J-0.241719
G02 X101.007780 Y163.697384 Z-0.125000 I-0.178790 J-0.178790
G02 X101.028843 Y163.586164 Z-0.125000 I-0.283105 J-0.111220
G01 X101.028843 Y163.586164 Z-0.125000
G00 Z5.000000

(End cutting path id: path3758)


(Start cutting path id: path3758)
(Change tool to Default tool)

G00 Z5.000000
G00 X101.713232 Y163.586164

G01 Z-0.125000 F100.0(Penetrate)
G02 X101.707669 Y163.530900 Z-0.125000 I-0.277277 J0.000000 F400.000000
G02 X101.692065 Y163.482094 Z-0.125000 I-0.231236 J0.047031
G02 X101.666329 Y163.437756 Z-0.125000 I-0.217904 J0.096846
G02 X101.628565 Y163.395664 Z-0.125000 I-0.233817 J0.171784
G02 X101.542482 Y163.338507 Z-0.125000 I-0.184561 J0.184561
G02 X101.438065 Y163.318053 Z-0.125000 I-0.104417 J0.256295
G02 X101.332922 Y163.337965 Z-0.125000 I-0.000000 J0.287550
G02 X101.240510 Y163.395664 Z-0.125000 I0.108977 J0.277396
G02 X101.183352 Y163.481747 Z-0.125000 I0.184561 J0.184561
G02 X101.162899 Y163.586164 Z-0.125000 I0.256295 J0.104417
G02 X101.183962 Y163.697384 Z-0.125000 I0.304168 J-0.000000
G02 X101.240510 Y163.783719 Z-0.125000 I0.235338 J-0.092454
G02 X101.332922 Y163.841418 Z-0.125000 I0.201389 J-0.219697
G02 X101.438065 Y163.861330 Z-0.125000 I0.105143 J-0.267637
G02 X101.542482 Y163.840877 Z-0.125000 I0.000000 J-0.276749
G02 X101.628565 Y163.783719 Z-0.125000 I-0.098478 J-0.241719
G02 X101.666081 Y163.741497 Z-0.125000 I-0.186659 J-0.203628
G02 X101.692065 Y163.695525 Z-0.125000 I-0.195960 J-0.141091
G02 X101.707592 Y163.644978 Z-0.125000 I-0.227857 J-0.097653
G02 X101.713232 Y163.586164 Z-0.125000 I-0.303876 J-0.058815
G01 X101.713232 Y163.586164 Z-0.125000
G00 Z5.000000

(End cutting path id: path3758)


(Start cutting path id: path3758)
(Change tool to Default tool)

G00 Z5.000000
G00 X102.390565 Y163.586164

G01 Z-0.125000 F100.0(Penetrate)
G02 X102.370111 Y163.481747 Z-0.125000 I-0.276749 J-0.000000 F400.000000
G02 X102.312954 Y163.395664 Z-0.125000 I-0.241719 J0.098478
G02 X102.226618 Y163.339116 Z-0.125000 I-0.178790 J0.178790
G02 X102.115399 Y163.318053 Z-0.125000 I-0.111220 J0.283105
G02 X102.010982 Y163.338507 Z-0.125000 I0.000000 J0.276749
G02 X101.924899 Y163.395664 Z-0.125000 I0.098478 J0.241719
G02 X101.867741 Y163.481747 Z-0.125000 I0.184561 J0.184561
G02 X101.847287 Y163.586164 Z-0.125000 I0.256295 J0.104417
G02 X101.868351 Y163.697384 Z-0.125000 I0.304168 J-0.000000
G02 X101.924899 Y163.783719 Z-0.125000 I0.235338 J-0.092454
G02 X102.010982 Y163.840877 Z-0.125000 I0.184561 J-0.184561
G02 X102.115399 Y163.861330 Z-0.125000 I0.104417 J-0.256295
G02 X102.226618 Y163.840267 Z-0.125000 I0.000000 J-0.304168
G02 X102.312954 Y163.783719 Z-0.125000 I-0.092454 J-0.235338
G02 X102.369502 Y163.697384 Z-0.125000 I-0.178790 J-0.178790
G02 X102.390565 Y163.586164 Z-0.125000 I-0.283105 J-0.111220
G01 X102.390565 Y163.586164 Z-0.125000
G00 Z5.000000

(End cutting path id: path3758)


(Start cutting path id: path3758)
(Change tool to Default tool)

G00 Z5.000000
G00 X100.351510 Y162.908830

G01 Z-0.125000 F100.0(Penetrate)
G02 X100.331597 Y162.803687 Z-0.125000 I-0.287550 J-0.000000 F400.000000
G02 X100.273898 Y162.711275 Z-0.125000 I-0.277396 J0.108977
G02 X100.187563 Y162.654727 Z-0.125000 I-0.178790 J0.178790
G02 X100.076343 Y162.633664 Z-0.125000 I-0.111220 J0.283105
G02 X99.971926 Y162.654118 Z-0.125000 I0.000000 J0.276749
G02 X99.885843 Y162.711275 Z-0.125000 I0.098478 J0.241719
G02 X99.828144 Y162.803687 Z-0.125000 I0.219697 J0.201389
G02 X99.808232 Y162.908830 Z-0.125000 I0.267637 J0.105143
G02 X99.828686 Y163.013247 Z-0.125000 I0.276749 J-0.000000
G02 X99.885843 Y163.099330 Z-0.125000 I0.241719 J-0.098478
G02 X99.971926 Y163.156488 Z-0.125000 I0.184561 J-0.184561
G02 X100.076343 Y163.176942 Z-0.125000 I0.104417 J-0.256295
G02 X100.187563 Y163.155878 Z-0.125000 I0.000000 J-0.304168
G02 X100.273898 Y163.099330 Z-0.125000 I-0.092454 J-0.235338
G02 X100.331056 Y163.013247 Z-0.125000 I-0.184561 J-0.184561
G02 X100.351510 Y162.908830 Z-0.125000 I-0.256295 J-0.104417
G01 X100.351510 Y162.908830 Z-0.125000
G00 Z5.000000

(End cutting path id: path3758)


(Start cutting path id: path3758)
(Change tool to Default tool)

G00 Z5.000000
G00 X101.028843 Y162.908830

G01 Z-0.125000 F100.0(Penetrate)
G02 X101.008931 Y162.803687 Z-0.125000 I-0.287550 J-0.000000 F400.000000
G02 X100.951232 Y162.711275 Z-0.125000 I-0.277396 J0.108977
G02 X100.865148 Y162.654118 Z-0.125000 I-0.184561 J0.184561
G02 X100.760732 Y162.633664 Z-0.125000 I-0.104417 J0.256295
G02 X100.649512 Y162.654727 Z-0.125000 I0.000000 J0.304168
G02 X100.563176 Y162.711275 Z-0.125000 I0.092454 J0.235338
G02 X100.505478 Y162.803687 Z-0.125000 I0.219697 J0.201389
G02 X100.485565 Y162.908830 Z-0.125000 I0.267637 J0.105143
G02 X100.506019 Y163.013247 Z-0.125000 I0.276749 J-0.000000
G02 X100.563176 Y163.099330 Z-0.125000 I0.241719 J-0.098478
G02 X100.649512 Y163.155878 Z-0.125000 I0.178790 J-0.178790
G02 X100.760732 Y163.176942 Z-0.125000 I0.111220 J-0.283105
G02 X100.865148 Y163.156488 Z-0.125000 I0.000000 J-0.276749
G02 X100.951232 Y163.099330 Z-0.125000 I-0.098478 J-0.241719
G02 X101.008389 Y163.013247 Z-0.125000 I-0.184561 J-0.184561
G02 X101.028843 Y162.908830 Z-0.125000 I-0.256295 J-0.104417
G01 X101.028843 Y162.908830 Z-0.125000
G00 Z5.000000

(End cutting path id: path3758)


(Start cutting path id: path3758)
(Change tool to Default tool)

G00 Z5.000000
G00 X101.713232 Y162.908830

G01 Z-0.125000 F100.0(Penetrate)
G02 X101.691876 Y162.804787 Z-0.125000 I-0.264123 J-0.000000 F400.000000
G02 X101.628565 Y162.711275 Z-0.125000 I-0.274441 J0.117618
G02 X101.542482 Y162.654118 Z-0.125000 I-0.184561 J0.184561
G02 X101.438065 Y162.633664 Z-0.125000 I-0.104417 J0.256295
G02 X101.332922 Y162.653576 Z-0.125000 I0.000000 J0.287550
G02 X101.240510 Y162.711275 Z-0.125000 I0.108977 J0.277396
G02 X101.182811 Y162.803687 Z-0.125000 I0.219697 J0.201389
G02 X101.162899 Y162.908830 Z-0.125000 I0.267637 J0.105143
G02 X101.183352 Y163.013247 Z-0.125000 I0.276749 J-0.000000
G02 X101.240510 Y163.099330 Z-0.125000 I0.241719 J-0.098478
G02 X101.332922 Y163.157029 Z-0.125000 I0.201389 J-0.219697
G02 X101.438065 Y163.176942 Z-0.125000 I0.105143 J-0.267637
G02 X101.542482 Y163.156488 Z-0.125000 I-0.000000 J-0.276749
G02 X101.628565 Y163.099330 Z-0.125000 I-0.098478 J-0.241719
G02 X101.666329 Y163.057238 Z-0.125000 I-0.196053 J-0.213876
G02 X101.692065 Y163.012900 Z-0.125000 I-0.192168 J-0.141184
G02 X101.707669 Y162.964094 Z-0.125000 I-0.215632 J-0.095837
G02 X101.713232 Y162.908830 Z-0.125000 I-0.271714 J-0.055264
G01 X101.713232 Y162.908830 Z-0.125000
G00 Z5.000000

(End cutting path id: path3758)


(Start cutting path id: path3758)
(Change tool to Default tool)

G00 Z5.000000
G00 X102.390565 Y162.908830

G01 Z-0.125000 F100.0(Penetrate)
G02 X102.370653 Y162.803687 Z-0.125000 I-0.287550 J-0.000000 F400.000000
G02 X102.312954 Y162.711275 Z-0.125000 I-0.277396 J0.108977
G02 X102.226618 Y162.654727 Z-0.125000 I-0.178790 J0.178790
G02 X102.115399 Y162.633664 Z-0.125000 I-0.111220 J0.283105
G02 X102.010982 Y162.654118 Z-0.125000 I-0.000000 J0.276749
G02 X101.924899 Y162.711275 Z-0.125000 I0.098478 J0.241719
G02 X101.867200 Y162.803687 Z-0.125000 I0.219697 J0.201389
G02 X101.847287 Y162.908830 Z-0.125000 I0.267637 J0.105143
G02 X101.867741 Y163.013247 Z-0.125000 I0.276749 J-0.000000
G02 X101.924899 Y163.099330 Z-0.125000 I0.241719 J-0.098478
G02 X102.010982 Y163.156488 Z-0.125000 I0.184561 J-0.184561
G02 X102.115399 Y163.176942 Z-0.125000 I0.104417 J-0.256295
G02 X102.226618 Y163.155878 Z-0.125000 I0.000000 J-0.304168
G02 X102.312954 Y163.099330 Z-0.125000 I-0.092454 J-0.235338
G02 X102.370111 Y163.013247 Z-0.125000 I-0.184561 J-0.184561
G02 X102.390565 Y162.908830 Z-0.125000 I-0.256295 J-0.104417
G01 X102.390565 Y162.908830 Z-0.125000
G00 Z5.000000

(End cutting path id: path3758)


(Start cutting path id: path3758)
(Change tool to Default tool)

G00 Z5.000000
G00 X98.989787 Y162.224442

G01 Z-0.125000 F100.0(Penetrate)
G02 X98.969334 Y162.120025 Z-0.125000 I-0.276749 J-0.000000 F400.000000
G02 X98.912176 Y162.033942 Z-0.125000 I-0.241719 J0.098478
G02 X98.825841 Y161.977394 Z-0.125000 I-0.178790 J0.178790
G02 X98.714621 Y161.956330 Z-0.125000 I-0.111220 J0.283105
G02 X98.610204 Y161.976784 Z-0.125000 I-0.000000 J0.276749
G02 X98.524121 Y162.033942 Z-0.125000 I0.098478 J0.241719
G02 X98.466963 Y162.120025 Z-0.125000 I0.184561 J0.184561
G02 X98.446510 Y162.224442 Z-0.125000 I0.256295 J0.104417
G02 X98.467573 Y162.335661 Z-0.125000 I0.304168 J0.000000
G02 X98.524121 Y162.421997 Z-0.125000 I0.235338 J-0.092454
G02 X98.610204 Y162.479154 Z-0.125000 I0.184561 J-0.184561
G02 X98.714621 Y162.499608 Z-0.125000 I0.104417 J-0.256295
G02 X98.825841 Y162.478545 Z-0.125000 I-0.000000 J-0.304168
G02 X98.912176 Y162.421997 Z-0.125000 I-0.092454 J-0.235338
G02 X98.968724 Y162.335661 Z-0.125000 I-0.178790 J-0.178790
G02 X98.989787 Y162.224442 Z-0.125000 I-0.283105 J-0.111220
G01 X98.989787 Y162.224442 Z-0.125000
G00 Z5.000000

(End cutting path id: path3758)


(Start cutting path id: path3758)
(Change tool to Default tool)

G00 Z5.000000
G00 X99.667121 Y162.224442

G01 Z-0.125000 F100.0(Penetrate)
G02 X99.646667 Y162.120025 Z-0.125000 I-0.276749 J-0.000000 F400.000000
G02 X99.589510 Y162.033942 Z-0.125000 I-0.241719 J0.098478
G02 X99.503426 Y161.976784 Z-0.125000 I-0.184561 J0.184561
G02 X99.399010 Y161.956330 Z-0.125000 I-0.104417 J0.256295
G02 X99.293866 Y161.976243 Z-0.125000 I0.000000 J0.287550
G02 X99.201454 Y162.033942 Z-0.125000 I0.108977 J0.277396
G02 X99.144297 Y162.120025 Z-0.125000 I0.184561 J0.184561
G02 X99.123843 Y162.224442 Z-0.125000 I0.256295 J0.104417
G02 X99.144906 Y162.335661 Z-0.125000 I0.304168 J0.000000
G02 X99.201454 Y162.421997 Z-0.125000 I0.235338 J-0.092454
G02 X99.293866 Y162.479696 Z-0.125000 I0.201389 J-0.219697
G02 X99.399010 Y162.499608 Z-0.125000 I0.105143 J-0.267637
G02 X99.503426 Y162.479154 Z-0.125000 I0.000000 J-0.276749
G02 X99.589510 Y162.421997 Z-0.125000 I-0.098478 J-0.241719
G02 X99.646058 Y162.335661 Z-0.125000 I-0.178790 J-0.178790
G02 X99.667121 Y162.224442 Z-0.125000 I-0.283105 J-0.111220
G01 X99.667121 Y162.224442 Z-0.125000
G00 Z5.000000

(End cutting path id: path3758)


(Start cutting path id: path3758)
(Change tool to Default tool)

G00 Z5.000000
G00 X101.713232 Y162.224442

G01 Z-0.125000 F100.0(Penetrate)
G02 X101.707669 Y162.169178 Z-0.125000 I-0.277277 J-0.000000 F400.000000
G02 X101.692065 Y162.120372 Z-0.125000 I-0.231236 J0.047031
G02 X101.666329 Y162.076034 Z-0.125000 I-0.217904 J0.096846
G02 X101.628565 Y162.033942 Z-0.125000 I-0.233817 J0.171784
G02 X101.542482 Y161.976784 Z-0.125000 I-0.184561 J0.184561
G02 X101.438065 Y161.956330 Z-0.125000 I-0.104417 J0.256295
G02 X101.332922 Y161.976243 Z-0.125000 I0.000000 J0.287550
G02 X101.240510 Y162.033942 Z-0.125000 I0.108977 J0.277396
G02 X101.183352 Y162.120025 Z-0.125000 I0.184561 J0.184561
G02 X101.162899 Y162.224442 Z-0.125000 I0.256295 J0.104417
G02 X101.183962 Y162.335661 Z-0.125000 I0.304168 J0.000000
G02 X101.240510 Y162.421997 Z-0.125000 I0.235338 J-0.092454
G02 X101.332922 Y162.479696 Z-0.125000 I0.201389 J-0.219697
G02 X101.438065 Y162.499608 Z-0.125000 I0.105143 J-0.267637
G02 X101.542482 Y162.479154 Z-0.125000 I-0.000000 J-0.276749
G02 X101.628565 Y162.421997 Z-0.125000 I-0.098478 J-0.241719
G02 X101.666081 Y162.379775 Z-0.125000 I-0.186659 J-0.203628
G02 X101.692065 Y162.333803 Z-0.125000 I-0.195960 J-0.141091
G02 X101.707592 Y162.283256 Z-0.125000 I-0.227857 J-0.097653
G02 X101.713232 Y162.224442 Z-0.125000 I-0.303876 J-0.058815
G01 X101.713232 Y162.224442 Z-0.125000
G00 Z5.000000

(End cutting path id: path3758)


(Start cutting path id: path3758)
(Change tool to Default tool)

G00 Z5.000000
G00 X102.390565 Y162.224442

G01 Z-0.125000 F100.0(Penetrate)
G02 X102.370111 Y162.120025 Z-0.125000 I-0.276749 J-0.000000 F400.000000
G02 X102.312954 Y162.033942 Z-0.125000 I-0.241719 J0.098478
G02 X102.226618 Y161.977394 Z-0.125000 I-0.178790 J0.178790
G02 X102.115399 Y161.956330 Z-0.125000 I-0.111220 J0.283105
G02 X102.010982 Y161.976784 Z-0.125000 I0.000000 J0.276749
G02 X101.924899 Y162.033942 Z-0.125000 I0.098478 J0.241719
G02 X101.867741 Y162.120025 Z-0.125000 I0.184561 J0.184561
G02 X101.847287 Y162.224442 Z-0.125000 I0.256295 J0.104417
G02 X101.868351 Y162.335661 Z-0.125000 I0.304168 J0.000000
G02 X101.924899 Y162.421997 Z-0.125000 I0.235338 J-0.092454
G02 X102.010982 Y162.479154 Z-0.125000 I0.184561 J-0.184561
G02 X102.115399 Y162.499608 Z-0.125000 I0.104417 J-0.256295
G02 X102.226618 Y162.478545 Z-0.125000 I-0.000000 J-0.304168
G02 X102.312954 Y162.421997 Z-0.125000 I-0.092454 J-0.235338
G02 X102.369502 Y162.335661 Z-0.125000 I-0.178790 J-0.178790
G02 X102.390565 Y162.224442 Z-0.125000 I-0.283105 J-0.111220
G01 X102.390565 Y162.224442 Z-0.125000
G00 Z5.000000

(End cutting path id: path3758)


(Start cutting path id: path3758)
(Change tool to Default tool)

G00 Z5.000000
G00 X98.989787 Y161.547108

G01 Z-0.125000 F100.0(Penetrate)
G02 X98.969334 Y161.442692 Z-0.125000 I-0.276749 J-0.000000 F400.000000
G02 X98.912176 Y161.356608 Z-0.125000 I-0.241719 J0.098478
G02 X98.825841 Y161.300060 Z-0.125000 I-0.178790 J0.178790
G02 X98.714621 Y161.278997 Z-0.125000 I-0.111220 J0.283105
G02 X98.610204 Y161.299451 Z-0.125000 I0.000000 J0.276749
G02 X98.524121 Y161.356608 Z-0.125000 I0.098478 J0.241719
G02 X98.466963 Y161.442692 Z-0.125000 I0.184561 J0.184561
G02 X98.446510 Y161.547108 Z-0.125000 I0.256295 J0.104417
G02 X98.466963 Y161.651525 Z-0.125000 I0.276749 J-0.000000
G02 X98.524121 Y161.737608 Z-0.125000 I0.241719 J-0.098478
G02 X98.566213 Y161.775372 Z-0.125000 I0.213876 J-0.196053
G02 X98.610551 Y161.801108 Z-0.125000 I0.141184 J-0.192168
G02 X98.659357 Y161.816712 Z-0.125000 I0.095837 J-0.215632
G02 X98.714621 Y161.822275 Z-0.125000 I0.055264 J-0.271714
G02 X98.773435 Y161.816635 Z-0.125000 I-0.000000 J-0.309515
G02 X98.823982 Y161.801108 Z-0.125000 I-0.047107 J-0.243384
G02 X98.869954 Y161.775124 Z-0.125000 I-0.095119 J-0.221944
G02 X98.912176 Y161.737608 Z-0.125000 I-0.161406 J-0.224174
G02 X98.969334 Y161.651525 Z-0.125000 I-0.184561 J-0.184561
G02 X98.989787 Y161.547108 Z-0.125000 I-0.256295 J-0.104417
G01 X98.989787 Y161.547108 Z-0.125000
G00 Z5.000000

(End cutting path id: path3758)


(Start cutting path id: path3758)
(Change tool to Default tool)

G00 Z5.000000
G00 X99.667121 Y161.547108

G01 Z-0.125000 F100.0(Penetrate)
G02 X99.646667 Y161.442692 Z-0.125000 I-0.276749 J-0.000000 F400.000000
G02 X99.589510 Y161.356608 Z-0.125000 I-0.241719 J0.098478
G02 X99.503426 Y161.299451 Z-0.125000 I-0.184561 J0.184561
G02 X99.399010 Y161.278997 Z-0.125000 I-0.104417 J0.256295
G02 X99.293866 Y161.298909 Z-0.125000 I0.000000 J0.287550
G02 X99.201454 Y161.356608 Z-0.125000 I0.108977 J0.277396
G02 X99.144297 Y161.442692 Z-0.125000 I0.184561 J0.184561
G02 X99.123843 Y161.547108 Z-0.125000 I0.256295 J0.104417
G02 X99.144297 Y161.651525 Z-0.125000 I0.276749 J-0.000000
G02 X99.201454 Y161.737608 Z-0.125000 I0.241719 J-0.098478
G02 X99.294967 Y161.800919 Z-0.125000 I0.211130 J-0.211130
G02 X99.399010 Y161.822275 Z-0.125000 I0.104043 J-0.242767
G02 X99.454273 Y161.816712 Z-0.125000 I-0.000000 J-0.277277
G02 X99.503079 Y161.801108 Z-0.125000 I-0.047031 J-0.231236
G02 X99.547417 Y161.775372 Z-0.125000 I-0.096846 J-0.217904
G02 X99.589510 Y161.737608 Z-0.125000 I-0.171784 J-0.233817
G02 X99.646667 Y161.651525 Z-0.125000 I-0.184561 J-0.184561
G02 X99.667121 Y161.547108 Z-0.125000 I-0.256295 J-0.104417
G01 X99.667121 Y161.547108 Z-0.125000
G00 Z5.000000

(End cutting path id: path3758)


(Start cutting path id: path3758)
(Change tool to Default tool)

G00 Z5.000000
G00 X100.351510 Y161.547108

G01 Z-0.125000 F100.0(Penetrate)
G02 X100.331056 Y161.442692 Z-0.125000 I-0.276749 J-0.000000 F400.000000
G02 X100.273898 Y161.356608 Z-0.125000 I-0.241719 J0.098478
G02 X100.187563 Y161.300060 Z-0.125000 I-0.178790 J0.178790
G02 X100.076343 Y161.278997 Z-0.125000 I-0.111220 J0.283105
G02 X99.971926 Y161.299451 Z-0.125000 I0.000000 J0.276749
G02 X99.885843 Y161.356608 Z-0.125000 I0.098478 J0.241719
G02 X99.828686 Y161.442692 Z-0.125000 I0.184561 J0.184561
G02 X99.808232 Y161.547108 Z-0.125000 I0.256295 J0.104417
G02 X99.828686 Y161.651525 Z-0.125000 I0.276749 J-0.000000
G02 X99.885843 Y161.737608 Z-0.125000 I0.241719 J-0.098478
G02 X99.927935 Y161.775372 Z-0.125000 I0.213876 J-0.196053
G02 X99.972273 Y161.801108 Z-0.125000 I0.141184 J-0.192168
G02 X100.021079 Y161.816712 Z-0.125000 I0.095837 J-0.215632
G02 X100.076343 Y161.822275 Z-0.125000 I0.055264 J-0.271714
G02 X100.135158 Y161.816635 Z-0.125000 I-0.000000 J-0.309515
G02 X100.185704 Y161.801108 Z-0.125000 I-0.047107 J-0.243384
G02 X100.231676 Y161.775124 Z-0.125000 I-0.095119 J-0.221944
G02 X100.273898 Y161.737608 Z-0.125000 I-0.161406 J-0.224174
G02 X100.331056 Y161.651525 Z-0.125000 I-0.184561 J-0.184561
G02 X100.351510 Y161.547108 Z-0.125000 I-0.256295 J-0.104417
G01 X100.351510 Y161.547108 Z-0.125000
G00 Z5.000000

(End cutting path id: path3758)


(Start cutting path id: path3758)
(Change tool to Default tool)

G00 Z5.000000
G00 X101.028843 Y161.547108

G01 Z-0.125000 F100.0(Penetrate)
G02 X101.008389 Y161.442692 Z-0.125000 I-0.276749 J-0.000000 F400.000000
G02 X100.951232 Y161.356608 Z-0.125000 I-0.241719 J0.098478
G02 X100.865148 Y161.299451 Z-0.125000 I-0.184561 J0.184561
G02 X100.760732 Y161.278997 Z-0.125000 I-0.104417 J0.256295
G02 X100.649512 Y161.300060 Z-0.125000 I-0.000000 J0.304168
G02 X100.563176 Y161.356608 Z-0.125000 I0.092454 J0.235338
G02 X100.506019 Y161.442692 Z-0.125000 I0.184561 J0.184561
G02 X100.485565 Y161.547108 Z-0.125000 I0.256295 J0.104417
G02 X100.506019 Y161.651525 Z-0.125000 I0.276749 J-0.000000
G02 X100.563176 Y161.737608 Z-0.125000 I0.241719 J-0.098478
G02 X100.605399 Y161.775124 Z-0.125000 I0.203628 J-0.186659
G02 X100.651371 Y161.801108 Z-0.125000 I0.141091 J-0.195960
G02 X100.701917 Y161.816635 Z-0.125000 I0.097653 J-0.227857
G02 X100.760732 Y161.822275 Z-0.125000 I0.058815 J-0.303876
G02 X100.815996 Y161.816712 Z-0.125000 I-0.000000 J-0.277277
G02 X100.864801 Y161.801108 Z-0.125000 I-0.047031 J-0.231236
G02 X100.909139 Y161.775372 Z-0.125000 I-0.096846 J-0.217904
G02 X100.951232 Y161.737608 Z-0.125000 I-0.171784 J-0.233817
G02 X101.008389 Y161.651525 Z-0.125000 I-0.184561 J-0.184561
G02 X101.028843 Y161.547108 Z-0.125000 I-0.256295 J-0.104417
G01 X101.028843 Y161.547108 Z-0.125000
G00 Z5.000000

(End cutting path id: path3758)


(Start cutting path id: path3758)
(Change tool to Default tool)

G00 Z5.000000
G00 X101.713232 Y161.547108

G01 Z-0.125000 F100.0(Penetrate)
G02 X101.707669 Y161.491844 Z-0.125000 I-0.277277 J-0.000000 F400.000000
G02 X101.692065 Y161.443039 Z-0.125000 I-0.231236 J0.047031
G02 X101.666329 Y161.398701 Z-0.125000 I-0.217904 J0.096846
G02 X101.628565 Y161.356608 Z-0.125000 I-0.233817 J0.171784
G02 X101.542482 Y161.299451 Z-0.125000 I-0.184561 J0.184561
G02 X101.438065 Y161.278997 Z-0.125000 I-0.104417 J0.256295
G02 X101.332922 Y161.298909 Z-0.125000 I0.000000 J0.287550
G02 X101.240510 Y161.356608 Z-0.125000 I0.108977 J0.277396
G02 X101.183352 Y161.442692 Z-0.125000 I0.184561 J0.184561
G02 X101.162899 Y161.547108 Z-0.125000 I0.256295 J0.104417
G02 X101.183352 Y161.651525 Z-0.125000 I0.276749 J-0.000000
G02 X101.240510 Y161.737608 Z-0.125000 I0.241719 J-0.098478
G02 X101.334022 Y161.800919 Z-0.125000 I0.211130 J-0.211130
G02 X101.438065 Y161.822275 Z-0.125000 I0.104043 J-0.242767
G02 X101.493329 Y161.816712 Z-0.125000 I0.000000 J-0.277277
G02 X101.542135 Y161.801108 Z-0.125000 I-0.047031 J-0.231236
G02 X101.586473 Y161.775372 Z-0.125000 I-0.096846 J-0.217904
G02 X101.628565 Y161.737608 Z-0.125000 I-0.171784 J-0.233817
G02 X101.666329 Y161.695516 Z-0.125000 I-0.196053 J-0.213876
G02 X101.692065 Y161.651178 Z-0.125000 I-0.192168 J-0.141184
G02 X101.707669 Y161.602372 Z-0.125000 I-0.215632 J-0.095837
G02 X101.713232 Y161.547108 Z-0.125000 I-0.271714 J-0.055264
G01 X101.713232 Y161.547108 Z-0.125000
G00 Z5.000000

(End cutting path id: path3758)


(Start cutting path id: path3758)
(Change tool to Default tool)

G00 Z5.000000
G00 X102.390565 Y161.547108

G01 Z-0.125000 F100.0(Penetrate)
G02 X102.370111 Y161.442692 Z-0.125000 I-0.276749 J-0.000000 F400.000000
G02 X102.312954 Y161.356608 Z-0.125000 I-0.241719 J0.098478
G02 X102.226618 Y161.300060 Z-0.125000 I-0.178790 J0.178790
G02 X102.115399 Y161.278997 Z-0.125000 I-0.111220 J0.283105
G02 X102.010982 Y161.299451 Z-0.125000 I-0.000000 J0.276749
G02 X101.924899 Y161.356608 Z-0.125000 I0.098478 J0.241719
G02 X101.867741 Y161.442692 Z-0.125000 I0.184561 J0.184561
G02 X101.847287 Y161.547108 Z-0.125000 I0.256295 J0.104417
G02 X101.867741 Y161.651525 Z-0.125000 I0.276749 J-0.000000
G02 X101.924899 Y161.737608 Z-0.125000 I0.241719 J-0.098478
G02 X101.966991 Y161.775372 Z-0.125000 I0.213876 J-0.196053
G02 X102.011329 Y161.801108 Z-0.125000 I0.141184 J-0.192168
G02 X102.060135 Y161.816712 Z-0.125000 I0.095837 J-0.215632
G02 X102.115399 Y161.822275 Z-0.125000 I0.055264 J-0.271714
G02 X102.174213 Y161.816635 Z-0.125000 I-0.000000 J-0.309515
G02 X102.224760 Y161.801108 Z-0.125000 I-0.047107 J-0.243384
G02 X102.270732 Y161.775124 Z-0.125000 I-0.095119 J-0.221944
G02 X102.312954 Y161.737608 Z-0.125000 I-0.161406 J-0.224174
G02 X102.370111 Y161.651525 Z-0.125000 I-0.184561 J-0.184561
G02 X102.390565 Y161.547108 Z-0.125000 I-0.256295 J-0.104417
G01 X102.390565 Y161.547108 Z-0.125000
G00 Z5.000000

(End cutting path id: path3758)


(Start cutting path id: path3758)
(Change tool to Default tool)

G00 Z5.000000
G00 X99.667121 Y160.869775

G01 Z-0.125000 F100.0(Penetrate)
G02 X99.646058 Y160.758555 Z-0.125000 I-0.304168 J0.000000 F400.000000
G02 X99.589510 Y160.672219 Z-0.125000 I-0.235338 J0.092454
G02 X99.503426 Y160.615062 Z-0.125000 I-0.184561 J0.184561
G02 X99.399010 Y160.594608 Z-0.125000 I-0.104417 J0.256295
G02 X99.293866 Y160.614521 Z-0.125000 I0.000000 J0.287550
G02 X99.201454 Y160.672219 Z-0.125000 I0.108977 J0.277396
G02 X99.144906 Y160.758555 Z-0.125000 I0.178790 J0.178790
G02 X99.123843 Y160.869775 Z-0.125000 I0.283105 J0.111220
G02 X99.144297 Y160.974191 Z-0.125000 I0.276749 J0.000000
G02 X99.201454 Y161.060275 Z-0.125000 I0.241719 J-0.098478
G02 X99.293866 Y161.117974 Z-0.125000 I0.201389 J-0.219697
G02 X99.399010 Y161.137886 Z-0.125000 I0.105143 J-0.267637
G02 X99.503426 Y161.117432 Z-0.125000 I0.000000 J-0.276749
G02 X99.589510 Y161.060275 Z-0.125000 I-0.098478 J-0.241719
G02 X99.646667 Y160.974191 Z-0.125000 I-0.184561 J-0.184561
G02 X99.667121 Y160.869775 Z-0.125000 I-0.256295 J-0.104417
G01 X99.667121 Y160.869775 Z-0.125000
G00 Z5.000000

(End cutting path id: path3758)


(Start cutting path id: path3758)
(Change tool to Default tool)

G00 Z5.000000
G00 X100.351510 Y160.869775

G01 Z-0.125000 F100.0(Penetrate)
G02 X100.330446 Y160.758555 Z-0.125000 I-0.304168 J0.000000 F400.000000
G02 X100.273898 Y160.672219 Z-0.125000 I-0.235338 J0.092454
G02 X100.187563 Y160.615671 Z-0.125000 I-0.178790 J0.178790
G02 X100.076343 Y160.594608 Z-0.125000 I-0.111220 J0.283105
G02 X99.971926 Y160.615062 Z-0.125000 I0.000000 J0.276749
G02 X99.885843 Y160.672219 Z-0.125000 I0.098478 J0.241719
G02 X99.829295 Y160.758555 Z-0.125000 I0.178790 J0.178790
G02 X99.808232 Y160.869775 Z-0.125000 I0.283105 J0.111220
G02 X99.828686 Y160.974191 Z-0.125000 I0.276749 J0.000000
G02 X99.885843 Y161.060275 Z-0.125000 I0.241719 J-0.098478
G02 X99.971926 Y161.117432 Z-0.125000 I0.184561 J-0.184561
G02 X100.076343 Y161.137886 Z-0.125000 I0.104417 J-0.256295
G02 X100.187563 Y161.116823 Z-0.125000 I0.000000 J-0.304168
G02 X100.273898 Y161.060275 Z-0.125000 I-0.092454 J-0.235338
G02 X100.331056 Y160.974191 Z-0.125000 I-0.184561 J-0.184561
G02 X100.351510 Y160.869775 Z-0.125000 I-0.256295 J-0.104417
G01 X100.351510 Y160.869775 Z-0.125000
G00 Z5.000000

(End cutting path id: path3758)


(Start cutting path id: path3758)
(Change tool to Default tool)

G00 Z5.000000
G00 X101.028843 Y160.869775

G01 Z-0.125000 F100.0(Penetrate)
G02 X101.007780 Y160.758555 Z-0.125000 I-0.304168 J0.000000 F400.000000
G02 X100.951232 Y160.672219 Z-0.125000 I-0.235338 J0.092454
G02 X100.865148 Y160.615062 Z-0.125000 I-0.184561 J0.184561
G02 X100.760732 Y160.594608 Z-0.125000 I-0.104417 J0.256295
G02 X100.649512 Y160.615671 Z-0.125000 I-0.000000 J0.304168
G02 X100.563176 Y160.672219 Z-0.125000 I0.092454 J0.235338
G02 X100.506628 Y160.758555 Z-0.125000 I0.178790 J0.178790
G02 X100.485565 Y160.869775 Z-0.125000 I0.283105 J0.111220
G02 X100.506019 Y160.974191 Z-0.125000 I0.276749 J0.000000
G02 X100.563176 Y161.060275 Z-0.125000 I0.241719 J-0.098478
G02 X100.649512 Y161.116823 Z-0.125000 I0.178790 J-0.178790
G02 X100.760732 Y161.137886 Z-0.125000 I0.111220 J-0.283105
G02 X100.865148 Y161.117432 Z-0.125000 I0.000000 J-0.276749
G02 X100.951232 Y161.060275 Z-0.125000 I-0.098478 J-0.241719
G02 X101.008389 Y160.974191 Z-0.125000 I-0.184561 J-0.184561
G02 X101.028843 Y160.869775 Z-0.125000 I-0.256295 J-0.104417
G01 X101.028843 Y160.869775 Z-0.125000
G00 Z5.000000

(End cutting path id: path3758)


(Start cutting path id: path3758)
(Change tool to Default tool)

G00 Z5.000000
G00 X101.713232 Y160.869775

G01 Z-0.125000 F100.0(Penetrate)
G02 X101.707592 Y160.810960 Z-0.125000 I-0.309515 J0.000000 F400.000000
G02 X101.692065 Y160.760414 Z-0.125000 I-0.243384 J0.047107
G02 X101.666081 Y160.714442 Z-0.125000 I-0.221944 J0.095119
G02 X101.628565 Y160.672219 Z-0.125000 I-0.224174 J0.161406
G02 X101.542482 Y160.615062 Z-0.125000 I-0.184561 J0.184561
G02 X101.438065 Y160.594608 Z-0.125000 I-0.104417 J0.256295
G02 X101.332922 Y160.614521 Z-0.125000 I0.000000 J0.287550
G02 X101.240510 Y160.672219 Z-0.125000 I0.108977 J0.277396
G02 X101.183962 Y160.758555 Z-0.125000 I0.178790 J0.178790
G02 X101.162899 Y160.869775 Z-0.125000 I0.283105 J0.111220
G02 X101.183352 Y160.974191 Z-0.125000 I0.276749 J0.000000
G02 X101.240510 Y161.060275 Z-0.125000 I0.241719 J-0.098478
G02 X101.332922 Y161.117974 Z-0.125000 I0.201389 J-0.219697
G02 X101.438065 Y161.137886 Z-0.125000 I0.105143 J-0.267637
G02 X101.542482 Y161.117432 Z-0.125000 I0.000000 J-0.276749
G02 X101.628565 Y161.060275 Z-0.125000 I-0.098478 J-0.241719
G02 X101.666329 Y161.018182 Z-0.125000 I-0.196053 J-0.213876
G02 X101.692065 Y160.973844 Z-0.125000 I-0.192168 J-0.141184
G02 X101.707669 Y160.925039 Z-0.125000 I-0.215632 J-0.095837
G02 X101.713232 Y160.869775 Z-0.125000 I-0.271714 J-0.055264
G01 X101.713232 Y160.869775 Z-0.125000
G00 Z5.000000

(End cutting path id: path3758)


(Start cutting path id: path3756)
(Change tool to Default tool)

G00 Z5.000000
G00 X95.174716 Y165.625219

G01 Z-0.125000 F100.0(Penetrate)
G02 X95.154262 Y165.520803 Z-0.125000 I-0.276749 J0.000000 F400.000000
G02 X95.097105 Y165.434719 Z-0.125000 I-0.241719 J0.098478
G02 X95.011021 Y165.377562 Z-0.125000 I-0.184561 J0.184561
G02 X94.906605 Y165.357108 Z-0.125000 I-0.104417 J0.256295
G02 X94.801461 Y165.377021 Z-0.125000 I-0.000000 J0.287550
G02 X94.709049 Y165.434719 Z-0.125000 I0.108977 J0.277396
G02 X94.651892 Y165.520803 Z-0.125000 I0.184561 J0.184561
G02 X94.631438 Y165.625219 Z-0.125000 I0.256295 J0.104417
G02 X94.652501 Y165.736439 Z-0.125000 I0.304168 J0.000000
G02 X94.709049 Y165.822775 Z-0.125000 I0.235338 J-0.092454
G02 X94.801461 Y165.880474 Z-0.125000 I0.201389 J-0.219697
G02 X94.906605 Y165.900386 Z-0.125000 I0.105143 J-0.267637
G02 X95.011021 Y165.879932 Z-0.125000 I-0.000000 J-0.276749
G02 X95.097105 Y165.822775 Z-0.125000 I-0.098478 J-0.241719
G02 X95.153653 Y165.736439 Z-0.125000 I-0.178790 J-0.178790
G02 X95.174716 Y165.625219 Z-0.125000 I-0.283105 J-0.111220
G01 X95.174716 Y165.625219 Z-0.125000
G00 Z5.000000

(End cutting path id: path3756)


(Start cutting path id: path3756)
(Change tool to Default tool)

G00 Z5.000000
G00 X95.859105 Y165.625219

G01 Z-0.125000 F100.0(Penetrate)
G02 X95.838651 Y165.520803 Z-0.125000 I-0.276749 J0.000000 F400.000000
G02 X95.781494 Y165.434719 Z-0.125000 I-0.241719 J0.098478
G02 X95.695158 Y165.378171 Z-0.125000 I-0.178790 J0.178790
G02 X95.583938 Y165.357108 Z-0.125000 I-0.111220 J0.283105
G02 X95.479521 Y165.377562 Z-0.125000 I-0.000000 J0.276749
G02 X95.393438 Y165.434719 Z-0.125000 I0.098478 J0.241719
G02 X95.336281 Y165.520803 Z-0.125000 I0.184561 J0.184561
G02 X95.315827 Y165.625219 Z-0.125000 I0.256295 J0.104417
G02 X95.336890 Y165.736439 Z-0.125000 I0.304168 J0.000000
G02 X95.393438 Y165.822775 Z-0.125000 I0.235338 J-0.092454
G02 X95.479521 Y165.879932 Z-0.125000 I0.184561 J-0.184561
G02 X95.583938 Y165.900386 Z-0.125000 I0.104417 J-0.256295
G02 X95.695158 Y165.879323 Z-0.125000 I-0.000000 J-0.304168
G02 X95.781494 Y165.822775 Z-0.125000 I-0.092454 J-0.235338
G02 X95.838042 Y165.736439 Z-0.125000 I-0.178790 J-0.178790
G02 X95.859105 Y165.625219 Z-0.125000 I-0.283105 J-0.111220
G01 X95.859105 Y165.625219 Z-0.125000
G00 Z5.000000

(End cutting path id: path3756)


(Start cutting path id: path3756)
(Change tool to Default tool)

G00 Z5.000000
G00 X96.536438 Y165.625219

G01 Z-0.125000 F100.0(Penetrate)
G02 X96.515984 Y165.520803 Z-0.125000 I-0.276749 J0.000000 F400.000000
G02 X96.458827 Y165.434719 Z-0.125000 I-0.241719 J0.098478
G02 X96.372744 Y165.377562 Z-0.125000 I-0.184561 J0.184561
G02 X96.268327 Y165.357108 Z-0.125000 I-0.104417 J0.256295
G02 X96.157107 Y165.378171 Z-0.125000 I-0.000000 J0.304168
G02 X96.070771 Y165.434719 Z-0.125000 I0.092454 J0.235338
G02 X96.013614 Y165.520803 Z-0.125000 I0.184561 J0.184561
G02 X95.993160 Y165.625219 Z-0.125000 I0.256295 J0.104417
G02 X96.014223 Y165.736439 Z-0.125000 I0.304168 J0.000000
G02 X96.070771 Y165.822775 Z-0.125000 I0.235338 J-0.092454
G02 X96.157107 Y165.879323 Z-0.125000 I0.178790 J-0.178790
G02 X96.268327 Y165.900386 Z-0.125000 I0.111220 J-0.283105
G02 X96.372744 Y165.879932 Z-0.125000 I-0.000000 J-0.276749
G02 X96.458827 Y165.822775 Z-0.125000 I-0.098478 J-0.241719
G02 X96.515375 Y165.736439 Z-0.125000 I-0.178790 J-0.178790
G02 X96.536438 Y165.625219 Z-0.125000 I-0.283105 J-0.111220
G01 X96.536438 Y165.625219 Z-0.125000
G00 Z5.000000

(End cutting path id: path3756)


(Start cutting path id: path3756)
(Change tool to Default tool)

G00 Z5.000000
G00 X97.220827 Y165.625219

G01 Z-0.125000 F100.0(Penetrate)
G02 X97.215264 Y165.569955 Z-0.125000 I-0.277277 J-0.000000 F400.000000
G02 X97.199660 Y165.521150 Z-0.125000 I-0.231236 J0.047031
G02 X97.173924 Y165.476812 Z-0.125000 I-0.217904 J0.096846
G02 X97.136160 Y165.434719 Z-0.125000 I-0.233817 J0.171784
G02 X97.050077 Y165.377562 Z-0.125000 I-0.184561 J0.184561
G02 X96.945660 Y165.357108 Z-0.125000 I-0.104417 J0.256295
G02 X96.840517 Y165.377021 Z-0.125000 I-0.000000 J0.287550
G02 X96.748105 Y165.434719 Z-0.125000 I0.108977 J0.277396
G02 X96.690947 Y165.520803 Z-0.125000 I0.184561 J0.184561
G02 X96.670494 Y165.625219 Z-0.125000 I0.256295 J0.104417
G02 X96.691557 Y165.736439 Z-0.125000 I0.304168 J0.000000
G02 X96.748105 Y165.822775 Z-0.125000 I0.235338 J-0.092454
G02 X96.840517 Y165.880474 Z-0.125000 I0.201389 J-0.219697
G02 X96.945660 Y165.900386 Z-0.125000 I0.105143 J-0.267637
G02 X97.050077 Y165.879932 Z-0.125000 I-0.000000 J-0.276749
G02 X97.136160 Y165.822775 Z-0.125000 I-0.098478 J-0.241719
G02 X97.173676 Y165.780553 Z-0.125000 I-0.186659 J-0.203628
G02 X97.199660 Y165.734580 Z-0.125000 I-0.195960 J-0.141091
G02 X97.215188 Y165.684034 Z-0.125000 I-0.227857 J-0.097653
G02 X97.220827 Y165.625219 Z-0.125000 I-0.303876 J-0.058815
G01 X97.220827 Y165.625219 Z-0.125000
G00 Z5.000000

(End cutting path id: path3756)


(Start cutting path id: path3756)
(Change tool to Default tool)

G00 Z5.000000
G00 X94.497382 Y164.947886

G01 Z-0.125000 F100.0(Penetrate)
G02 X94.476929 Y164.843469 Z-0.125000 I-0.276749 J0.000000 F400.000000
G02 X94.419771 Y164.757386 Z-0.125000 I-0.241719 J0.098478
G02 X94.333688 Y164.700229 Z-0.125000 I-0.184561 J0.184561
G02 X94.229271 Y164.679775 Z-0.125000 I-0.104417 J0.256295
G02 X94.118052 Y164.700838 Z-0.125000 I0.000000 J0.304168
G02 X94.031716 Y164.757386 Z-0.125000 I0.092454 J0.235338
G02 X93.974559 Y164.843469 Z-0.125000 I0.184561 J0.184561
G02 X93.954105 Y164.947886 Z-0.125000 I0.256295 J0.104417
G02 X93.974559 Y165.052303 Z-0.125000 I0.276749 J0.000000
G02 X94.031716 Y165.138386 Z-0.125000 I0.241719 J-0.098478
G02 X94.073938 Y165.175901 Z-0.125000 I0.203628 J-0.186659
G02 X94.119910 Y165.201886 Z-0.125000 I0.141091 J-0.195960
G02 X94.170457 Y165.217413 Z-0.125000 I0.097653 J-0.227857
G02 X94.229271 Y165.223053 Z-0.125000 I0.058815 J-0.303876
G02 X94.284535 Y165.217490 Z-0.125000 I-0.000000 J-0.277277
G02 X94.333341 Y165.201886 Z-0.125000 I-0.047031 J-0.231236
G02 X94.377679 Y165.176149 Z-0.125000 I-0.096846 J-0.217904
G02 X94.419771 Y165.138386 Z-0.125000 I-0.171784 J-0.233817
G02 X94.476929 Y165.052303 Z-0.125000 I-0.184561 J-0.184561
G02 X94.497382 Y164.947886 Z-0.125000 I-0.256295 J-0.104417
G01 X94.497382 Y164.947886 Z-0.125000
G00 Z5.000000

(End cutting path id: path3756)


(Start cutting path id: path3756)
(Change tool to Default tool)

G00 Z5.000000
G00 X95.174716 Y164.947886

G01 Z-0.125000 F100.0(Penetrate)
G02 X95.154262 Y164.843469 Z-0.125000 I-0.276749 J0.000000 F400.000000
G02 X95.097105 Y164.757386 Z-0.125000 I-0.241719 J0.098478
G02 X95.011021 Y164.700229 Z-0.125000 I-0.184561 J0.184561
G02 X94.906605 Y164.679775 Z-0.125000 I-0.104417 J0.256295
G02 X94.801461 Y164.699687 Z-0.125000 I0.000000 J0.287550
G02 X94.709049 Y164.757386 Z-0.125000 I0.108977 J0.277396
G02 X94.651892 Y164.843469 Z-0.125000 I0.184561 J0.184561
G02 X94.631438 Y164.947886 Z-0.125000 I0.256295 J0.104417
G02 X94.651892 Y165.052303 Z-0.125000 I0.276749 J0.000000
G02 X94.709049 Y165.138386 Z-0.125000 I0.241719 J-0.098478
G02 X94.802562 Y165.201697 Z-0.125000 I0.211130 J-0.211130
G02 X94.906605 Y165.223053 Z-0.125000 I0.104043 J-0.242767
G02 X94.961869 Y165.217490 Z-0.125000 I-0.000000 J-0.277277
G02 X95.010674 Y165.201886 Z-0.125000 I-0.047031 J-0.231236
G02 X95.055012 Y165.176149 Z-0.125000 I-0.096846 J-0.217904
G02 X95.097105 Y165.138386 Z-0.125000 I-0.171784 J-0.233817
G02 X95.154262 Y165.052303 Z-0.125000 I-0.184561 J-0.184561
G02 X95.174716 Y164.947886 Z-0.125000 I-0.256295 J-0.104417
G01 X95.174716 Y164.947886 Z-0.125000
G00 Z5.000000

(End cutting path id: path3756)


(Start cutting path id: path3756)
(Change tool to Default tool)

G00 Z5.000000
G00 X95.859105 Y164.947886

G01 Z-0.125000 F100.0(Penetrate)
G02 X95.838651 Y164.843469 Z-0.125000 I-0.276749 J0.000000 F400.000000
G02 X95.781494 Y164.757386 Z-0.125000 I-0.241719 J0.098478
G02 X95.695158 Y164.700838 Z-0.125000 I-0.178790 J0.178790
G02 X95.583938 Y164.679775 Z-0.125000 I-0.111220 J0.283105
G02 X95.479521 Y164.700229 Z-0.125000 I0.000000 J0.276749
G02 X95.393438 Y164.757386 Z-0.125000 I0.098478 J0.241719
G02 X95.336281 Y164.843469 Z-0.125000 I0.184561 J0.184561
G02 X95.315827 Y164.947886 Z-0.125000 I0.256295 J0.104417
G02 X95.336281 Y165.052303 Z-0.125000 I0.276749 J0.000000
G02 X95.393438 Y165.138386 Z-0.125000 I0.241719 J-0.098478
G02 X95.435531 Y165.176149 Z-0.125000 I0.213876 J-0.196053
G02 X95.479869 Y165.201886 Z-0.125000 I0.141184 J-0.192168
G02 X95.528674 Y165.217490 Z-0.125000 I0.095837 J-0.215632
G02 X95.583938 Y165.223053 Z-0.125000 I0.055264 J-0.271714
G02 X95.642753 Y165.217413 Z-0.125000 I-0.000000 J-0.309515
G02 X95.693299 Y165.201886 Z-0.125000 I-0.047107 J-0.243384
G02 X95.739271 Y165.175901 Z-0.125000 I-0.095119 J-0.221944
G02 X95.781494 Y165.138386 Z-0.125000 I-0.161406 J-0.224174
G02 X95.838651 Y165.052303 Z-0.125000 I-0.184561 J-0.184561
G02 X95.859105 Y164.947886 Z-0.125000 I-0.256295 J-0.104417
G01 X95.859105 Y164.947886 Z-0.125000
G00 Z5.000000

(End cutting path id: path3756)


(Start cutting path id: path3756)
(Change tool to Default tool)

G00 Z5.000000
G00 X96.536438 Y164.947886

G01 Z-0.125000 F100.0(Penetrate)
G02 X96.515984 Y164.843469 Z-0.125000 I-0.276749 J0.000000 F400.000000
G02 X96.458827 Y164.757386 Z-0.125000 I-0.241719 J0.098478
G02 X96.372744 Y164.700229 Z-0.125000 I-0.184561 J0.184561
G02 X96.268327 Y164.679775 Z-0.125000 I-0.104417 J0.256295
G02 X96.157107 Y164.700838 Z-0.125000 I0.000000 J0.304168
G02 X96.070771 Y164.757386 Z-0.125000 I0.092454 J0.235338
G02 X96.013614 Y164.843469 Z-0.125000 I0.184561 J0.184561
G02 X95.993160 Y164.947886 Z-0.125000 I0.256295 J0.104417
G02 X96.013614 Y165.052303 Z-0.125000 I0.276749 J0.000000
G02 X96.070771 Y165.138386 Z-0.125000 I0.241719 J-0.098478
G02 X96.112994 Y165.175901 Z-0.125000 I0.203628 J-0.186659
G02 X96.158966 Y165.201886 Z-0.125000 I0.141091 J-0.195960
G02 X96.209512 Y165.217413 Z-0.125000 I0.097653 J-0.227857
G02 X96.268327 Y165.223053 Z-0.125000 I0.058815 J-0.303876
G02 X96.323591 Y165.217490 Z-0.125000 I0.000000 J-0.277277
G02 X96.372396 Y165.201886 Z-0.125000 I-0.047031 J-0.231236
G02 X96.416734 Y165.176149 Z-0.125000 I-0.096846 J-0.217904
G02 X96.458827 Y165.138386 Z-0.125000 I-0.171784 J-0.233817
G02 X96.515984 Y165.052303 Z-0.125000 I-0.184561 J-0.184561
G02 X96.536438 Y164.947886 Z-0.125000 I-0.256295 J-0.104417
G01 X96.536438 Y164.947886 Z-0.125000
G00 Z5.000000

(End cutting path id: path3756)


(Start cutting path id: path3756)
(Change tool to Default tool)

G00 Z5.000000
G00 X97.220827 Y164.947886

G01 Z-0.125000 F100.0(Penetrate)
G02 X97.215264 Y164.892622 Z-0.125000 I-0.277277 J-0.000000 F400.000000
G02 X97.199660 Y164.843817 Z-0.125000 I-0.231236 J0.047031
G02 X97.173924 Y164.799478 Z-0.125000 I-0.217904 J0.096846
G02 X97.136160 Y164.757386 Z-0.125000 I-0.233817 J0.171784
G02 X97.050077 Y164.700229 Z-0.125000 I-0.184561 J0.184561
G02 X96.945660 Y164.679775 Z-0.125000 I-0.104417 J0.256295
G02 X96.840517 Y164.699687 Z-0.125000 I0.000000 J0.287550
G02 X96.748105 Y164.757386 Z-0.125000 I0.108977 J0.277396
G02 X96.690947 Y164.843469 Z-0.125000 I0.184561 J0.184561
G02 X96.670494 Y164.947886 Z-0.125000 I0.256295 J0.104417
G02 X96.690947 Y165.052303 Z-0.125000 I0.276749 J0.000000
G02 X96.748105 Y165.138386 Z-0.125000 I0.241719 J-0.098478
G02 X96.841617 Y165.201697 Z-0.125000 I0.211130 J-0.211130
G02 X96.945660 Y165.223053 Z-0.125000 I0.104043 J-0.242767
G02 X97.000924 Y165.217490 Z-0.125000 I0.000000 J-0.277277
G02 X97.049730 Y165.201886 Z-0.125000 I-0.047031 J-0.231236
G02 X97.094068 Y165.176149 Z-0.125000 I-0.096846 J-0.217904
G02 X97.136160 Y165.138386 Z-0.125000 I-0.171784 J-0.233817
G02 X97.173924 Y165.096294 Z-0.125000 I-0.196053 J-0.213876
G02 X97.199660 Y165.051955 Z-0.125000 I-0.192168 J-0.141184
G02 X97.215264 Y165.003150 Z-0.125000 I-0.215632 J-0.095837
G02 X97.220827 Y164.947886 Z-0.125000 I-0.271714 J-0.055264
G01 X97.220827 Y164.947886 Z-0.125000
G00 Z5.000000

(End cutting path id: path3756)


(Start cutting path id: path3756)
(Change tool to Default tool)

G00 Z5.000000
G00 X97.898160 Y164.947886

G01 Z-0.125000 F100.0(Penetrate)
G02 X97.877706 Y164.843469 Z-0.125000 I-0.276749 J0.000000 F400.000000
G02 X97.820549 Y164.757386 Z-0.125000 I-0.241719 J0.098478
G02 X97.734213 Y164.700838 Z-0.125000 I-0.178790 J0.178790
G02 X97.622994 Y164.679775 Z-0.125000 I-0.111220 J0.283105
G02 X97.518577 Y164.700229 Z-0.125000 I0.000000 J0.276749
G02 X97.432494 Y164.757386 Z-0.125000 I0.098478 J0.241719
G02 X97.375336 Y164.843469 Z-0.125000 I0.184561 J0.184561
G02 X97.354883 Y164.947886 Z-0.125000 I0.256295 J0.104417
G02 X97.375336 Y165.052303 Z-0.125000 I0.276749 J0.000000
G02 X97.432494 Y165.138386 Z-0.125000 I0.241719 J-0.098478
G02 X97.474586 Y165.176149 Z-0.125000 I0.213876 J-0.196053
G02 X97.518924 Y165.201886 Z-0.125000 I0.141184 J-0.192168
G02 X97.567730 Y165.217490 Z-0.125000 I0.095837 J-0.215632
G02 X97.622994 Y165.223053 Z-0.125000 I0.055264 J-0.271714
G02 X97.681808 Y165.217413 Z-0.125000 I-0.000000 J-0.309515
G02 X97.732355 Y165.201886 Z-0.125000 I-0.047107 J-0.243384
G02 X97.778327 Y165.175901 Z-0.125000 I-0.095119 J-0.221944
G02 X97.820549 Y165.138386 Z-0.125000 I-0.161406 J-0.224174
G02 X97.877706 Y165.052303 Z-0.125000 I-0.184561 J-0.184561
G02 X97.898160 Y164.947886 Z-0.125000 I-0.256295 J-0.104417
G01 X97.898160 Y164.947886 Z-0.125000
G00 Z5.000000

(End cutting path id: path3756)


(Start cutting path id: path3756)
(Change tool to Default tool)

G00 Z5.000000
G00 X94.497382 Y164.270553

G01 Z-0.125000 F100.0(Penetrate)
G02 X94.476319 Y164.159333 Z-0.125000 I-0.304168 J-0.000000 F400.000000
G02 X94.419771 Y164.072997 Z-0.125000 I-0.235338 J0.092454
G02 X94.333688 Y164.015840 Z-0.125000 I-0.184561 J0.184561
G02 X94.229271 Y163.995386 Z-0.125000 I-0.104417 J0.256295
G02 X94.118052 Y164.016449 Z-0.125000 I0.000000 J0.304168
G02 X94.031716 Y164.072997 Z-0.125000 I0.092454 J0.235338
G02 X93.975168 Y164.159333 Z-0.125000 I0.178790 J0.178790
G02 X93.954105 Y164.270553 Z-0.125000 I0.283105 J0.111220
G02 X93.974559 Y164.374969 Z-0.125000 I0.276749 J0.000000
G02 X94.031716 Y164.461053 Z-0.125000 I0.241719 J-0.098478
G02 X94.118052 Y164.517601 Z-0.125000 I0.178790 J-0.178790
G02 X94.229271 Y164.538664 Z-0.125000 I0.111220 J-0.283105
G02 X94.333688 Y164.518210 Z-0.125000 I0.000000 J-0.276749
G02 X94.419771 Y164.461053 Z-0.125000 I-0.098478 J-0.241719
G02 X94.476929 Y164.374969 Z-0.125000 I-0.184561 J-0.184561
G02 X94.497382 Y164.270553 Z-0.125000 I-0.256295 J-0.104417
G01 X94.497382 Y164.270553 Z-0.125000
G00 Z5.000000

(End cutting path id: path3756)


(Start cutting path id: path3756)
(Change tool to Default tool)

G00 Z5.000000
G00 X95.174716 Y164.270553

G01 Z-0.125000 F100.0(Penetrate)
G02 X95.153653 Y164.159333 Z-0.125000 I-0.304168 J-0.000000 F400.000000
G02 X95.097105 Y164.072997 Z-0.125000 I-0.235338 J0.092454
G02 X95.011021 Y164.015840 Z-0.125000 I-0.184561 J0.184561
G02 X94.906605 Y163.995386 Z-0.125000 I-0.104417 J0.256295
G02 X94.801461 Y164.015298 Z-0.125000 I0.000000 J0.287550
G02 X94.709049 Y164.072997 Z-0.125000 I0.108977 J0.277396
G02 X94.652501 Y164.159333 Z-0.125000 I0.178790 J0.178790
G02 X94.631438 Y164.270553 Z-0.125000 I0.283105 J0.111220
G02 X94.651892 Y164.374969 Z-0.125000 I0.276749 J0.000000
G02 X94.709049 Y164.461053 Z-0.125000 I0.241719 J-0.098478
G02 X94.801461 Y164.518751 Z-0.125000 I0.201389 J-0.219697
G02 X94.906605 Y164.538664 Z-0.125000 I0.105143 J-0.267637
G02 X95.011021 Y164.518210 Z-0.125000 I-0.000000 J-0.276749
G02 X95.097105 Y164.461053 Z-0.125000 I-0.098478 J-0.241719
G02 X95.154262 Y164.374969 Z-0.125000 I-0.184561 J-0.184561
G02 X95.174716 Y164.270553 Z-0.125000 I-0.256295 J-0.104417
G01 X95.174716 Y164.270553 Z-0.125000
G00 Z5.000000

(End cutting path id: path3756)


(Start cutting path id: path3756)
(Change tool to Default tool)

G00 Z5.000000
G00 X97.220827 Y164.270553

G01 Z-0.125000 F100.0(Penetrate)
G02 X97.215188 Y164.211738 Z-0.125000 I-0.309515 J0.000000 F400.000000
G02 X97.199660 Y164.161192 Z-0.125000 I-0.243384 J0.047107
G02 X97.173676 Y164.115220 Z-0.125000 I-0.221944 J0.095119
G02 X97.136160 Y164.072997 Z-0.125000 I-0.224174 J0.161406
G02 X97.050077 Y164.015840 Z-0.125000 I-0.184561 J0.184561
G02 X96.945660 Y163.995386 Z-0.125000 I-0.104417 J0.256295
G02 X96.840517 Y164.015298 Z-0.125000 I0.000000 J0.287550
G02 X96.748105 Y164.072997 Z-0.125000 I0.108977 J0.277396
G02 X96.691557 Y164.159333 Z-0.125000 I0.178790 J0.178790
G02 X96.670494 Y164.270553 Z-0.125000 I0.283105 J0.111220
G02 X96.690947 Y164.374969 Z-0.125000 I0.276749 J0.000000
G02 X96.748105 Y164.461053 Z-0.125000 I0.241719 J-0.098478
G02 X96.840517 Y164.518751 Z-0.125000 I0.201389 J-0.219697
G02 X96.945660 Y164.538664 Z-0.125000 I0.105143 J-0.267637
G02 X97.050077 Y164.518210 Z-0.125000 I-0.000000 J-0.276749
G02 X97.136160 Y164.461053 Z-0.125000 I-0.098478 J-0.241719
G02 X97.173924 Y164.418960 Z-0.125000 I-0.196053 J-0.213876
G02 X97.199660 Y164.374622 Z-0.125000 I-0.192168 J-0.141184
G02 X97.215264 Y164.325817 Z-0.125000 I-0.215632 J-0.095837
G02 X97.220827 Y164.270553 Z-0.125000 I-0.271714 J-0.055264
G01 X97.220827 Y164.270553 Z-0.125000
G00 Z5.000000

(End cutting path id: path3756)


(Start cutting path id: path3756)
(Change tool to Default tool)

G00 Z5.000000
G00 X97.898160 Y164.270553

G01 Z-0.125000 F100.0(Penetrate)
G02 X97.877097 Y164.159333 Z-0.125000 I-0.304168 J-0.000000 F400.000000
G02 X97.820549 Y164.072997 Z-0.125000 I-0.235338 J0.092454
G02 X97.734213 Y164.016449 Z-0.125000 I-0.178790 J0.178790
G02 X97.622994 Y163.995386 Z-0.125000 I-0.111220 J0.283105
G02 X97.518577 Y164.015840 Z-0.125000 I0.000000 J0.276749
G02 X97.432494 Y164.072997 Z-0.125000 I0.098478 J0.241719
G02 X97.375946 Y164.159333 Z-0.125000 I0.178790 J0.178790
G02 X97.354883 Y164.270553 Z-0.125000 I0.283105 J0.111220
G02 X97.375336 Y164.374969 Z-0.125000 I0.276749 J0.000000
G02 X97.432494 Y164.461053 Z-0.125000 I0.241719 J-0.098478
G02 X97.518577 Y164.518210 Z-0.125000 I0.184561 J-0.184561
G02 X97.622994 Y164.538664 Z-0.125000 I0.104417 J-0.256295
G02 X97.734213 Y164.517601 Z-0.125000 I0.000000 J-0.304168
G02 X97.820549 Y164.461053 Z-0.125000 I-0.092454 J-0.235338
G02 X97.877706 Y164.374969 Z-0.125000 I-0.184561 J-0.184561
G02 X97.898160 Y164.270553 Z-0.125000 I-0.256295 J-0.104417
G01 X97.898160 Y164.270553 Z-0.125000
G00 Z5.000000

(End cutting path id: path3756)


(Start cutting path id: path3756)
(Change tool to Default tool)

G00 Z5.000000
G00 X94.497382 Y163.586164

G01 Z-0.125000 F100.0(Penetrate)
G02 X94.476929 Y163.481747 Z-0.125000 I-0.276749 J-0.000000 F400.000000
G02 X94.419771 Y163.395664 Z-0.125000 I-0.241719 J0.098478
G02 X94.333688 Y163.338507 Z-0.125000 I-0.184561 J0.184561
G02 X94.229271 Y163.318053 Z-0.125000 I-0.104417 J0.256295
G02 X94.118052 Y163.339116 Z-0.125000 I0.000000 J0.304168
G02 X94.031716 Y163.395664 Z-0.125000 I0.092454 J0.235338
G02 X93.974559 Y163.481747 Z-0.125000 I0.184561 J0.184561
G02 X93.954105 Y163.586164 Z-0.125000 I0.256295 J0.104417
G02 X93.975168 Y163.697384 Z-0.125000 I0.304168 J-0.000000
G02 X94.031716 Y163.783719 Z-0.125000 I0.235338 J-0.092454
G02 X94.118052 Y163.840267 Z-0.125000 I0.178790 J-0.178790
G02 X94.229271 Y163.861330 Z-0.125000 I0.111220 J-0.283105
G02 X94.333688 Y163.840877 Z-0.125000 I0.000000 J-0.276749
G02 X94.419771 Y163.783719 Z-0.125000 I-0.098478 J-0.241719
G02 X94.476319 Y163.697384 Z-0.125000 I-0.178790 J-0.178790
G02 X94.497382 Y163.586164 Z-0.125000 I-0.283105 J-0.111220
G01 X94.497382 Y163.586164 Z-0.125000
G00 Z5.000000

(End cutting path id: path3756)


(Start cutting path id: path3756)
(Change tool to Default tool)

G00 Z5.000000
G00 X95.174716 Y163.586164

G01 Z-0.125000 F100.0(Penetrate)
G02 X95.154262 Y163.481747 Z-0.125000 I-0.276749 J-0.000000 F400.000000
G02 X95.097105 Y163.395664 Z-0.125000 I-0.241719 J0.098478
G02 X95.011021 Y163.338507 Z-0.125000 I-0.184561 J0.184561
G02 X94.906605 Y163.318053 Z-0.125000 I-0.104417 J0.256295
G02 X94.801461 Y163.337965 Z-0.125000 I0.000000 J0.287550
G02 X94.709049 Y163.395664 Z-0.125000 I0.108977 J0.277396
G02 X94.651892 Y163.481747 Z-0.125000 I0.184561 J0.184561
G02 X94.631438 Y163.586164 Z-0.125000 I0.256295 J0.104417
G02 X94.652501 Y163.697384 Z-0.125000 I0.304168 J-0.000000
G02 X94.709049 Y163.783719 Z-0.125000 I0.235338 J-0.092454
G02 X94.801461 Y163.841418 Z-0.125000 I0.201389 J-0.219697
G02 X94.906605 Y163.861330 Z-0.125000 I0.105143 J-0.267637
G02 X95.011021 Y163.840877 Z-0.125000 I0.000000 J-0.276749
G02 X95.097105 Y163.783719 Z-0.125000 I-0.098478 J-0.241719
G02 X95.153653 Y163.697384 Z-0.125000 I-0.178790 J-0.178790
G02 X95.174716 Y163.586164 Z-0.125000 I-0.283105 J-0.111220
G01 X95.174716 Y163.586164 Z-0.125000
G00 Z5.000000

(End cutting path id: path3756)


(Start cutting path id: path3756)
(Change tool to Default tool)

G00 Z5.000000
G00 X97.220827 Y163.586164

G01 Z-0.125000 F100.0(Penetrate)
G02 X97.215264 Y163.530900 Z-0.125000 I-0.277277 J0.000000 F400.000000
G02 X97.199660 Y163.482094 Z-0.125000 I-0.231236 J0.047031
G02 X97.173924 Y163.437756 Z-0.125000 I-0.217904 J0.096846
G02 X97.136160 Y163.395664 Z-0.125000 I-0.233817 J0.171784
G02 X97.050077 Y163.338507 Z-0.125000 I-0.184561 J0.184561
G02 X96.945660 Y163.318053 Z-0.125000 I-0.104417 J0.256295
G02 X96.840517 Y163.337965 Z-0.125000 I0.000000 J0.287550
G02 X96.748105 Y163.395664 Z-0.125000 I0.108977 J0.277396
G02 X96.690947 Y163.481747 Z-0.125000 I0.184561 J0.184561
G02 X96.670494 Y163.586164 Z-0.125000 I0.256295 J0.104417
G02 X96.691557 Y163.697384 Z-0.125000 I0.304168 J-0.000000
G02 X96.748105 Y163.783719 Z-0.125000 I0.235338 J-0.092454
G02 X96.840517 Y163.841418 Z-0.125000 I0.201389 J-0.219697
G02 X96.945660 Y163.861330 Z-0.125000 I0.105143 J-0.267637
G02 X97.050077 Y163.840877 Z-0.125000 I0.000000 J-0.276749
G02 X97.136160 Y163.783719 Z-0.125000 I-0.098478 J-0.241719
G02 X97.173676 Y163.741497 Z-0.125000 I-0.186659 J-0.203628
G02 X97.199660 Y163.695525 Z-0.125000 I-0.195960 J-0.141091
G02 X97.215188 Y163.644978 Z-0.125000 I-0.227857 J-0.097653
G02 X97.220827 Y163.586164 Z-0.125000 I-0.303876 J-0.058815
G01 X97.220827 Y163.586164 Z-0.125000
G00 Z5.000000

(End cutting path id: path3756)


(Start cutting path id: path3756)
(Change tool to Default tool)

G00 Z5.000000
G00 X97.898160 Y163.586164

G01 Z-0.125000 F100.0(Penetrate)
G02 X97.877706 Y163.481747 Z-0.125000 I-0.276749 J-0.000000 F400.000000
G02 X97.820549 Y163.395664 Z-0.125000 I-0.241719 J0.098478
G02 X97.734213 Y163.339116 Z-0.125000 I-0.178790 J0.178790
G02 X97.622994 Y163.318053 Z-0.125000 I-0.111220 J0.283105
G02 X97.518577 Y163.338507 Z-0.125000 I0.000000 J0.276749
G02 X97.432494 Y163.395664 Z-0.125000 I0.098478 J0.241719
G02 X97.375336 Y163.481747 Z-0.125000 I0.184561 J0.184561
G02 X97.354883 Y163.586164 Z-0.125000 I0.256295 J0.104417
G02 X97.375946 Y163.697384 Z-0.125000 I0.304168 J-0.000000
G02 X97.432494 Y163.783719 Z-0.125000 I0.235338 J-0.092454
G02 X97.518577 Y163.840877 Z-0.125000 I0.184561 J-0.184561
G02 X97.622994 Y163.861330 Z-0.125000 I0.104417 J-0.256295
G02 X97.734213 Y163.840267 Z-0.125000 I0.000000 J-0.304168
G02 X97.820549 Y163.783719 Z-0.125000 I-0.092454 J-0.235338
G02 X97.877097 Y163.697384 Z-0.125000 I-0.178790 J-0.178790
G02 X97.898160 Y163.586164 Z-0.125000 I-0.283105 J-0.111220
G01 X97.898160 Y163.586164 Z-0.125000
G00 Z5.000000

(End cutting path id: path3756)


(Start cutting path id: path3756)
(Change tool to Default tool)

G00 Z5.000000
G00 X94.497382 Y162.908830

G01 Z-0.125000 F100.0(Penetrate)
G02 X94.477470 Y162.803687 Z-0.125000 I-0.287550 J-0.000000 F400.000000
G02 X94.419771 Y162.711275 Z-0.125000 I-0.277396 J0.108977
G02 X94.333688 Y162.654118 Z-0.125000 I-0.184561 J0.184561
G02 X94.229271 Y162.633664 Z-0.125000 I-0.104417 J0.256295
G02 X94.118052 Y162.654727 Z-0.125000 I-0.000000 J0.304168
G02 X94.031716 Y162.711275 Z-0.125000 I0.092454 J0.235338
G02 X93.974017 Y162.803687 Z-0.125000 I0.219697 J0.201389
G02 X93.954105 Y162.908830 Z-0.125000 I0.267637 J0.105143
G02 X93.974559 Y163.013247 Z-0.125000 I0.276749 J-0.000000
G02 X94.031716 Y163.099330 Z-0.125000 I0.241719 J-0.098478
G02 X94.118052 Y163.155878 Z-0.125000 I0.178790 J-0.178790
G02 X94.229271 Y163.176942 Z-0.125000 I0.111220 J-0.283105
G02 X94.333688 Y163.156488 Z-0.125000 I0.000000 J-0.276749
G02 X94.419771 Y163.099330 Z-0.125000 I-0.098478 J-0.241719
G02 X94.476929 Y163.013247 Z-0.125000 I-0.184561 J-0.184561
G02 X94.497382 Y162.908830 Z-0.125000 I-0.256295 J-0.104417
G01 X94.497382 Y162.908830 Z-0.125000
G00 Z5.000000

(End cutting path id: path3756)


(Start cutting path id: path3756)
(Change tool to Default tool)

G00 Z5.000000
G00 X95.174716 Y162.908830

G01 Z-0.125000 F100.0(Penetrate)
G02 X95.154803 Y162.803687 Z-0.125000 I-0.287550 J-0.000000 F400.000000
G02 X95.097105 Y162.711275 Z-0.125000 I-0.277396 J0.108977
G02 X95.011021 Y162.654118 Z-0.125000 I-0.184561 J0.184561
G02 X94.906605 Y162.633664 Z-0.125000 I-0.104417 J0.256295
G02 X94.801461 Y162.653576 Z-0.125000 I0.000000 J0.287550
G02 X94.709049 Y162.711275 Z-0.125000 I0.108977 J0.277396
G02 X94.651350 Y162.803687 Z-0.125000 I0.219697 J0.201389
G02 X94.631438 Y162.908830 Z-0.125000 I0.267637 J0.105143
G02 X94.651892 Y163.013247 Z-0.125000 I0.276749 J-0.000000
G02 X94.709049 Y163.099330 Z-0.125000 I0.241719 J-0.098478
G02 X94.801461 Y163.157029 Z-0.125000 I0.201389 J-0.219697
G02 X94.906605 Y163.176942 Z-0.125000 I0.105143 J-0.267637
G02 X95.011021 Y163.156488 Z-0.125000 I-0.000000 J-0.276749
G02 X95.097105 Y163.099330 Z-0.125000 I-0.098478 J-0.241719
G02 X95.154262 Y163.013247 Z-0.125000 I-0.184561 J-0.184561
G02 X95.174716 Y162.908830 Z-0.125000 I-0.256295 J-0.104417
G01 X95.174716 Y162.908830 Z-0.125000
G00 Z5.000000

(End cutting path id: path3756)


(Start cutting path id: path3756)
(Change tool to Default tool)

G00 Z5.000000
G00 X97.220827 Y162.908830

G01 Z-0.125000 F100.0(Penetrate)
G02 X97.199471 Y162.804787 Z-0.125000 I-0.264123 J-0.000000 F400.000000
G02 X97.136160 Y162.711275 Z-0.125000 I-0.274441 J0.117618
G02 X97.050077 Y162.654118 Z-0.125000 I-0.184561 J0.184561
G02 X96.945660 Y162.633664 Z-0.125000 I-0.104417 J0.256295
G02 X96.840517 Y162.653576 Z-0.125000 I-0.000000 J0.287550
G02 X96.748105 Y162.711275 Z-0.125000 I0.108977 J0.277396
G02 X96.690406 Y162.803687 Z-0.125000 I0.219697 J0.201389
G02 X96.670494 Y162.908830 Z-0.125000 I0.267637 J0.105143
G02 X96.690947 Y163.013247 Z-0.125000 I0.276749 J-0.000000
G02 X96.748105 Y163.099330 Z-0.125000 I0.241719 J-0.098478
G02 X96.840517 Y163.157029 Z-0.125000 I0.201389 J-0.219697
G02 X96.945660 Y163.176942 Z-0.125000 I0.105143 J-0.267637
G02 X97.050077 Y163.156488 Z-0.125000 I-0.000000 J-0.276749
G02 X97.136160 Y163.099330 Z-0.125000 I-0.098478 J-0.241719
G02 X97.173924 Y163.057238 Z-0.125000 I-0.196053 J-0.213876
G02 X97.199660 Y163.012900 Z-0.125000 I-0.192168 J-0.141184
G02 X97.215264 Y162.964094 Z-0.125000 I-0.215632 J-0.095837
G02 X97.220827 Y162.908830 Z-0.125000 I-0.271714 J-0.055264
G01 X97.220827 Y162.908830 Z-0.125000
G00 Z5.000000

(End cutting path id: path3756)


(Start cutting path id: path3756)
(Change tool to Default tool)

G00 Z5.000000
G00 X97.898160 Y162.908830

G01 Z-0.125000 F100.0(Penetrate)
G02 X97.878248 Y162.803687 Z-0.125000 I-0.287550 J-0.000000 F400.000000
G02 X97.820549 Y162.711275 Z-0.125000 I-0.277396 J0.108977
G02 X97.734213 Y162.654727 Z-0.125000 I-0.178790 J0.178790
G02 X97.622994 Y162.633664 Z-0.125000 I-0.111220 J0.283105
G02 X97.518577 Y162.654118 Z-0.125000 I-0.000000 J0.276749
G02 X97.432494 Y162.711275 Z-0.125000 I0.098478 J0.241719
G02 X97.374795 Y162.803687 Z-0.125000 I0.219697 J0.201389
G02 X97.354883 Y162.908830 Z-0.125000 I0.267637 J0.105143
G02 X97.375336 Y163.013247 Z-0.125000 I0.276749 J-0.000000
G02 X97.432494 Y163.099330 Z-0.125000 I0.241719 J-0.098478
G02 X97.518577 Y163.156488 Z-0.125000 I0.184561 J-0.184561
G02 X97.622994 Y163.176942 Z-0.125000 I0.104417 J-0.256295
G02 X97.734213 Y163.155878 Z-0.125000 I-0.000000 J-0.304168
G02 X97.820549 Y163.099330 Z-0.125000 I-0.092454 J-0.235338
G02 X97.877706 Y163.013247 Z-0.125000 I-0.184561 J-0.184561
G02 X97.898160 Y162.908830 Z-0.125000 I-0.256295 J-0.104417
G01 X97.898160 Y162.908830 Z-0.125000
G00 Z5.000000

(End cutting path id: path3756)


(Start cutting path id: path3756)
(Change tool to Default tool)

G00 Z5.000000
G00 X94.497382 Y162.231497

G01 Z-0.125000 F100.0(Penetrate)
G02 X94.476319 Y162.120277 Z-0.125000 I-0.304168 J0.000000 F400.000000
G02 X94.419771 Y162.033942 Z-0.125000 I-0.235338 J0.092454
G02 X94.333688 Y161.976784 Z-0.125000 I-0.184561 J0.184561
G02 X94.229271 Y161.956330 Z-0.125000 I-0.104417 J0.256295
G02 X94.118052 Y161.977394 Z-0.125000 I-0.000000 J0.304168
G02 X94.031716 Y162.033942 Z-0.125000 I0.092454 J0.235338
G02 X93.975168 Y162.120277 Z-0.125000 I0.178790 J0.178790
G02 X93.954105 Y162.231497 Z-0.125000 I0.283105 J0.111220
G02 X93.974559 Y162.335914 Z-0.125000 I0.276749 J0.000000
G02 X94.031716 Y162.421997 Z-0.125000 I0.241719 J-0.098478
G02 X94.118052 Y162.478545 Z-0.125000 I0.178790 J-0.178790
G02 X94.229271 Y162.499608 Z-0.125000 I0.111220 J-0.283105
G02 X94.333688 Y162.479154 Z-0.125000 I0.000000 J-0.276749
G02 X94.419771 Y162.421997 Z-0.125000 I-0.098478 J-0.241719
G02 X94.476929 Y162.335914 Z-0.125000 I-0.184561 J-0.184561
G02 X94.497382 Y162.231497 Z-0.125000 I-0.256295 J-0.104417
G01 X94.497382 Y162.231497 Z-0.125000
G00 Z5.000000

(End cutting path id: path3756)


(Start cutting path id: path3756)
(Change tool to Default tool)

G00 Z5.000000
G00 X95.174716 Y162.231497

G01 Z-0.125000 F100.0(Penetrate)
G02 X95.153653 Y162.120277 Z-0.125000 I-0.304168 J0.000000 F400.000000
G02 X95.097105 Y162.033942 Z-0.125000 I-0.235338 J0.092454
G02 X95.011021 Y161.976784 Z-0.125000 I-0.184561 J0.184561
G02 X94.906605 Y161.956330 Z-0.125000 I-0.104417 J0.256295
G02 X94.801461 Y161.976243 Z-0.125000 I-0.000000 J0.287550
G02 X94.709049 Y162.033942 Z-0.125000 I0.108977 J0.277396
G02 X94.652501 Y162.120277 Z-0.125000 I0.178790 J0.178790
G02 X94.631438 Y162.231497 Z-0.125000 I0.283105 J0.111220
G02 X94.651892 Y162.335914 Z-0.125000 I0.276749 J0.000000
G02 X94.709049 Y162.421997 Z-0.125000 I0.241719 J-0.098478
G02 X94.801461 Y162.479696 Z-0.125000 I0.201389 J-0.219697
G02 X94.906605 Y162.499608 Z-0.125000 I0.105143 J-0.267637
G02 X95.011021 Y162.479154 Z-0.125000 I0.000000 J-0.276749
G02 X95.097105 Y162.421997 Z-0.125000 I-0.098478 J-0.241719
G02 X95.154262 Y162.335914 Z-0.125000 I-0.184561 J-0.184561
G02 X95.174716 Y162.231497 Z-0.125000 I-0.256295 J-0.104417
G01 X95.174716 Y162.231497 Z-0.125000
G00 Z5.000000

(End cutting path id: path3756)


(Start cutting path id: path3756)
(Change tool to Default tool)

G00 Z5.000000
G00 X97.220827 Y162.231497

G01 Z-0.125000 F100.0(Penetrate)
G02 X97.215188 Y162.172682 Z-0.125000 I-0.309515 J-0.000000 F400.000000
G02 X97.199660 Y162.122136 Z-0.125000 I-0.243384 J0.047107
G02 X97.173676 Y162.076164 Z-0.125000 I-0.221944 J0.095119
G02 X97.136160 Y162.033942 Z-0.125000 I-0.224174 J0.161406
G02 X97.050077 Y161.976784 Z-0.125000 I-0.184561 J0.184561
G02 X96.945660 Y161.956330 Z-0.125000 I-0.104417 J0.256295
G02 X96.840517 Y161.976243 Z-0.125000 I0.000000 J0.287550
G02 X96.748105 Y162.033942 Z-0.125000 I0.108977 J0.277396
G02 X96.691557 Y162.120277 Z-0.125000 I0.178790 J0.178790
G02 X96.670494 Y162.231497 Z-0.125000 I0.283105 J0.111220
G02 X96.690947 Y162.335914 Z-0.125000 I0.276749 J0.000000
G02 X96.748105 Y162.421997 Z-0.125000 I0.241719 J-0.098478
G02 X96.840517 Y162.479696 Z-0.125000 I0.201389 J-0.219697
G02 X96.945660 Y162.499608 Z-0.125000 I0.105143 J-0.267637
G02 X97.050077 Y162.479154 Z-0.125000 I0.000000 J-0.276749
G02 X97.136160 Y162.421997 Z-0.125000 I-0.098478 J-0.241719
G02 X97.173924 Y162.379905 Z-0.125000 I-0.196053 J-0.213876
G02 X97.199660 Y162.335567 Z-0.125000 I-0.192168 J-0.141184
G02 X97.215264 Y162.286761 Z-0.125000 I-0.215632 J-0.095837
G02 X97.220827 Y162.231497 Z-0.125000 I-0.271714 J-0.055264
G01 X97.220827 Y162.231497 Z-0.125000
G00 Z5.000000

(End cutting path id: path3756)


(Start cutting path id: path3756)
(Change tool to Default tool)

G00 Z5.000000
G00 X97.898160 Y162.231497

G01 Z-0.125000 F100.0(Penetrate)
G02 X97.877097 Y162.120277 Z-0.125000 I-0.304168 J0.000000 F400.000000
G02 X97.820549 Y162.033942 Z-0.125000 I-0.235338 J0.092454
G02 X97.734213 Y161.977394 Z-0.125000 I-0.178790 J0.178790
G02 X97.622994 Y161.956330 Z-0.125000 I-0.111220 J0.283105
G02 X97.518577 Y161.976784 Z-0.125000 I0.000000 J0.276749
G02 X97.432494 Y162.033942 Z-0.125000 I0.098478 J0.241719
G02 X97.375946 Y162.120277 Z-0.125000 I0.178790 J0.178790
G02 X97.354883 Y162.231497 Z-0.125000 I0.283105 J0.111220
G02 X97.375336 Y162.335914 Z-0.125000 I0.276749 J0.000000
G02 X97.432494 Y162.421997 Z-0.125000 I0.241719 J-0.098478
G02 X97.518577 Y162.479154 Z-0.125000 I0.184561 J-0.184561
G02 X97.622994 Y162.499608 Z-0.125000 I0.104417 J-0.256295
G02 X97.734213 Y162.478545 Z-0.125000 I-0.000000 J-0.304168
G02 X97.820549 Y162.421997 Z-0.125000 I-0.092454 J-0.235338
G02 X97.877706 Y162.335914 Z-0.125000 I-0.184561 J-0.184561
G02 X97.898160 Y162.231497 Z-0.125000 I-0.256295 J-0.104417
G01 X97.898160 Y162.231497 Z-0.125000
G00 Z5.000000

(End cutting path id: path3756)


(Start cutting path id: path3756)
(Change tool to Default tool)

G00 Z5.000000
G00 X94.497382 Y161.547108

G01 Z-0.125000 F100.0(Penetrate)
G02 X94.476929 Y161.442692 Z-0.125000 I-0.276749 J-0.000000 F400.000000
G02 X94.419771 Y161.356608 Z-0.125000 I-0.241719 J0.098478
G02 X94.333688 Y161.299451 Z-0.125000 I-0.184561 J0.184561
G02 X94.229271 Y161.278997 Z-0.125000 I-0.104417 J0.256295
G02 X94.118052 Y161.300060 Z-0.125000 I0.000000 J0.304168
G02 X94.031716 Y161.356608 Z-0.125000 I0.092454 J0.235338
G02 X93.974559 Y161.442692 Z-0.125000 I0.184561 J0.184561
G02 X93.954105 Y161.547108 Z-0.125000 I0.256295 J0.104417
G02 X93.974559 Y161.651525 Z-0.125000 I0.276749 J-0.000000
G02 X94.031716 Y161.737608 Z-0.125000 I0.241719 J-0.098478
G02 X94.073938 Y161.775124 Z-0.125000 I0.203628 J-0.186659
G02 X94.119910 Y161.801108 Z-0.125000 I0.141091 J-0.195960
G02 X94.170457 Y161.816635 Z-0.125000 I0.097653 J-0.227857
G02 X94.229271 Y161.822275 Z-0.125000 I0.058815 J-0.303876
G02 X94.284535 Y161.816712 Z-0.125000 I0.000000 J-0.277277
G02 X94.333341 Y161.801108 Z-0.125000 I-0.047031 J-0.231236
G02 X94.377679 Y161.775372 Z-0.125000 I-0.096846 J-0.217904
G02 X94.419771 Y161.737608 Z-0.125000 I-0.171784 J-0.233817
G02 X94.476929 Y161.651525 Z-0.125000 I-0.184561 J-0.184561
G02 X94.497382 Y161.547108 Z-0.125000 I-0.256295 J-0.104417
G01 X94.497382 Y161.547108 Z-0.125000
G00 Z5.000000

(End cutting path id: path3756)


(Start cutting path id: path3756)
(Change tool to Default tool)

G00 Z5.000000
G00 X95.174716 Y161.547108

G01 Z-0.125000 F100.0(Penetrate)
G02 X95.154262 Y161.442692 Z-0.125000 I-0.276749 J-0.000000 F400.000000
G02 X95.097105 Y161.356608 Z-0.125000 I-0.241719 J0.098478
G02 X95.011021 Y161.299451 Z-0.125000 I-0.184561 J0.184561
G02 X94.906605 Y161.278997 Z-0.125000 I-0.104417 J0.256295
G02 X94.801461 Y161.298909 Z-0.125000 I0.000000 J0.287550
G02 X94.709049 Y161.356608 Z-0.125000 I0.108977 J0.277396
G02 X94.651892 Y161.442692 Z-0.125000 I0.184561 J0.184561
G02 X94.631438 Y161.547108 Z-0.125000 I0.256295 J0.104417
G02 X94.651892 Y161.651525 Z-0.125000 I0.276749 J-0.000000
G02 X94.709049 Y161.737608 Z-0.125000 I0.241719 J-0.098478
G02 X94.802562 Y161.800919 Z-0.125000 I0.211130 J-0.211130
G02 X94.906605 Y161.822275 Z-0.125000 I0.104043 J-0.242767
G02 X94.961869 Y161.816712 Z-0.125000 I-0.000000 J-0.277277
G02 X95.010674 Y161.801108 Z-0.125000 I-0.047031 J-0.231236
G02 X95.055012 Y161.775372 Z-0.125000 I-0.096846 J-0.217904
G02 X95.097105 Y161.737608 Z-0.125000 I-0.171784 J-0.233817
G02 X95.154262 Y161.651525 Z-0.125000 I-0.184561 J-0.184561
G02 X95.174716 Y161.547108 Z-0.125000 I-0.256295 J-0.104417
G01 X95.174716 Y161.547108 Z-0.125000
G00 Z5.000000

(End cutting path id: path3756)


(Start cutting path id: path3756)
(Change tool to Default tool)

G00 Z5.000000
G00 X95.859105 Y161.547108

G01 Z-0.125000 F100.0(Penetrate)
G02 X95.838651 Y161.442692 Z-0.125000 I-0.276749 J-0.000000 F400.000000
G02 X95.781494 Y161.356608 Z-0.125000 I-0.241719 J0.098478
G02 X95.695158 Y161.300060 Z-0.125000 I-0.178790 J0.178790
G02 X95.583938 Y161.278997 Z-0.125000 I-0.111220 J0.283105
G02 X95.479521 Y161.299451 Z-0.125000 I-0.000000 J0.276749
G02 X95.393438 Y161.356608 Z-0.125000 I0.098478 J0.241719
G02 X95.336281 Y161.442692 Z-0.125000 I0.184561 J0.184561
G02 X95.315827 Y161.547108 Z-0.125000 I0.256295 J0.104417
G02 X95.336281 Y161.651525 Z-0.125000 I0.276749 J-0.000000
G02 X95.393438 Y161.737608 Z-0.125000 I0.241719 J-0.098478
G02 X95.435531 Y161.775372 Z-0.125000 I0.213876 J-0.196053
G02 X95.479869 Y161.801108 Z-0.125000 I0.141184 J-0.192168
G02 X95.528674 Y161.816712 Z-0.125000 I0.095837 J-0.215632
G02 X95.583938 Y161.822275 Z-0.125000 I0.055264 J-0.271714
G02 X95.642753 Y161.816635 Z-0.125000 I-0.000000 J-0.309515
G02 X95.693299 Y161.801108 Z-0.125000 I-0.047107 J-0.243384
G02 X95.739271 Y161.775124 Z-0.125000 I-0.095119 J-0.221944
G02 X95.781494 Y161.737608 Z-0.125000 I-0.161406 J-0.224174
G02 X95.838651 Y161.651525 Z-0.125000 I-0.184561 J-0.184561
G02 X95.859105 Y161.547108 Z-0.125000 I-0.256295 J-0.104417
G01 X95.859105 Y161.547108 Z-0.125000
G00 Z5.000000

(End cutting path id: path3756)


(Start cutting path id: path3756)
(Change tool to Default tool)

G00 Z5.000000
G00 X96.536438 Y161.547108

G01 Z-0.125000 F100.0(Penetrate)
G02 X96.515984 Y161.442692 Z-0.125000 I-0.276749 J-0.000000 F400.000000
G02 X96.458827 Y161.356608 Z-0.125000 I-0.241719 J0.098478
G02 X96.372744 Y161.299451 Z-0.125000 I-0.184561 J0.184561
G02 X96.268327 Y161.278997 Z-0.125000 I-0.104417 J0.256295
G02 X96.157107 Y161.300060 Z-0.125000 I0.000000 J0.304168
G02 X96.070771 Y161.356608 Z-0.125000 I0.092454 J0.235338
G02 X96.013614 Y161.442692 Z-0.125000 I0.184561 J0.184561
G02 X95.993160 Y161.547108 Z-0.125000 I0.256295 J0.104417
G02 X96.013614 Y161.651525 Z-0.125000 I0.276749 J-0.000000
G02 X96.070771 Y161.737608 Z-0.125000 I0.241719 J-0.098478
G02 X96.112994 Y161.775124 Z-0.125000 I0.203628 J-0.186659
G02 X96.158966 Y161.801108 Z-0.125000 I0.141091 J-0.195960
G02 X96.209512 Y161.816635 Z-0.125000 I0.097653 J-0.227857
G02 X96.268327 Y161.822275 Z-0.125000 I0.058815 J-0.303876
G02 X96.323591 Y161.816712 Z-0.125000 I-0.000000 J-0.277277
G02 X96.372396 Y161.801108 Z-0.125000 I-0.047031 J-0.231236
G02 X96.416734 Y161.775372 Z-0.125000 I-0.096846 J-0.217904
G02 X96.458827 Y161.737608 Z-0.125000 I-0.171784 J-0.233817
G02 X96.515984 Y161.651525 Z-0.125000 I-0.184561 J-0.184561
G02 X96.536438 Y161.547108 Z-0.125000 I-0.256295 J-0.104417
G01 X96.536438 Y161.547108 Z-0.125000
G00 Z5.000000

(End cutting path id: path3756)


(Start cutting path id: path3756)
(Change tool to Default tool)

G00 Z5.000000
G00 X97.220827 Y161.547108

G01 Z-0.125000 F100.0(Penetrate)
G02 X97.215264 Y161.491844 Z-0.125000 I-0.277277 J-0.000000 F400.000000
G02 X97.199660 Y161.443039 Z-0.125000 I-0.231236 J0.047031
G02 X97.173924 Y161.398701 Z-0.125000 I-0.217904 J0.096846
G02 X97.136160 Y161.356608 Z-0.125000 I-0.233817 J0.171784
G02 X97.050077 Y161.299451 Z-0.125000 I-0.184561 J0.184561
G02 X96.945660 Y161.278997 Z-0.125000 I-0.104417 J0.256295
G02 X96.840517 Y161.298909 Z-0.125000 I0.000000 J0.287550
G02 X96.748105 Y161.356608 Z-0.125000 I0.108977 J0.277396
G02 X96.690947 Y161.442692 Z-0.125000 I0.184561 J0.184561
G02 X96.670494 Y161.547108 Z-0.125000 I0.256295 J0.104417
G02 X96.690947 Y161.651525 Z-0.125000 I0.276749 J-0.000000
G02 X96.748105 Y161.737608 Z-0.125000 I0.241719 J-0.098478
G02 X96.841617 Y161.800919 Z-0.125000 I0.211130 J-0.211130
G02 X96.945660 Y161.822275 Z-0.125000 I0.104043 J-0.242767
G02 X97.000924 Y161.816712 Z-0.125000 I0.000000 J-0.277277
G02 X97.049730 Y161.801108 Z-0.125000 I-0.047031 J-0.231236
G02 X97.094068 Y161.775372 Z-0.125000 I-0.096846 J-0.217904
G02 X97.136160 Y161.737608 Z-0.125000 I-0.171784 J-0.233817
G02 X97.173924 Y161.695516 Z-0.125000 I-0.196053 J-0.213876
G02 X97.199660 Y161.651178 Z-0.125000 I-0.192168 J-0.141184
G02 X97.215264 Y161.602372 Z-0.125000 I-0.215632 J-0.095837
G02 X97.220827 Y161.547108 Z-0.125000 I-0.271714 J-0.055264
G01 X97.220827 Y161.547108 Z-0.125000
G00 Z5.000000

(End cutting path id: path3756)


(Start cutting path id: path3756)
(Change tool to Default tool)

G00 Z5.000000
G00 X97.898160 Y161.547108

G01 Z-0.125000 F100.0(Penetrate)
G02 X97.877706 Y161.442692 Z-0.125000 I-0.276749 J-0.000000 F400.000000
G02 X97.820549 Y161.356608 Z-0.125000 I-0.241719 J0.098478
G02 X97.734213 Y161.300060 Z-0.125000 I-0.178790 J0.178790
G02 X97.622994 Y161.278997 Z-0.125000 I-0.111220 J0.283105
G02 X97.518577 Y161.299451 Z-0.125000 I-0.000000 J0.276749
G02 X97.432494 Y161.356608 Z-0.125000 I0.098478 J0.241719
G02 X97.375336 Y161.442692 Z-0.125000 I0.184561 J0.184561
G02 X97.354883 Y161.547108 Z-0.125000 I0.256295 J0.104417
G02 X97.375336 Y161.651525 Z-0.125000 I0.276749 J-0.000000
G02 X97.432494 Y161.737608 Z-0.125000 I0.241719 J-0.098478
G02 X97.474586 Y161.775372 Z-0.125000 I0.213876 J-0.196053
G02 X97.518924 Y161.801108 Z-0.125000 I0.141184 J-0.192168
G02 X97.567730 Y161.816712 Z-0.125000 I0.095837 J-0.215632
G02 X97.622994 Y161.822275 Z-0.125000 I0.055264 J-0.271714
G02 X97.681808 Y161.816635 Z-0.125000 I-0.000000 J-0.309515
G02 X97.732355 Y161.801108 Z-0.125000 I-0.047107 J-0.243384
G02 X97.778327 Y161.775124 Z-0.125000 I-0.095119 J-0.221944
G02 X97.820549 Y161.737608 Z-0.125000 I-0.161406 J-0.224174
G02 X97.877706 Y161.651525 Z-0.125000 I-0.184561 J-0.184561
G02 X97.898160 Y161.547108 Z-0.125000 I-0.256295 J-0.104417
G01 X97.898160 Y161.547108 Z-0.125000
G00 Z5.000000

(End cutting path id: path3756)


(Start cutting path id: path3756)
(Change tool to Default tool)

G00 Z5.000000
G00 X95.174716 Y160.869775

G01 Z-0.125000 F100.0(Penetrate)
G02 X95.154803 Y160.764632 Z-0.125000 I-0.287550 J-0.000000 F400.000000
G02 X95.097105 Y160.672219 Z-0.125000 I-0.277396 J0.108977
G02 X95.011021 Y160.615062 Z-0.125000 I-0.184561 J0.184561
G02 X94.906605 Y160.594608 Z-0.125000 I-0.104417 J0.256295
G02 X94.801461 Y160.614521 Z-0.125000 I0.000000 J0.287550
G02 X94.709049 Y160.672219 Z-0.125000 I0.108977 J0.277396
G02 X94.651350 Y160.764632 Z-0.125000 I0.219697 J0.201389
G02 X94.631438 Y160.869775 Z-0.125000 I0.267637 J0.105143
G02 X94.651892 Y160.974191 Z-0.125000 I0.276749 J0.000000
G02 X94.709049 Y161.060275 Z-0.125000 I0.241719 J-0.098478
G02 X94.801461 Y161.117974 Z-0.125000 I0.201389 J-0.219697
G02 X94.906605 Y161.137886 Z-0.125000 I0.105143 J-0.267637
G02 X95.011021 Y161.117432 Z-0.125000 I0.000000 J-0.276749
G02 X95.097105 Y161.060275 Z-0.125000 I-0.098478 J-0.241719
G02 X95.154262 Y160.974191 Z-0.125000 I-0.184561 J-0.184561
G02 X95.174716 Y160.869775 Z-0.125000 I-0.256295 J-0.104417
G01 X95.174716 Y160.869775 Z-0.125000
G00 Z5.000000

(End cutting path id: path3756)


(Start cutting path id: path3756)
(Change tool to Default tool)

G00 Z5.000000
G00 X95.859105 Y160.869775

G01 Z-0.125000 F100.0(Penetrate)
G02 X95.839192 Y160.764632 Z-0.125000 I-0.287550 J-0.000000 F400.000000
G02 X95.781494 Y160.672219 Z-0.125000 I-0.277396 J0.108977
G02 X95.695158 Y160.615671 Z-0.125000 I-0.178790 J0.178790
G02 X95.583938 Y160.594608 Z-0.125000 I-0.111220 J0.283105
G02 X95.479521 Y160.615062 Z-0.125000 I0.000000 J0.276749
G02 X95.393438 Y160.672219 Z-0.125000 I0.098478 J0.241719
G02 X95.335739 Y160.764632 Z-0.125000 I0.219697 J0.201389
G02 X95.315827 Y160.869775 Z-0.125000 I0.267637 J0.105143
G02 X95.336281 Y160.974191 Z-0.125000 I0.276749 J0.000000
G02 X95.393438 Y161.060275 Z-0.125000 I0.241719 J-0.098478
G02 X95.479521 Y161.117432 Z-0.125000 I0.184561 J-0.184561
G02 X95.583938 Y161.137886 Z-0.125000 I0.104417 J-0.256295
G02 X95.695158 Y161.116823 Z-0.125000 I0.000000 J-0.304168
G02 X95.781494 Y161.060275 Z-0.125000 I-0.092454 J-0.235338
G02 X95.838651 Y160.974191 Z-0.125000 I-0.184561 J-0.184561
G02 X95.859105 Y160.869775 Z-0.125000 I-0.256295 J-0.104417
G01 X95.859105 Y160.869775 Z-0.125000
G00 Z5.000000

(End cutting path id: path3756)


(Start cutting path id: path3756)
(Change tool to Default tool)

G00 Z5.000000
G00 X96.536438 Y160.869775

G01 Z-0.125000 F100.0(Penetrate)
G02 X96.516526 Y160.764632 Z-0.125000 I-0.287550 J-0.000000 F400.000000
G02 X96.458827 Y160.672219 Z-0.125000 I-0.277396 J0.108977
G02 X96.372744 Y160.615062 Z-0.125000 I-0.184561 J0.184561
G02 X96.268327 Y160.594608 Z-0.125000 I-0.104417 J0.256295
G02 X96.157107 Y160.615671 Z-0.125000 I0.000000 J0.304168
G02 X96.070771 Y160.672219 Z-0.125000 I0.092454 J0.235338
G02 X96.013073 Y160.764632 Z-0.125000 I0.219697 J0.201389
G02 X95.993160 Y160.869775 Z-0.125000 I0.267637 J0.105143
G02 X96.013614 Y160.974191 Z-0.125000 I0.276749 J0.000000
G02 X96.070771 Y161.060275 Z-0.125000 I0.241719 J-0.098478
G02 X96.157107 Y161.116823 Z-0.125000 I0.178790 J-0.178790
G02 X96.268327 Y161.137886 Z-0.125000 I0.111220 J-0.283105
G02 X96.372744 Y161.117432 Z-0.125000 I-0.000000 J-0.276749
G02 X96.458827 Y161.060275 Z-0.125000 I-0.098478 J-0.241719
G02 X96.515984 Y160.974191 Z-0.125000 I-0.184561 J-0.184561
G02 X96.536438 Y160.869775 Z-0.125000 I-0.256295 J-0.104417
G01 X96.536438 Y160.869775 Z-0.125000
G00 Z5.000000

(End cutting path id: path3756)


(Start cutting path id: path3756)
(Change tool to Default tool)

G00 Z5.000000
G00 X97.220827 Y160.869775

G01 Z-0.125000 F100.0(Penetrate)
G02 X97.199471 Y160.765732 Z-0.125000 I-0.264123 J0.000000 F400.000000
G02 X97.136160 Y160.672219 Z-0.125000 I-0.274441 J0.117618
G02 X97.050077 Y160.615062 Z-0.125000 I-0.184561 J0.184561
G02 X96.945660 Y160.594608 Z-0.125000 I-0.104417 J0.256295
G02 X96.840517 Y160.614521 Z-0.125000 I0.000000 J0.287550
G02 X96.748105 Y160.672219 Z-0.125000 I0.108977 J0.277396
G02 X96.690406 Y160.764632 Z-0.125000 I0.219697 J0.201389
G02 X96.670494 Y160.869775 Z-0.125000 I0.267637 J0.105143
G02 X96.690947 Y160.974191 Z-0.125000 I0.276749 J0.000000
G02 X96.748105 Y161.060275 Z-0.125000 I0.241719 J-0.098478
G02 X96.840517 Y161.117974 Z-0.125000 I0.201389 J-0.219697
G02 X96.945660 Y161.137886 Z-0.125000 I0.105143 J-0.267637
G02 X97.050077 Y161.117432 Z-0.125000 I0.000000 J-0.276749
G02 X97.136160 Y161.060275 Z-0.125000 I-0.098478 J-0.241719
G02 X97.173924 Y161.018182 Z-0.125000 I-0.196053 J-0.213876
G02 X97.199660 Y160.973844 Z-0.125000 I-0.192168 J-0.141184
G02 X97.215264 Y160.925039 Z-0.125000 I-0.215632 J-0.095837
G02 X97.220827 Y160.869775 Z-0.125000 I-0.271714 J-0.055264
G01 X97.220827 Y160.869775 Z-0.125000
G00 Z5.000000

(End cutting path id: path3756)


(Start cutting path id: path3754)
(Change tool to Default tool)

G00 Z5.000000
G00 X90.682311 Y165.625219

G01 Z-0.125000 F100.0(Penetrate)
G02 X90.662399 Y165.520076 Z-0.125000 I-0.287550 J0.000000 F400.000000
G02 X90.604700 Y165.427664 Z-0.125000 I-0.277396 J0.108977
G02 X90.518616 Y165.370507 Z-0.125000 I-0.184561 J0.184561
G02 X90.414200 Y165.350053 Z-0.125000 I-0.104417 J0.256295
G02 X90.302980 Y165.371116 Z-0.125000 I-0.000000 J0.304168
G02 X90.216644 Y165.427664 Z-0.125000 I0.092454 J0.235338
G02 X90.158946 Y165.520076 Z-0.125000 I0.219697 J0.201389
G02 X90.139033 Y165.625219 Z-0.125000 I0.267637 J0.105143
G02 X90.159487 Y165.729636 Z-0.125000 I0.276749 J-0.000000
G02 X90.216644 Y165.815719 Z-0.125000 I0.241719 J-0.098478
G02 X90.302980 Y165.872267 Z-0.125000 I0.178790 J-0.178790
G02 X90.414200 Y165.893330 Z-0.125000 I0.111220 J-0.283105
G02 X90.518616 Y165.872877 Z-0.125000 I-0.000000 J-0.276749
G02 X90.604700 Y165.815719 Z-0.125000 I-0.098478 J-0.241719
G02 X90.661857 Y165.729636 Z-0.125000 I-0.184561 J-0.184561
G02 X90.682311 Y165.625219 Z-0.125000 I-0.256295 J-0.104417
G01 X90.682311 Y165.625219 Z-0.125000
G00 Z5.000000

(End cutting path id: path3754)


(Start cutting path id: path3754)
(Change tool to Default tool)

G00 Z5.000000
G00 X90.004978 Y164.940830

G01 Z-0.125000 F100.0(Penetrate)
G02 X89.999414 Y164.885567 Z-0.125000 I-0.277277 J0.000000 F400.000000
G02 X89.983811 Y164.836761 Z-0.125000 I-0.231236 J0.047031
G02 X89.958074 Y164.792423 Z-0.125000 I-0.217904 J0.096846
G02 X89.920311 Y164.750330 Z-0.125000 I-0.233817 J0.171784
G02 X89.834228 Y164.693173 Z-0.125000 I-0.184561 J0.184561
G02 X89.729811 Y164.672719 Z-0.125000 I-0.104417 J0.256295
G02 X89.625394 Y164.693173 Z-0.125000 I0.000000 J0.276749
G02 X89.539311 Y164.750330 Z-0.125000 I0.098478 J0.241719
G02 X89.482154 Y164.836414 Z-0.125000 I0.184561 J0.184561
G02 X89.461700 Y164.940830 Z-0.125000 I0.256295 J0.104417
G02 X89.482763 Y165.052050 Z-0.125000 I0.304168 J0.000000
G02 X89.539311 Y165.138386 Z-0.125000 I0.235338 J-0.092454
G02 X89.625394 Y165.195543 Z-0.125000 I0.184561 J-0.184561
G02 X89.729811 Y165.215997 Z-0.125000 I0.104417 J-0.256295
G02 X89.834228 Y165.195543 Z-0.125000 I0.000000 J-0.276749
G02 X89.920311 Y165.138386 Z-0.125000 I-0.098478 J-0.241719
G02 X89.957826 Y165.096164 Z-0.125000 I-0.186659 J-0.203628
G02 X89.983811 Y165.050192 Z-0.125000 I-0.195960 J-0.141091
G02 X89.999338 Y164.999645 Z-0.125000 I-0.227857 J-0.097653
G02 X90.004978 Y164.940830 Z-0.125000 I-0.303876 J-0.058815
G01 X90.004978 Y164.940830 Z-0.125000
G00 Z5.000000

(End cutting path id: path3754)


(Start cutting path id: path3754)
(Change tool to Default tool)

G00 Z5.000000
G00 X90.682311 Y164.940830

G01 Z-0.125000 F100.0(Penetrate)
G02 X90.661857 Y164.836414 Z-0.125000 I-0.276749 J-0.000000 F400.000000
G02 X90.604700 Y164.750330 Z-0.125000 I-0.241719 J0.098478
G02 X90.518616 Y164.693173 Z-0.125000 I-0.184561 J0.184561
G02 X90.414200 Y164.672719 Z-0.125000 I-0.104417 J0.256295
G02 X90.302980 Y164.693783 Z-0.125000 I0.000000 J0.304168
G02 X90.216644 Y164.750330 Z-0.125000 I0.092454 J0.235338
G02 X90.159487 Y164.836414 Z-0.125000 I0.184561 J0.184561
G02 X90.139033 Y164.940830 Z-0.125000 I0.256295 J0.104417
G02 X90.160096 Y165.052050 Z-0.125000 I0.304168 J0.000000
G02 X90.216644 Y165.138386 Z-0.125000 I0.235338 J-0.092454
G02 X90.302980 Y165.194934 Z-0.125000 I0.178790 J-0.178790
G02 X90.414200 Y165.215997 Z-0.125000 I0.111220 J-0.283105
G02 X90.518616 Y165.195543 Z-0.125000 I-0.000000 J-0.276749
G02 X90.604700 Y165.138386 Z-0.125000 I-0.098478 J-0.241719
G02 X90.661248 Y165.052050 Z-0.125000 I-0.178790 J-0.178790
G02 X90.682311 Y164.940830 Z-0.125000 I-0.283105 J-0.111220
G01 X90.682311 Y164.940830 Z-0.125000
G00 Z5.000000

(End cutting path id: path3754)


(Start cutting path id: path3754)
(Change tool to Default tool)

G00 Z5.000000
G00 X90.004978 Y164.263497

G01 Z-0.125000 F100.0(Penetrate)
G02 X89.999414 Y164.208233 Z-0.125000 I-0.277277 J-0.000000 F400.000000
G02 X89.983811 Y164.159428 Z-0.125000 I-0.231236 J0.047031
G02 X89.958074 Y164.115090 Z-0.125000 I-0.217904 J0.096846
G02 X89.920311 Y164.072997 Z-0.125000 I-0.233817 J0.171784
G02 X89.834228 Y164.015840 Z-0.125000 I-0.184561 J0.184561
G02 X89.729811 Y163.995386 Z-0.125000 I-0.104417 J0.256295
G02 X89.625394 Y164.015840 Z-0.125000 I0.000000 J0.276749
G02 X89.539311 Y164.072997 Z-0.125000 I0.098478 J0.241719
G02 X89.482154 Y164.159080 Z-0.125000 I0.184561 J0.184561
G02 X89.461700 Y164.263497 Z-0.125000 I0.256295 J0.104417
G02 X89.482154 Y164.367914 Z-0.125000 I0.276749 J-0.000000
G02 X89.539311 Y164.453997 Z-0.125000 I0.241719 J-0.098478
G02 X89.581403 Y164.491761 Z-0.125000 I0.213876 J-0.196053
G02 X89.625741 Y164.517497 Z-0.125000 I0.141184 J-0.192168
G02 X89.674547 Y164.533101 Z-0.125000 I0.095837 J-0.215632
G02 X89.729811 Y164.538664 Z-0.125000 I0.055264 J-0.271714
G02 X89.785075 Y164.533101 Z-0.125000 I-0.000000 J-0.277277
G02 X89.833880 Y164.517497 Z-0.125000 I-0.047031 J-0.231236
G02 X89.878218 Y164.491761 Z-0.125000 I-0.096846 J-0.217904
G02 X89.920311 Y164.453997 Z-0.125000 I-0.171784 J-0.233817
G02 X89.958074 Y164.411905 Z-0.125000 I-0.196053 J-0.213876
G02 X89.983811 Y164.367567 Z-0.125000 I-0.192168 J-0.141184
G02 X89.999414 Y164.318761 Z-0.125000 I-0.215632 J-0.095837
G02 X90.004978 Y164.263497 Z-0.125000 I-0.271714 J-0.055264
G01 X90.004978 Y164.263497 Z-0.125000
G00 Z5.000000

(End cutting path id: path3754)


(Start cutting path id: path3754)
(Change tool to Default tool)

G00 Z5.000000
G00 X90.682311 Y164.263497

G01 Z-0.125000 F100.0(Penetrate)
G02 X90.661857 Y164.159080 Z-0.125000 I-0.276749 J-0.000000 F400.000000
G02 X90.604700 Y164.072997 Z-0.125000 I-0.241719 J0.098478
G02 X90.518616 Y164.015840 Z-0.125000 I-0.184561 J0.184561
G02 X90.414200 Y163.995386 Z-0.125000 I-0.104417 J0.256295
G02 X90.302980 Y164.016449 Z-0.125000 I-0.000000 J0.304168
G02 X90.216644 Y164.072997 Z-0.125000 I0.092454 J0.235338
G02 X90.159487 Y164.159080 Z-0.125000 I0.184561 J0.184561
G02 X90.139033 Y164.263497 Z-0.125000 I0.256295 J0.104417
