%
(Header)
(Generated by gcodetools from Inkscape.)
(Using default header. To add your own header create file "header" in the output dir.)
M3
(Header end.)
G21 (All units in mm)

(Start cutting path id: path3729)
(Change tool to Default tool)

G00 Z5.000000
G00 X92.683003 Y160.573441

G01 Z-0.125000 F100.0(Penetrate)
G01 X92.071670 Y161.184771 Z-0.125000 F400.000000
G01 X92.071670 Y161.796104 Z-0.125000
G01 X92.988670 Y161.796104 Z-0.125000
G01 X92.988670 Y161.642711 Z-0.125000
G01 X93.140943 Y161.490438 Z-0.125000
G01 X94.057939 Y161.490438 Z-0.125000
G01 X94.211332 Y161.642711 Z-0.125000
G01 X94.211332 Y162.254044 Z-0.125000
G01 X94.057939 Y162.407437 Z-0.125000
G01 X92.988670 Y162.407437 Z-0.125000
G01 X92.988670 Y163.324436 Z-0.125000
G01 X94.057939 Y163.324436 Z-0.125000
G01 X94.211332 Y163.477827 Z-0.125000
G01 X94.211332 Y163.935766 Z-0.125000
G01 X95.128332 Y163.935766 Z-0.125000
G01 X95.128332 Y163.018770 Z-0.125000
G01 X95.127203 Y163.018770 Z-0.125000
G01 X94.976050 Y162.866497 Z-0.125000
G01 X95.128323 Y162.713104 Z-0.125000
G01 X95.128323 Y161.184771 Z-0.125000
G01 X94.516990 Y160.573441 Z-0.125000
G01 X92.682995 Y160.573441 Z-0.125000
G01 X92.683003 Y160.573441 Z-0.125000
G00 Z5.000000

(End cutting path id: path3729)


(Start cutting path id: path3729)
(Change tool to Default tool)

G00 Z5.000000
G00 X92.071670 Y163.935766

G01 Z-0.125000 F100.0(Penetrate)
G01 X92.071670 Y164.547099 Z-0.125000 F400.000000
G01 X92.683003 Y165.159552 Z-0.125000
G01 X94.516999 Y165.159552 Z-0.125000
G01 X95.128332 Y164.547099 Z-0.125000
G01 X95.128332 Y164.241433 Z-0.125000
G01 X93.140943 Y164.241433 Z-0.125000
G01 X92.988670 Y164.089160 Z-0.125000
G01 X92.988670 Y163.935766 Z-0.125000
G01 X92.071670 Y163.935766 Z-0.125000
G01 X92.071670 Y163.935766 Z-0.125000
G00 Z5.000000

(End cutting path id: path3729)


(Start cutting path id: path3727)
(Change tool to Default tool)

G00 Z5.000000
G00 X89.359862 Y160.573441

G01 Z-0.125000 F100.0(Penetrate)
G01 X88.748532 Y161.184771 Z-0.125000 F400.000000
G01 X88.748532 Y164.547099 Z-0.125000
G01 X89.359862 Y165.159552 Z-0.125000
G01 X89.665528 Y165.159552 Z-0.125000
G01 X89.665528 Y161.642711 Z-0.125000
G01 X89.817801 Y161.490438 Z-0.125000
G01 X90.582528 Y161.490438 Z-0.125000
G01 X90.582528 Y160.573441 Z-0.125000
G01 X89.359862 Y160.573441 Z-0.125000
G01 X89.359862 Y160.573441 Z-0.125000
G00 Z5.000000

(End cutting path id: path3727)


(Start cutting path id: path3727)
(Change tool to Default tool)

G00 Z5.000000
G00 X90.888194 Y160.573441

G01 Z-0.125000 F100.0(Penetrate)
G01 X90.888194 Y164.089160 Z-0.125000 F400.000000
G01 X90.734801 Y164.241433 Z-0.125000
G01 X89.971195 Y164.241433 Z-0.125000
G01 X89.971195 Y165.159552 Z-0.125000
G01 X91.193860 Y165.159552 Z-0.125000
G01 X91.805190 Y164.547099 Z-0.125000
G01 X91.805190 Y161.184771 Z-0.125000
G01 X91.193860 Y160.573441 Z-0.125000
G01 X90.888194 Y160.573441 Z-0.125000
G01 X90.888194 Y160.573441 Z-0.125000
G00 Z5.000000

(End cutting path id: path3727)


(Start cutting path id: path3725)
(Change tool to Default tool)

G00 Z5.000000
G00 X87.105996 Y160.573441

G01 Z-0.125000 F100.0(Penetrate)
G01 X87.105996 Y161.490438 Z-0.125000 F400.000000
G01 X87.411662 Y161.490438 Z-0.125000
G01 X87.565056 Y161.642711 Z-0.125000
G01 X87.565056 Y162.254044 Z-0.125000
G01 X87.411662 Y162.407437 Z-0.125000
G01 X87.105996 Y162.407437 Z-0.125000
G01 X87.105996 Y163.324436 Z-0.125000
G01 X88.176386 Y163.324436 Z-0.125000
G01 X88.482052 Y163.018770 Z-0.125000
G01 X88.482052 Y161.184771 Z-0.125000
G01 X87.870719 Y160.573441 Z-0.125000
G01 X87.105996 Y160.573441 Z-0.125000
G01 X87.105996 Y160.573441 Z-0.125000
G00 Z5.000000

(End cutting path id: path3725)


(Start cutting path id: path3725)
(Change tool to Default tool)

G00 Z5.000000
G00 X86.036723 Y160.573441

G01 Z-0.125000 F100.0(Penetrate)
G01 X85.425391 Y161.184771 Z-0.125000 F400.000000
G01 X85.425391 Y164.547099 Z-0.125000
G01 X86.036723 Y165.159552 Z-0.125000
G01 X86.800329 Y165.159552 Z-0.125000
G01 X86.800329 Y164.241433 Z-0.125000
G01 X86.494663 Y164.241433 Z-0.125000
G01 X86.342390 Y164.089160 Z-0.125000
G01 X86.342390 Y163.324436 Z-0.125000
G01 X86.800329 Y163.324436 Z-0.125000
G01 X86.800329 Y162.407437 Z-0.125000
G01 X86.494663 Y162.407437 Z-0.125000
G01 X86.342390 Y162.254044 Z-0.125000
G01 X86.342390 Y161.642711 Z-0.125000
G01 X86.494663 Y161.490438 Z-0.125000
G01 X86.800329 Y161.490438 Z-0.125000
G01 X86.800329 Y160.573441 Z-0.125000
G01 X86.036723 Y160.573441 Z-0.125000
G01 X86.036723 Y160.573441 Z-0.125000
G00 Z5.000000

(End cutting path id: path3725)


(Start cutting path id: path3725)
(Change tool to Default tool)

G00 Z5.000000
G00 X87.565056 Y163.935766

G01 Z-0.125000 F100.0(Penetrate)
G01 X87.565056 Y164.089160 Z-0.125000 F400.000000
G01 X87.411662 Y164.241433 Z-0.125000
G01 X87.105996 Y164.241433 Z-0.125000
G01 X87.105996 Y165.159552 Z-0.125000
G01 X87.870719 Y165.159552 Z-0.125000
G01 X88.482052 Y164.547099 Z-0.125000
G01 X88.482052 Y163.935766 Z-0.125000
G01 X87.565056 Y163.935766 Z-0.125000
G01 X87.565056 Y163.935766 Z-0.125000
G00 Z5.000000

(End cutting path id: path3725)


(Start cutting path id: path3723)
(Change tool to Default tool)

G00 Z5.000000
G00 X82.713585 Y160.573441

G01 Z-0.125000 F100.0(Penetrate)
G01 X82.102252 Y161.184771 Z-0.125000 F400.000000
G01 X82.102252 Y164.547099 Z-0.125000
G01 X82.713585 Y165.159552 Z-0.125000
G01 X83.019251 Y165.159552 Z-0.125000
G01 X83.019251 Y161.642711 Z-0.125000
G01 X83.171524 Y161.490438 Z-0.125000
G01 X83.936248 Y161.490438 Z-0.125000
G01 X83.936248 Y160.573441 Z-0.125000
G01 X82.713585 Y160.573441 Z-0.125000
G01 X82.713585 Y160.573441 Z-0.125000
G00 Z5.000000

(End cutting path id: path3723)


(Start cutting path id: path3723)
(Change tool to Default tool)

G00 Z5.000000
G00 X84.241914 Y160.573441

G01 Z-0.125000 F100.0(Penetrate)
G01 X84.241914 Y164.089160 Z-0.125000 F400.000000
G01 X84.088524 Y164.241433 Z-0.125000
G01 X83.324918 Y164.241433 Z-0.125000
G01 X83.324918 Y165.159552 Z-0.125000
G01 X84.547581 Y165.159552 Z-0.125000
G01 X85.158914 Y164.547099 Z-0.125000
G01 X85.158914 Y161.184771 Z-0.125000
G01 X84.547581 Y160.573441 Z-0.125000
G01 X84.241914 Y160.573441 Z-0.125000
G01 X84.241914 Y160.573441 Z-0.125000
G00 Z5.000000

(End cutting path id: path3723)


(Start cutting path id: path3721)
(Change tool to Default tool)

G00 Z5.000000
G00 X76.942877 Y162.407437

G01 Z-0.125000 F100.0(Penetrate)
G01 X76.942877 Y163.324436 Z-0.125000 F400.000000
G01 X78.776873 Y163.324436 Z-0.125000
G01 X78.776873 Y162.407437 Z-0.125000
G01 X76.942877 Y162.407437 Z-0.125000
G01 X76.942877 Y162.407437 Z-0.125000
G00 Z5.000000

(End cutting path id: path3721)


(Start cutting path id: path3719)
(Change tool to Default tool)

G00 Z5.000000
G00 X71.176648 Y160.573441

G01 Z-0.125000 F100.0(Penetrate)
G01 X70.565318 Y161.184771 Z-0.125000 F400.000000
G01 X70.565318 Y161.796104 Z-0.125000
G01 X71.482314 Y161.796104 Z-0.125000
G01 X71.482314 Y161.642711 Z-0.125000
G01 X71.634587 Y161.490438 Z-0.125000
G01 X71.940254 Y161.490438 Z-0.125000
G01 X71.940254 Y160.573441 Z-0.125000
G01 X71.176648 Y160.573441 Z-0.125000
G01 X71.176648 Y160.573441 Z-0.125000
G00 Z5.000000

(End cutting path id: path3719)


(Start cutting path id: path3719)
(Change tool to Default tool)

G00 Z5.000000
G00 X72.245920 Y160.573441

G01 Z-0.125000 F100.0(Penetrate)
G01 X72.245920 Y161.490438 Z-0.125000 F400.000000
G01 X72.551587 Y161.490438 Z-0.125000
G01 X72.704980 Y161.642711 Z-0.125000
G01 X72.704980 Y162.254044 Z-0.125000
G01 X72.551587 Y162.407437 Z-0.125000
G01 X70.870982 Y162.407437 Z-0.125000
G01 X70.565318 Y162.713104 Z-0.125000
G01 X70.565318 Y164.547099 Z-0.125000
G01 X71.176648 Y165.159552 Z-0.125000
G01 X71.940254 Y165.159552 Z-0.125000
G01 X71.940254 Y164.241433 Z-0.125000
G01 X71.634587 Y164.241433 Z-0.125000
G01 X71.482314 Y164.089160 Z-0.125000
G01 X71.482314 Y163.477827 Z-0.125000
G01 X71.634587 Y163.324436 Z-0.125000
G01 X73.316313 Y163.324436 Z-0.125000
G01 X73.621977 Y163.018770 Z-0.125000
G01 X73.621977 Y161.184771 Z-0.125000
G01 X73.010647 Y160.573441 Z-0.125000
G01 X72.245920 Y160.573441 Z-0.125000
G01 X72.245920 Y160.573441 Z-0.125000
G00 Z5.000000

(End cutting path id: path3719)


(Start cutting path id: path3719)
(Change tool to Default tool)

G00 Z5.000000
G00 X72.704980 Y163.935766

G01 Z-0.125000 F100.0(Penetrate)
G01 X72.704980 Y164.089160 Z-0.125000 F400.000000
G01 X72.551587 Y164.241433 Z-0.125000
G01 X72.245920 Y164.241433 Z-0.125000
G01 X72.245920 Y165.159552 Z-0.125000
G01 X73.010647 Y165.159552 Z-0.125000
G01 X73.621977 Y164.547099 Z-0.125000
G01 X73.621977 Y163.935766 Z-0.125000
G01 X72.704980 Y163.935766 Z-0.125000
G01 X72.704980 Y163.935766 Z-0.125000
G00 Z5.000000

(End cutting path id: path3719)


(Start cutting path id: path3717)
(Change tool to Default tool)

G00 Z5.000000
G00 X67.242177 Y160.573441

G01 Z-0.125000 F100.0(Penetrate)
G01 X67.242177 Y165.159552 Z-0.125000 F400.000000
G01 X68.159176 Y165.159552 Z-0.125000
G01 X68.159176 Y160.573441 Z-0.125000
G01 X67.242177 Y160.573441 Z-0.125000
G01 X67.242177 Y160.573441 Z-0.125000
G00 Z5.000000

(End cutting path id: path3717)


(Start cutting path id: path3717)
(Change tool to Default tool)

G00 Z5.000000
G00 X69.381839 Y160.573441

G01 Z-0.125000 F100.0(Penetrate)
G01 X69.381839 Y162.254044 Z-0.125000 F400.000000
G01 X69.228448 Y162.407437 Z-0.125000
G01 X68.464842 Y162.407437 Z-0.125000
G01 X68.464842 Y163.324436 Z-0.125000
G01 X69.228448 Y163.324436 Z-0.125000
G01 X69.381839 Y163.477827 Z-0.125000
G01 X69.381839 Y164.089160 Z-0.125000
G01 X69.228448 Y164.241433 Z-0.125000
G01 X68.464842 Y164.241433 Z-0.125000
G01 X68.464842 Y165.159552 Z-0.125000
G01 X69.687505 Y165.159552 Z-0.125000
G01 X70.298838 Y164.547099 Z-0.125000
G01 X70.298838 Y163.018770 Z-0.125000
G01 X70.297709 Y163.018770 Z-0.125000
G01 X70.146557 Y162.866497 Z-0.125000
G01 X70.298830 Y162.713104 Z-0.125000
G01 X70.298830 Y160.573441 Z-0.125000
G01 X69.381830 Y160.573441 Z-0.125000
G01 X69.381839 Y160.573441 Z-0.125000
G00 Z5.000000

(End cutting path id: path3717)


(Start cutting path id: path3715)
(Change tool to Default tool)

G00 Z5.000000
G00 X64.530371 Y160.573441

G01 Z-0.125000 F100.0(Penetrate)
G01 X63.919038 Y161.184771 Z-0.125000 F400.000000
G01 X63.919038 Y164.547099 Z-0.125000
G01 X64.530371 Y165.159552 Z-0.125000
G01 X65.293977 Y165.159552 Z-0.125000
G01 X65.293977 Y164.241433 Z-0.125000
G01 X64.988311 Y164.241433 Z-0.125000
G01 X64.836038 Y164.089160 Z-0.125000
G01 X64.836038 Y161.642711 Z-0.125000
G01 X64.988311 Y161.490438 Z-0.125000
G01 X65.293977 Y161.490438 Z-0.125000
G01 X65.293977 Y160.573441 Z-0.125000
G01 X64.530371 Y160.573441 Z-0.125000
G01 X64.530371 Y160.573441 Z-0.125000
G00 Z5.000000

(End cutting path id: path3715)


(Start cutting path id: path3715)
(Change tool to Default tool)

G00 Z5.000000
G00 X65.599643 Y160.573441

G01 Z-0.125000 F100.0(Penetrate)
G01 X65.599643 Y161.490438 Z-0.125000 F400.000000
G01 X65.905307 Y161.490438 Z-0.125000
G01 X66.058700 Y161.642711 Z-0.125000
G01 X66.058700 Y164.089160 Z-0.125000
G01 X65.905307 Y164.241433 Z-0.125000
G01 X65.599643 Y164.241433 Z-0.125000
G01 X65.599643 Y165.159552 Z-0.125000
G01 X66.364367 Y165.159552 Z-0.125000
G01 X66.975700 Y164.547099 Z-0.125000
G01 X66.975700 Y161.184771 Z-0.125000
G01 X66.364367 Y160.573441 Z-0.125000
G01 X65.599643 Y160.573441 Z-0.125000
G01 X65.599643 Y160.573441 Z-0.125000
G00 Z5.000000

(End cutting path id: path3715)


(Start cutting path id: path3713)
(Change tool to Default tool)

G00 Z5.000000
G00 X61.665172 Y160.573441

G01 Z-0.125000 F100.0(Penetrate)
G01 X61.665172 Y163.935766 Z-0.125000 F400.000000
G01 X62.582169 Y163.935766 Z-0.125000
G01 X62.582169 Y160.573441 Z-0.125000
G01 X61.665172 Y160.573441 Z-0.125000
G01 X61.665172 Y160.573441 Z-0.125000
G00 Z5.000000

(End cutting path id: path3713)


(Start cutting path id: path3713)
(Change tool to Default tool)

G00 Z5.000000
G00 X60.595900 Y164.241433

G01 Z-0.125000 F100.0(Penetrate)
G01 X60.595900 Y165.159552 Z-0.125000 F400.000000
G01 X63.652561 Y165.159552 Z-0.125000
G01 X63.652561 Y164.241433 Z-0.125000
G01 X60.595900 Y164.241433 Z-0.125000
G01 X60.595900 Y164.241433 Z-0.125000
G00 Z5.000000

(End cutting path id: path3713)


(Start cutting path id: path3711)
(Change tool to Default tool)

G00 Z5.000000
G00 X57.884091 Y160.573441

G01 Z-0.125000 F100.0(Penetrate)
G01 X57.272761 Y161.184771 Z-0.125000 F400.000000
G01 X57.272761 Y161.796104 Z-0.125000
G01 X58.189758 Y161.796104 Z-0.125000
G01 X58.189758 Y161.642711 Z-0.125000
G01 X58.342031 Y161.490438 Z-0.125000
G01 X58.647697 Y161.490438 Z-0.125000
G01 X58.647697 Y160.573441 Z-0.125000
G01 X57.884091 Y160.573441 Z-0.125000
G01 X57.884091 Y160.573441 Z-0.125000
G00 Z5.000000

(End cutting path id: path3711)


(Start cutting path id: path3711)
(Change tool to Default tool)

G00 Z5.000000
G00 X58.953364 Y160.573441

G01 Z-0.125000 F100.0(Penetrate)
G01 X58.953364 Y161.490438 Z-0.125000 F400.000000
G01 X59.259030 Y161.490438 Z-0.125000
G01 X59.412424 Y161.642711 Z-0.125000
G01 X59.412424 Y162.254044 Z-0.125000
G01 X59.259030 Y162.407437 Z-0.125000
G01 X57.578425 Y162.407437 Z-0.125000
G01 X57.272761 Y162.713104 Z-0.125000
G01 X57.272761 Y164.547099 Z-0.125000
G01 X57.884091 Y165.159552 Z-0.125000
G01 X58.647697 Y165.159552 Z-0.125000
G01 X58.647697 Y164.241433 Z-0.125000
G01 X58.342031 Y164.241433 Z-0.125000
G01 X58.189758 Y164.089160 Z-0.125000
G01 X58.189758 Y163.477827 Z-0.125000
G01 X58.342031 Y163.324436 Z-0.125000
G01 X60.023756 Y163.324436 Z-0.125000
G01 X60.329420 Y163.018770 Z-0.125000
G01 X60.329420 Y161.184771 Z-0.125000
G01 X59.718090 Y160.573441 Z-0.125000
G01 X58.953364 Y160.573441 Z-0.125000
G01 X58.953364 Y160.573441 Z-0.125000
G00 Z5.000000

(End cutting path id: path3711)


(Start cutting path id: path3711)
(Change tool to Default tool)

G00 Z5.000000
G00 X59.412424 Y163.935766

G01 Z-0.125000 F100.0(Penetrate)
G01 X59.412424 Y164.089160 Z-0.125000 F400.000000
G01 X59.259030 Y164.241433 Z-0.125000
G01 X58.953364 Y164.241433 Z-0.125000
G01 X58.953364 Y165.159552 Z-0.125000
G01 X59.718090 Y165.159552 Z-0.125000
G01 X60.329420 Y164.547099 Z-0.125000
G01 X60.329420 Y163.935766 Z-0.125000
G01 X59.412424 Y163.935766 Z-0.125000
G01 X59.412424 Y163.935766 Z-0.125000
G00 Z5.000000

(End cutting path id: path3711)


(Start cutting path id: path3709)
(Change tool to Default tool)

G00 Z5.000000
G00 X56.090403 Y160.573441

G01 Z-0.125000 F100.0(Penetrate)
G01 X56.090403 Y165.159552 Z-0.125000 F400.000000
G01 X57.007402 Y165.159552 Z-0.125000
G01 X57.007402 Y160.573441 Z-0.125000
G01 X56.090403 Y160.573441 Z-0.125000
G01 X56.090403 Y160.573441 Z-0.125000
G00 Z5.000000

(End cutting path id: path3709)


(Start cutting path id: path3707)
(Change tool to Default tool)

G00 Z5.000000
G00 X53.378597 Y160.573441

G01 Z-0.125000 F100.0(Penetrate)
G01 X52.767264 Y161.184771 Z-0.125000 F400.000000
G01 X52.767264 Y161.796104 Z-0.125000
G01 X53.684263 Y161.796104 Z-0.125000
G01 X53.684263 Y161.642711 Z-0.125000
G01 X53.836536 Y161.490438 Z-0.125000
G01 X54.142203 Y161.490438 Z-0.125000
G01 X54.142203 Y160.573441 Z-0.125000
G01 X53.378597 Y160.573441 Z-0.125000
G01 X53.378597 Y160.573441 Z-0.125000
G00 Z5.000000

(End cutting path id: path3707)


(Start cutting path id: path3707)
(Change tool to Default tool)

G00 Z5.000000
G00 X54.447869 Y160.573441

G01 Z-0.125000 F100.0(Penetrate)
G01 X54.447869 Y161.490438 Z-0.125000 F400.000000
G01 X54.753533 Y161.490438 Z-0.125000
G01 X54.906926 Y161.642711 Z-0.125000
G01 X54.906926 Y162.254044 Z-0.125000
G01 X54.753533 Y162.407437 Z-0.125000
G01 X53.072931 Y162.407437 Z-0.125000
G01 X52.767264 Y162.713104 Z-0.125000
G01 X52.767264 Y164.547099 Z-0.125000
G01 X53.378597 Y165.159552 Z-0.125000
G01 X54.142203 Y165.159552 Z-0.125000
G01 X54.142203 Y164.241433 Z-0.125000
G01 X53.836536 Y164.241433 Z-0.125000
G01 X53.684263 Y164.089160 Z-0.125000
G01 X53.684263 Y163.477827 Z-0.125000
G01 X53.836536 Y163.324436 Z-0.125000
G01 X55.518259 Y163.324436 Z-0.125000
G01 X55.823926 Y163.018770 Z-0.125000
G01 X55.823926 Y161.184771 Z-0.125000
G01 X55.212593 Y160.573441 Z-0.125000
G01 X54.447869 Y160.573441 Z-0.125000
G01 X54.447869 Y160.573441 Z-0.125000
G00 Z5.000000

(End cutting path id: path3707)


(Start cutting path id: path3707)
(Change tool to Default tool)

G00 Z5.000000
G00 X54.906926 Y163.935766

G01 Z-0.125000 F100.0(Penetrate)
G01 X54.906926 Y164.089160 Z-0.125000 F400.000000
G01 X54.753533 Y164.241433 Z-0.125000
G01 X54.447869 Y164.241433 Z-0.125000
G01 X54.447869 Y165.159552 Z-0.125000
G01 X55.212593 Y165.159552 Z-0.125000
G01 X55.823926 Y164.547099 Z-0.125000
G01 X55.823926 Y163.935766 Z-0.125000
G01 X54.906926 Y163.935766 Z-0.125000
G01 X54.906926 Y163.935766 Z-0.125000
G00 Z5.000000

(End cutting path id: path3707)


(Start cutting path id: path3705)
(Change tool to Default tool)

G00 Z5.000000
G00 X50.666789 Y160.573441

G01 Z-0.125000 F100.0(Penetrate)
G01 X50.666789 Y161.490438 Z-0.125000 F400.000000
G01 X52.500787 Y161.490438 Z-0.125000
G01 X52.500787 Y160.573441 Z-0.125000
G01 X50.666789 Y160.573441 Z-0.125000
G01 X50.666789 Y160.573441 Z-0.125000
G00 Z5.000000

(End cutting path id: path3705)


(Start cutting path id: path3705)
(Change tool to Default tool)

G00 Z5.000000
G00 X50.666789 Y162.407437

G01 Z-0.125000 F100.0(Penetrate)
G01 X50.666789 Y163.324436 Z-0.125000 F400.000000
G01 X51.889454 Y163.324436 Z-0.125000
G01 X51.889454 Y162.407437 Z-0.125000
G01 X50.666789 Y162.407437 Z-0.125000
G01 X50.666789 Y162.407437 Z-0.125000
G00 Z5.000000

(End cutting path id: path3705)


(Start cutting path id: path3705)
(Change tool to Default tool)

G00 Z5.000000
G00 X49.444126 Y160.573441

G01 Z-0.125000 F100.0(Penetrate)
G01 X49.444126 Y165.159552 Z-0.125000 F400.000000
G01 X50.361122 Y165.159552 Z-0.125000
G01 X50.361122 Y160.573441 Z-0.125000
G01 X49.444126 Y160.573441 Z-0.125000
G01 X49.444126 Y160.573441 Z-0.125000
G00 Z5.000000

(End cutting path id: path3705)


(Start cutting path id: path3705)
(Change tool to Default tool)

G00 Z5.000000
G00 X50.666789 Y164.241433

G01 Z-0.125000 F100.0(Penetrate)
G01 X50.666789 Y165.159552 Z-0.125000 F400.000000
G01 X52.500787 Y165.159552 Z-0.125000
G01 X52.500787 Y164.241433 Z-0.125000
G01 X50.666789 Y164.241433 Z-0.125000
G01 X50.666789 Y164.241433 Z-0.125000
G00 Z5.000000

(End cutting path id: path3705)


(Start cutting path id: path3703)
(Change tool to Default tool)

G00 Z5.000000
G00 X46.120987 Y160.573441

G01 Z-0.125000 F100.0(Penetrate)
G01 X46.120987 Y165.159552 Z-0.125000 F400.000000
G01 X47.037984 Y165.159552 Z-0.125000
G01 X47.037984 Y160.573441 Z-0.125000
G01 X46.120987 Y160.573441 Z-0.125000
G01 X46.120987 Y160.573441 Z-0.125000
G00 Z5.000000

(End cutting path id: path3703)


(Start cutting path id: path3703)
(Change tool to Default tool)

G00 Z5.000000
G00 X48.260649 Y160.573441

G01 Z-0.125000 F100.0(Penetrate)
G01 X48.260649 Y162.254044 Z-0.125000 F400.000000
G01 X48.107256 Y162.407437 Z-0.125000
G01 X47.343650 Y162.407437 Z-0.125000
G01 X47.343650 Y163.324436 Z-0.125000
G01 X48.107256 Y163.324436 Z-0.125000
G01 X48.260649 Y163.477827 Z-0.125000
G01 X48.260649 Y164.089160 Z-0.125000
G01 X48.107256 Y164.241433 Z-0.125000
G01 X47.343650 Y164.241433 Z-0.125000
G01 X47.343650 Y165.159552 Z-0.125000
G01 X48.566316 Y165.159552 Z-0.125000
G01 X49.177646 Y164.547099 Z-0.125000
G01 X49.177646 Y163.018770 Z-0.125000
G01 X49.176517 Y163.018770 Z-0.125000
G01 X49.025362 Y162.866497 Z-0.125000
G01 X49.177635 Y162.713104 Z-0.125000
G01 X49.177635 Y160.573441 Z-0.125000
G01 X48.260638 Y160.573441 Z-0.125000
G01 X48.260649 Y160.573441 Z-0.125000
G00 Z5.000000

(End cutting path id: path3703)


(Start cutting path id: path25648)
(Change tool to Default tool)

G00 Z5.000000
G00 X43.016131 Y41.641116

G01 Z-0.125000 F100.0(Penetrate)
G03 X42.832331 Y42.329142 Z-0.125000 I-1.374999 J0.001246 F400.000000
G03 X42.328991 Y42.832939 Z-0.125000 I-1.191200 J-0.686781
G03 X41.641131 Y43.017361 Z-0.125000 I-0.687860 J-1.190577
G03 X40.953272 Y42.832939 Z-0.125000 I0.000000 J-1.375000
G03 X40.449931 Y42.329142 Z-0.125000 I0.687860 J-1.190577
G03 X40.266132 Y41.641116 Z-0.125000 I1.191200 J-0.686781
G03 X40.449931 Y40.953089 Z-0.125000 I1.374999 J-0.001246
G03 X40.953272 Y40.449293 Z-0.125000 I1.191200 J0.686781
G03 X41.641131 Y40.264870 Z-0.125000 I0.687860 J1.190577
G03 X42.328991 Y40.449293 Z-0.125000 I0.000000 J1.375000
G03 X42.832331 Y40.953089 Z-0.125000 I-0.687860 J1.190577
G03 X43.016131 Y41.641116 Z-0.125000 I-1.191200 J0.686781
G01 X43.016131 Y41.641116 Z-0.125000
G00 Z5.000000

(End cutting path id: path25648)


(Start cutting path id: path25646)
(Change tool to Default tool)

G00 Z5.000000
G00 X121.016130 Y88.141116

G01 Z-0.125000 F100.0(Penetrate)
G03 X120.832331 Y88.829142 Z-0.125000 I-1.374999 J0.001246 F400.000000
G03 X120.328991 Y89.332939 Z-0.125000 I-1.191200 J-0.686781
G03 X119.641131 Y89.517362 Z-0.125000 I-0.687860 J-1.190577
G03 X118.953271 Y89.332939 Z-0.125000 I0.000000 J-1.375000
G03 X118.449931 Y88.829142 Z-0.125000 I0.687860 J-1.190577
G03 X118.266132 Y88.141116 Z-0.125000 I1.191200 J-0.686781
G03 X118.449931 Y87.453090 Z-0.125000 I1.374999 J-0.001246
G03 X118.953271 Y86.949293 Z-0.125000 I1.191200 J0.686781
G03 X119.641131 Y86.764870 Z-0.125000 I0.687860 J1.190577
G03 X120.328991 Y86.949293 Z-0.125000 I-0.000000 J1.375000
G03 X120.832331 Y87.453090 Z-0.125000 I-0.687860 J1.190577
G03 X121.016130 Y88.141116 Z-0.125000 I-1.191200 J0.686781
G01 X121.016130 Y88.141116 Z-0.125000
G00 Z5.000000

(End cutting path id: path25646)


(Start cutting path id: path25644)
(Change tool to Default tool)

G00 Z5.000000
G00 X101.516133 Y41.641116

G01 Z-0.125000 F100.0(Penetrate)
G03 X101.331917 Y42.328616 Z-0.125000 I-1.375001 J-0.000000 F400.000000
G03 X100.828632 Y42.831901 Z-0.125000 I-1.190786 J-0.687500
G03 X100.141132 Y43.016116 Z-0.125000 I-0.687500 J-1.190786
G03 X99.453631 Y42.831901 Z-0.125000 I0.000000 J-1.375001
G03 X98.950346 Y42.328616 Z-0.125000 I0.687500 J-1.190786
G03 X98.766131 Y41.641116 Z-0.125000 I1.190786 J-0.687500
G03 X98.950346 Y40.953615 Z-0.125000 I1.375001 J0.000000
G03 X99.453631 Y40.450330 Z-0.125000 I1.190786 J0.687500
G03 X100.141132 Y40.266115 Z-0.125000 I0.687500 J1.190786
G03 X100.828632 Y40.450330 Z-0.125000 I-0.000000 J1.375001
G03 X101.331917 Y40.953615 Z-0.125000 I-0.687500 J1.190786
G03 X101.516133 Y41.641116 Z-0.125000 I-1.190786 J0.687500
G01 X101.516133 Y41.641116 Z-0.125000
G00 Z5.000000

(End cutting path id: path25644)


(Start cutting path id: path25642)
(Change tool to Default tool)

G00 Z5.000000
G00 X23.516131 Y88.141116

G01 Z-0.125000 F100.0(Penetrate)
G03 X23.331916 Y88.828616 Z-0.125000 I-1.375000 J0.000000 F400.000000
G03 X22.828631 Y89.331901 Z-0.125000 I-1.190785 J-0.687500
G03 X22.141131 Y89.516116 Z-0.125000 I-0.687500 J-1.190785
G03 X21.453631 Y89.331901 Z-0.125000 I-0.000000 J-1.375000
G03 X20.950346 Y88.828616 Z-0.125000 I0.687500 J-1.190785
G03 X20.766131 Y88.141116 Z-0.125000 I1.190785 J-0.687500
G03 X20.950346 Y87.453616 Z-0.125000 I1.375000 J-0.000000
G03 X21.453631 Y86.950331 Z-0.125000 I1.190785 J0.687500
G03 X22.141131 Y86.766116 Z-0.125000 I0.687500 J1.190785
G03 X22.828631 Y86.950331 Z-0.125000 I-0.000000 J1.375000
G03 X23.331916 Y87.453616 Z-0.125000 I-0.687500 J1.190785
G03 X23.516131 Y88.141116 Z-0.125000 I-1.190785 J0.687500
G01 X23.516131 Y88.141116 Z-0.125000
G00 Z5.000000

(End cutting path id: path25642)


(Start cutting path id: path25640)
(Change tool to Default tool)

G00 Z5.000000
G00 X121.016130 Y5.141107

G01 Z-0.125000 F100.0(Penetrate)
G03 X120.832331 Y5.829133 Z-0.125000 I-1.374999 J0.001246 F400.000000
G03 X120.328991 Y6.332930 Z-0.125000 I-1.191200 J-0.686781
G03 X119.641131 Y6.517352 Z-0.125000 I-0.687860 J-1.190577
G03 X118.953271 Y6.332930 Z-0.125000 I-0.000000 J-1.375000
G03 X118.449931 Y5.829133 Z-0.125000 I0.687860 J-1.190577
G03 X118.266132 Y5.141107 Z-0.125000 I1.191200 J-0.686781
G03 X118.449931 Y4.453080 Z-0.125000 I1.374999 J-0.001246
G03 X118.953271 Y3.949284 Z-0.125000 I1.191200 J0.686781
G03 X119.641131 Y3.764861 Z-0.125000 I0.687860 J1.190577
G03 X120.328991 Y3.949284 Z-0.125000 I-0.000000 J1.375000
G03 X120.832331 Y4.453080 Z-0.125000 I-0.687860 J1.190577
G03 X121.016130 Y5.141107 Z-0.125000 I-1.191200 J0.686781
G01 X121.016130 Y5.141107 Z-0.125000
G00 Z5.000000

(End cutting path id: path25640)


(Start cutting path id: path25638)
(Change tool to Default tool)

G00 Z5.000000
G00 X23.516131 Y161.141117

G01 Z-0.125000 F100.0(Penetrate)
G03 X23.331916 Y161.828617 Z-0.125000 I-1.375000 J0.000000 F400.000000
G03 X22.828631 Y162.331902 Z-0.125000 I-1.190785 J-0.687500
G03 X22.141131 Y162.516117 Z-0.125000 I-0.687500 J-1.190785
G03 X21.453631 Y162.331902 Z-0.125000 I0.000000 J-1.375000
G03 X20.950346 Y161.828617 Z-0.125000 I0.687500 J-1.190785
G03 X20.766131 Y161.141117 Z-0.125000 I1.190785 J-0.687500
G03 X20.950346 Y160.453617 Z-0.125000 I1.375000 J0.000000
G03 X21.453631 Y159.950332 Z-0.125000 I1.190785 J0.687500
G03 X22.141131 Y159.766117 Z-0.125000 I0.687500 J1.190785
G03 X22.828631 Y159.950332 Z-0.125000 I-0.000000 J1.375000
G03 X23.331916 Y160.453617 Z-0.125000 I-0.687500 J1.190785
G03 X23.516131 Y161.141117 Z-0.125000 I-1.190785 J0.687500
G01 X23.516131 Y161.141117 Z-0.125000
G00 Z5.000000

(End cutting path id: path25638)


(Start cutting path id: path25636)
(Change tool to Default tool)

G00 Z5.000000
G00 X23.516131 Y5.141107

G01 Z-0.125000 F100.0(Penetrate)
G03 X23.331916 Y5.828607 Z-0.125000 I-1.375000 J0.000000 F400.000000
G03 X22.828631 Y6.331891 Z-0.125000 I-1.190785 J-0.687500
G03 X22.141131 Y6.516107 Z-0.125000 I-0.687500 J-1.190785
G03 X21.453631 Y6.331891 Z-0.125000 I-0.000000 J-1.375000
G03 X20.950346 Y5.828607 Z-0.125000 I0.687500 J-1.190785
G03 X20.766131 Y5.141107 Z-0.125000 I1.190785 J-0.687500
G03 X20.950346 Y4.453607 Z-0.125000 I1.375000 J-0.000000
G03 X21.453631 Y3.950322 Z-0.125000 I1.190785 J0.687500
G03 X22.141131 Y3.766107 Z-0.125000 I0.687500 J1.190785
G03 X22.828631 Y3.950322 Z-0.125000 I-0.000000 J1.375000
G03 X23.331916 Y4.453607 Z-0.125000 I-0.687500 J1.190785
G03 X23.516131 Y5.141107 Z-0.125000 I-1.190785 J0.687500
G01 X23.516131 Y5.141107 Z-0.125000
G00 Z5.000000

(End cutting path id: path25636)


(Start cutting path id: path25634)
(Change tool to Default tool)

G00 Z5.000000
G00 X121.016130 Y161.141117

G01 Z-0.125000 F100.0(Penetrate)
G03 X120.832331 Y161.829144 Z-0.125000 I-1.374999 J0.001246 F400.000000
G03 X120.328991 Y162.332940 Z-0.125000 I-1.191200 J-0.686781
G03 X119.641131 Y162.517363 Z-0.125000 I-0.687860 J-1.190577
G03 X118.953271 Y162.332940 Z-0.125000 I0.000000 J-1.375000
G03 X118.449931 Y161.829144 Z-0.125000 I0.687860 J-1.190577
G03 X118.266132 Y161.141117 Z-0.125000 I1.191200 J-0.686781
G03 X118.449931 Y160.453091 Z-0.125000 I1.374999 J-0.001246
G03 X118.953271 Y159.949294 Z-0.125000 I1.191200 J0.686781
G03 X119.641131 Y159.764871 Z-0.125000 I0.687860 J1.190577
G03 X120.328991 Y159.949294 Z-0.125000 I-0.000000 J1.375000
G03 X120.832331 Y160.453091 Z-0.125000 I-0.687860 J1.190577
G03 X121.016130 Y161.141117 Z-0.125000 I-1.191200 J0.686781
G01 X121.016130 Y161.141117 Z-0.125000
G00 Z5.000000

(End cutting path id: path25634)


(Start cutting path id: path25632)
(Change tool to Default tool)

G00 Z5.000000
G00 X23.516131 Y78.141116

G01 Z-0.125000 F100.0(Penetrate)
G03 X23.331916 Y78.828616 Z-0.125000 I-1.375000 J0.000000 F400.000000
G03 X22.828631 Y79.331901 Z-0.125000 I-1.190785 J-0.687500
G03 X22.141131 Y79.516116 Z-0.125000 I-0.687500 J-1.190785
G03 X21.453631 Y79.331901 Z-0.125000 I-0.000000 J-1.375000
G03 X20.950346 Y78.828616 Z-0.125000 I0.687500 J-1.190785
G03 X20.766131 Y78.141116 Z-0.125000 I1.190785 J-0.687500
G03 X20.950346 Y77.453616 Z-0.125000 I1.375000 J-0.000000
G03 X21.453631 Y76.950331 Z-0.125000 I1.190785 J0.687500
G03 X22.141131 Y76.766116 Z-0.125000 I0.687500 J1.190785
G03 X22.828631 Y76.950331 Z-0.125000 I-0.000000 J1.375000
G03 X23.331916 Y77.453616 Z-0.125000 I-0.687500 J1.190785
G03 X23.516131 Y78.141116 Z-0.125000 I-1.190785 J0.687500
G01 X23.516131 Y78.141116 Z-0.125000
G00 Z5.000000

(End cutting path id: path25632)


(Start cutting path id: path25630)
(Change tool to Default tool)

G00 Z5.000000
G00 X43.016131 Y124.641117

G01 Z-0.125000 F100.0(Penetrate)
G03 X42.832331 Y125.329143 Z-0.125000 I-1.374999 J0.001246 F400.000000
G03 X42.328991 Y125.832940 Z-0.125000 I-1.191200 J-0.686781
G03 X41.641131 Y126.017362 Z-0.125000 I-0.687860 J-1.190577
G03 X40.953272 Y125.832940 Z-0.125000 I0.000000 J-1.375000
G03 X40.449931 Y125.329143 Z-0.125000 I0.687860 J-1.190577
G03 X40.266132 Y124.641117 Z-0.125000 I1.191200 J-0.686781
G03 X40.449931 Y123.953090 Z-0.125000 I1.374999 J-0.001246
G03 X40.953272 Y123.449294 Z-0.125000 I1.191200 J0.686781
G03 X41.641131 Y123.264871 Z-0.125000 I0.687860 J1.190577
G03 X42.328991 Y123.449294 Z-0.125000 I-0.000000 J1.375000
G03 X42.832331 Y123.953090 Z-0.125000 I-0.687860 J1.190577
G03 X43.016131 Y124.641117 Z-0.125000 I-1.191200 J0.686781
G01 X43.016131 Y124.641117 Z-0.125000
G00 Z5.000000

(End cutting path id: path25630)


(Start cutting path id: path25628)
(Change tool to Default tool)

G00 Z5.000000
G00 X121.016130 Y78.141116

G01 Z-0.125000 F100.0(Penetrate)
G03 X120.832331 Y78.829143 Z-0.125000 I-1.374999 J0.001246 F400.000000
G03 X120.328991 Y79.332939 Z-0.125000 I-1.191200 J-0.686781
G03 X119.641131 Y79.517362 Z-0.125000 I-0.687860 J-1.190577
G03 X118.953271 Y79.332939 Z-0.125000 I-0.000000 J-1.375000
G03 X118.449931 Y78.829143 Z-0.125000 I0.687860 J-1.190577
G03 X118.266132 Y78.141116 Z-0.125000 I1.191200 J-0.686781
G03 X118.449931 Y77.453090 Z-0.125000 I1.374999 J-0.001246
G03 X118.953271 Y76.949293 Z-0.125000 I1.191200 J0.686781
G03 X119.641131 Y76.764870 Z-0.125000 I0.687860 J1.190577
G03 X120.328991 Y76.949293 Z-0.125000 I-0.000000 J1.375000
G03 X120.832331 Y77.453090 Z-0.125000 I-0.687860 J1.190577
G03 X121.016130 Y78.141116 Z-0.125000 I-1.191200 J0.686781
G01 X121.016130 Y78.141116 Z-0.125000
G00 Z5.000000

(End cutting path id: path25628)


(Start cutting path id: path25626)
(Change tool to Default tool)

G00 Z5.000000
G00 X101.516133 Y124.641117

G01 Z-0.125000 F100.0(Penetrate)
G03 X101.331917 Y125.328617 Z-0.125000 I-1.375001 J0.000000 F400.000000
G03 X100.828632 Y125.831902 Z-0.125000 I-1.190786 J-0.687500
G03 X100.141132 Y126.016117 Z-0.125000 I-0.687500 J-1.190786
G03 X99.453631 Y125.831902 Z-0.125000 I0.000000 J-1.375001
G03 X98.950346 Y125.328617 Z-0.125000 I0.687500 J-1.190786
G03 X98.766131 Y124.641117 Z-0.125000 I1.190786 J-0.687500
G03 X98.950346 Y123.953616 Z-0.125000 I1.375001 J0.000000
G03 X99.453631 Y123.450331 Z-0.125000 I1.190786 J0.687500
G03 X100.141132 Y123.266116 Z-0.125000 I0.687500 J1.190786
G03 X100.828632 Y123.450331 Z-0.125000 I-0.000000 J1.375001
G03 X101.331917 Y123.953616 Z-0.125000 I-0.687500 J1.190786
G03 X101.516133 Y124.641117 Z-0.125000 I-1.190786 J0.687500
G01 X101.516133 Y124.641117 Z-0.125000
G00 Z5.000000

(End cutting path id: path25626)


(Start cutting path id: path25624)
(Change tool to Default tool)

G00 Z5.000000
G00 X129.391131 Y0.144898

G01 Z-0.125000 F100.0(Penetrate)
G03 X131.895898 Y0.401765 Z-0.125000 I0.000000 J12.340723 F400.000000
G03 X134.158467 Y1.107181 Z-0.125000 I-2.462227 J11.878627
G03 X136.246447 Y2.241120 Z-0.125000 I-4.755586 J11.246027
G03 X138.051851 Y3.731502 Z-0.125000 I-6.906293 J10.204771
G03 X139.542791 Y5.536445 Z-0.125000 I-8.711697 J8.714389
G03 X140.677376 Y7.624076 Z-0.125000 I-10.109972 J6.846691
G03 X141.383490 Y9.886426 Z-0.125000 I-11.171750 J4.728247
G03 X141.641131 Y12.391113 Z-0.125000 I-12.083082 J2.508501
G00 Z5.000000

(End cutting path id: path25624)


(Start cutting path id: path25622)
(Change tool to Default tool)

G00 Z5.000000
G00 X25.891131 Y150.427013

G01 Z-0.125000 F100.0(Penetrate)
G01 X31.891131 Y146.962913 Z-0.125000 F400.000000
G00 Z5.000000

(End cutting path id: path25622)


(Start cutting path id: path25620)
(Change tool to Default tool)

G00 Z5.000000
G00 X141.641131 Y70.891115

G01 Z-0.125000 F100.0(Penetrate)
G03 X141.384155 Y73.396414 Z-0.125000 I-12.340793 J-0.000001 F400.000000
G03 X140.678465 Y75.659368 Z-0.125000 I-11.878431 J-2.462718
G03 X139.544098 Y77.747635 Z-0.125000 I-11.245610 J-4.756492
G03 X138.053189 Y79.553173 Z-0.125000 I-10.203993 J-6.907546
G03 X136.247651 Y81.044082 Z-0.125000 I-8.713084 J-8.713084
G03 X134.159384 Y82.178449 Z-0.125000 I-6.844759 J-10.111243
G03 X131.896430 Y82.884139 Z-0.125000 I-4.725671 J-11.172741
G03 X129.391131 Y83.141115 Z-0.125000 I-2.505300 J-12.083817
G00 Z5.000000

(End cutting path id: path25620)


(Start cutting path id: path25618)
(Change tool to Default tool)

G00 Z5.000000
G00 X6.391131 Y150.427013

G01 Z-0.125000 F100.0(Penetrate)
G01 X12.391131 Y146.962913 Z-0.125000 F400.000000
G00 Z5.000000

(End cutting path id: path25618)


(Start cutting path id: path25616)
(Change tool to Default tool)

G00 Z5.000000
G00 X12.391131 Y83.141115

G01 Z-0.125000 F100.0(Penetrate)
G03 X9.885832 Y82.884139 Z-0.125000 I0.000000 J-12.340793 F400.000000
G03 X7.622878 Y82.178449 Z-0.125000 I2.462717 J-11.878431
G03 X5.534611 Y81.044082 Z-0.125000 I4.756492 J-11.245610
G03 X3.729073 Y79.553173 Z-0.125000 I6.907546 J-10.203993
G03 X2.238164 Y77.747635 Z-0.125000 I8.713084 J-8.713084
G03 X1.103797 Y75.659368 Z-0.125000 I10.111243 J-6.844759
G03 X0.398106 Y73.396414 Z-0.125000 I11.172740 J-4.725671
G03 X0.141131 Y70.891115 Z-0.125000 I12.083817 J-2.505300
G00 Z5.000000

(End cutting path id: path25616)


(Start cutting path id: path25614)
(Change tool to Default tool)

G00 Z5.000000
G00 X6.391131 Y91.927014

G01 Z-0.125000 F100.0(Penetrate)
G01 X12.391131 Y88.462911 Z-0.125000 F400.000000
G00 Z5.000000

(End cutting path id: path25614)


(Start cutting path id: path25612)
(Change tool to Default tool)

G00 Z5.000000
G00 X6.691131 Y9.100233

G01 Z-0.125000 F100.0(Penetrate)
G01 X12.391131 Y5.809324 Z-0.125000 F400.000000
G00 Z5.000000

(End cutting path id: path25612)


(Start cutting path id: path25610)
(Change tool to Default tool)

G00 Z5.000000
G00 X25.891131 Y91.927014

G01 Z-0.125000 F100.0(Penetrate)
G01 X31.891131 Y88.462911 Z-0.125000 F400.000000
G00 Z5.000000

(End cutting path id: path25610)


(Start cutting path id: path25608)
(Change tool to Default tool)

G00 Z5.000000
G00 X26.191131 Y9.100233

G01 Z-0.125000 F100.0(Penetrate)
G01 X31.891131 Y5.809324 Z-0.125000 F400.000000
G00 Z5.000000

(End cutting path id: path25608)


(Start cutting path id: path25606)
(Change tool to Default tool)

G00 Z5.000000
G00 X45.391132 Y91.927014

G01 Z-0.125000 F100.0(Penetrate)
G01 X51.391132 Y88.462911 Z-0.125000 F400.000000
G00 Z5.000000

(End cutting path id: path25606)


(Start cutting path id: path25604)
(Change tool to Default tool)

G00 Z5.000000
G00 X6.691131 Y28.600219

G01 Z-0.125000 F100.0(Penetrate)
G01 X12.391131 Y25.309322 Z-0.125000 F400.000000
G00 Z5.000000

(End cutting path id: path25604)


(Start cutting path id: path25602)
(Change tool to Default tool)

G00 Z5.000000
G00 X64.891130 Y91.927014

G01 Z-0.125000 F100.0(Penetrate)
G01 X70.891132 Y88.462911 Z-0.125000 F400.000000
G00 Z5.000000

(End cutting path id: path25602)


(Start cutting path id: path25600)
(Change tool to Default tool)

G00 Z5.000000
G00 X6.691131 Y48.100220

G01 Z-0.125000 F100.0(Penetrate)
G01 X12.391131 Y44.809323 Z-0.125000 F400.000000
G00 Z5.000000

(End cutting path id: path25600)


(Start cutting path id: path25598)
(Change tool to Default tool)

G00 Z5.000000
G00 X84.391131 Y91.927014

G01 Z-0.125000 F100.0(Penetrate)
G01 X90.391130 Y88.462911 Z-0.125000 F400.000000
G00 Z5.000000

(End cutting path id: path25598)


(Start cutting path id: path25596)
(Change tool to Default tool)

G00 Z5.000000
G00 X6.691131 Y67.600221

G01 Z-0.125000 F100.0(Penetrate)
G01 X12.391131 Y64.309323 Z-0.125000 F400.000000
G00 Z5.000000

(End cutting path id: path25596)


(Start cutting path id: path25594)
(Change tool to Default tool)

G00 Z5.000000
G00 X103.891131 Y91.927014

G01 Z-0.125000 F100.0(Penetrate)
G01 X109.891131 Y88.462911 Z-0.125000 F400.000000
G00 Z5.000000

(End cutting path id: path25594)


(Start cutting path id: path25592)
(Change tool to Default tool)

G00 Z5.000000
G00 X45.691132 Y9.100233

G01 Z-0.125000 F100.0(Penetrate)
G01 X51.391132 Y5.809324 Z-0.125000 F400.000000
G00 Z5.000000

(End cutting path id: path25592)


(Start cutting path id: path25590)
(Change tool to Default tool)

G00 Z5.000000
G00 X123.391132 Y91.927014

G01 Z-0.125000 F100.0(Penetrate)
G01 X129.391131 Y88.462911 Z-0.125000 F400.000000
G00 Z5.000000

(End cutting path id: path25590)


(Start cutting path id: path25588)
(Change tool to Default tool)

G00 Z5.000000
G00 X65.191132 Y9.100233

G01 Z-0.125000 F100.0(Penetrate)
G01 X70.891132 Y5.809324 Z-0.125000 F400.000000
G00 Z5.000000

(End cutting path id: path25588)


(Start cutting path id: path25586)
(Change tool to Default tool)

G00 Z5.000000
G00 X123.391132 Y111.427015

G01 Z-0.125000 F100.0(Penetrate)
G01 X129.391131 Y107.962912 Z-0.125000 F400.000000
G00 Z5.000000

(End cutting path id: path25586)


(Start cutting path id: path25584)
(Change tool to Default tool)

G00 Z5.000000
G00 X84.691130 Y9.100233

G01 Z-0.125000 F100.0(Penetrate)
G01 X90.391130 Y5.809324 Z-0.125000 F400.000000
G00 Z5.000000

(End cutting path id: path25584)


(Start cutting path id: path25582)
(Change tool to Default tool)

G00 Z5.000000
G00 X103.891131 Y111.427015

G01 Z-0.125000 F100.0(Penetrate)
G01 X109.891131 Y107.962912 Z-0.125000 F400.000000
G00 Z5.000000

(End cutting path id: path25582)


(Start cutting path id: path25580)
(Change tool to Default tool)

G00 Z5.000000
G00 X104.191131 Y9.100233

G01 Z-0.125000 F100.0(Penetrate)
G01 X109.891131 Y5.809324 Z-0.125000 F400.000000
G00 Z5.000000

(End cutting path id: path25580)


(Start cutting path id: path25578)
(Change tool to Default tool)

G00 Z5.000000
G00 X84.391131 Y111.427015

G01 Z-0.125000 F100.0(Penetrate)
G01 X90.391130 Y107.962912 Z-0.125000 F400.000000
G00 Z5.000000

(End cutting path id: path25578)


(Start cutting path id: path25576)
(Change tool to Default tool)

G00 Z5.000000
G00 X123.691131 Y9.100233

G01 Z-0.125000 F100.0(Penetrate)
G01 X129.391131 Y5.809324 Z-0.125000 F400.000000
G00 Z5.000000

(End cutting path id: path25576)


(Start cutting path id: path25574)
(Change tool to Default tool)

G00 Z5.000000
G00 X64.891130 Y111.427015

G01 Z-0.125000 F100.0(Penetrate)
G01 X70.891132 Y107.962912 Z-0.125000 F400.000000
G00 Z5.000000

(End cutting path id: path25574)


(Start cutting path id: path25572)
(Change tool to Default tool)

G00 Z5.000000
G00 X26.191131 Y28.600219

G01 Z-0.125000 F100.0(Penetrate)
G01 X31.891131 Y25.309322 Z-0.125000 F400.000000
G00 Z5.000000

(End cutting path id: path25572)


(Start cutting path id: path25570)
(Change tool to Default tool)

G00 Z5.000000
G00 X45.391132 Y111.427015

G01 Z-0.125000 F100.0(Penetrate)
G01 X51.391132 Y107.962912 Z-0.125000 F400.000000
G00 Z5.000000

(End cutting path id: path25570)


(Start cutting path id: path25568)
(Change tool to Default tool)

G00 Z5.000000
G00 X26.191131 Y48.100220

G01 Z-0.125000 F100.0(Penetrate)
G01 X31.891131 Y44.809323 Z-0.125000 F400.000000
G00 Z5.000000

(End cutting path id: path25568)


(Start cutting path id: path25566)
(Change tool to Default tool)

G00 Z5.000000
G00 X25.891131 Y111.427015

G01 Z-0.125000 F100.0(Penetrate)
G01 X31.891131 Y107.962912 Z-0.125000 F400.000000
G00 Z5.000000

(End cutting path id: path25566)


(Start cutting path id: path25564)
(Change tool to Default tool)

G00 Z5.000000
G00 X26.191131 Y67.600221

G01 Z-0.125000 F100.0(Penetrate)
G01 X31.891131 Y64.309323 Z-0.125000 F400.000000
G00 Z5.000000

(End cutting path id: path25564)


(Start cutting path id: path25562)
(Change tool to Default tool)

G00 Z5.000000
G00 X6.391131 Y111.427015

G01 Z-0.125000 F100.0(Penetrate)
G01 X12.391131 Y107.962912 Z-0.125000 F400.000000
G00 Z5.000000

(End cutting path id: path25562)


(Start cutting path id: path25560)
(Change tool to Default tool)

G00 Z5.000000
G00 X45.691132 Y28.600219

G01 Z-0.125000 F100.0(Penetrate)
G01 X51.391132 Y25.309322 Z-0.125000 F400.000000
G00 Z5.000000

(End cutting path id: path25560)


(Start cutting path id: path25558)
(Change tool to Default tool)

G00 Z5.000000
G00 X6.391131 Y130.927016

G01 Z-0.125000 F100.0(Penetrate)
G01 X12.391131 Y127.462913 Z-0.125000 F400.000000
G00 Z5.000000

(End cutting path id: path25558)


(Start cutting path id: path25556)
(Change tool to Default tool)

G00 Z5.000000
G00 X65.191132 Y28.600219

G01 Z-0.125000 F100.0(Penetrate)
G01 X70.891132 Y25.309322 Z-0.125000 F400.000000
G00 Z5.000000

(End cutting path id: path25556)


(Start cutting path id: path25554)
(Change tool to Default tool)

G00 Z5.000000
G00 X25.891131 Y130.927016

G01 Z-0.125000 F100.0(Penetrate)
G01 X31.891131 Y127.462913 Z-0.125000 F400.000000
G00 Z5.000000

(End cutting path id: path25554)


(Start cutting path id: path25552)
(Change tool to Default tool)

G00 Z5.000000
G00 X84.691130 Y28.600219

G01 Z-0.125000 F100.0(Penetrate)
G01 X90.391130 Y25.309322 Z-0.125000 F400.000000
G00 Z5.000000

(End cutting path id: path25552)


(Start cutting path id: path25550)
(Change tool to Default tool)

G00 Z5.000000
G00 X45.391132 Y130.927016

G01 Z-0.125000 F100.0(Penetrate)
G01 X51.391132 Y127.462913 Z-0.125000 F400.000000
G00 Z5.000000

(End cutting path id: path25550)


(Start cutting path id: path25548)
(Change tool to Default tool)

G00 Z5.000000
G00 X104.191131 Y28.600219

G01 Z-0.125000 F100.0(Penetrate)
G01 X109.891131 Y25.309322 Z-0.125000 F400.000000
G00 Z5.000000

(End cutting path id: path25548)


(Start cutting path id: path25546)
(Change tool to Default tool)

G00 Z5.000000
G00 X64.891130 Y130.927016

G01 Z-0.125000 F100.0(Penetrate)
G01 X70.891132 Y127.462913 Z-0.125000 F400.000000
G00 Z5.000000

(End cutting path id: path25546)


(Start cutting path id: path25544)
(Change tool to Default tool)

G00 Z5.000000
G00 X123.691131 Y28.600219

G01 Z-0.125000 F100.0(Penetrate)
G01 X129.391131 Y25.309322 Z-0.125000 F400.000000
G00 Z5.000000

(End cutting path id: path25544)


(Start cutting path id: path25542)
(Change tool to Default tool)

G00 Z5.000000
G00 X84.391131 Y130.927016

G01 Z-0.125000 F100.0(Penetrate)
G01 X90.391130 Y127.462913 Z-0.125000 F400.000000
G00 Z5.000000

(End cutting path id: path25542)


(Start cutting path id: path25540)
(Change tool to Default tool)

G00 Z5.000000
G00 X45.691132 Y48.100220

G01 Z-0.125000 F100.0(Penetrate)
G01 X51.391132 Y44.809323 Z-0.125000 F400.000000
G00 Z5.000000

(End cutting path id: path25540)


(Start cutting path id: path25538)
(Change tool to Default tool)

G00 Z5.000000
G00 X103.891131 Y130.927016

G01 Z-0.125000 F100.0(Penetrate)
G01 X109.891131 Y127.462913 Z-0.125000 F400.000000
G00 Z5.000000

(End cutting path id: path25538)


(Start cutting path id: path25536)
(Change tool to Default tool)

G00 Z5.000000
G00 X65.191132 Y48.100220

G01 Z-0.125000 F100.0(Penetrate)
G01 X70.891132 Y44.809323 Z-0.125000 F400.000000
G00 Z5.000000

(End cutting path id: path25536)


(Start cutting path id: path25534)
(Change tool to Default tool)

G00 Z5.000000
G00 X123.391132 Y130.927016

G01 Z-0.125000 F100.0(Penetrate)
G01 X129.391131 Y127.462913 Z-0.125000 F400.000000
G00 Z5.000000

(End cutting path id: path25534)


(Start cutting path id: path25532)
(Change tool to Default tool)

G00 Z5.000000
G00 X84.691130 Y48.100220

G01 Z-0.125000 F100.0(Penetrate)
G01 X90.391130 Y44.809323 Z-0.125000 F400.000000
G00 Z5.000000

(End cutting path id: path25532)


(Start cutting path id: path25530)
(Change tool to Default tool)

G00 Z5.000000
G00 X123.391132 Y150.427013

G01 Z-0.125000 F100.0(Penetrate)
G01 X129.391131 Y146.962913 Z-0.125000 F400.000000
G00 Z5.000000

(End cutting path id: path25530)


(Start cutting path id: path25528)
(Change tool to Default tool)

G00 Z5.000000
G00 X104.191131 Y48.100220

G01 Z-0.125000 F100.0(Penetrate)
G01 X109.891131 Y44.809323 Z-0.125000 F400.000000
G00 Z5.000000

(End cutting path id: path25528)


(Start cutting path id: path25526)
(Change tool to Default tool)

G00 Z5.000000
G00 X103.891131 Y150.427013

G01 Z-0.125000 F100.0(Penetrate)
G01 X109.891131 Y146.962913 Z-0.125000 F400.000000
G00 Z5.000000

(End cutting path id: path25526)


(Start cutting path id: path25524)
(Change tool to Default tool)

G00 Z5.000000
G00 X123.691131 Y48.100220

G01 Z-0.125000 F100.0(Penetrate)
G01 X129.391131 Y44.809323 Z-0.125000 F400.000000
G00 Z5.000000

(End cutting path id: path25524)


(Start cutting path id: path25522)
(Change tool to Default tool)

G00 Z5.000000
G00 X84.391131 Y150.427013

G01 Z-0.125000 F100.0(Penetrate)
G01 X90.391130 Y146.962913 Z-0.125000 F400.000000
G00 Z5.000000

(End cutting path id: path25522)


(Start cutting path id: path25520)
(Change tool to Default tool)

G00 Z5.000000
G00 X45.691132 Y67.600221

G01 Z-0.125000 F100.0(Penetrate)
G01 X51.391132 Y64.309323 Z-0.125000 F400.000000
G00 Z5.000000

(End cutting path id: path25520)


(Start cutting path id: path25518)
(Change tool to Default tool)

G00 Z5.000000
G00 X64.891130 Y150.427013

G01 Z-0.125000 F100.0(Penetrate)
G01 X70.891132 Y146.962913 Z-0.125000 F400.000000
G00 Z5.000000

(End cutting path id: path25518)


(Start cutting path id: path25516)
(Change tool to Default tool)

G00 Z5.000000
G00 X65.191132 Y67.600221

G01 Z-0.125000 F100.0(Penetrate)
G01 X70.891132 Y64.309323 Z-0.125000 F400.000000
G00 Z5.000000

(End cutting path id: path25516)


(Start cutting path id: path25514)
(Change tool to Default tool)

G00 Z5.000000
G00 X45.391132 Y150.427013

G01 Z-0.125000 F100.0(Penetrate)
G01 X51.391132 Y146.962913 Z-0.125000 F400.000000
G00 Z5.000000

(End cutting path id: path25514)


(Start cutting path id: path25512)
(Change tool to Default tool)

G00 Z5.000000
G00 X84.691130 Y67.600221

G01 Z-0.125000 F100.0(Penetrate)
G01 X90.391130 Y64.309323 Z-0.125000 F400.000000
G00 Z5.000000

(End cutting path id: path25512)


(Start cutting path id: path25510)
(Change tool to Default tool)

G00 Z5.000000
G00 X25.891131 Y157.355219

G01 Z-0.125000 F100.0(Penetrate)
G01 X25.891131 Y150.427013 Z-0.125000 F400.000000
G00 Z5.000000

(End cutting path id: path25510)


(Start cutting path id: path25508)
(Change tool to Default tool)

G00 Z5.000000
G00 X104.191131 Y67.600221

G01 Z-0.125000 F100.0(Penetrate)
G01 X109.891131 Y64.309323 Z-0.125000 F400.000000
G00 Z5.000000

(End cutting path id: path25508)


(Start cutting path id: path25506)
(Change tool to Default tool)

G00 Z5.000000
G00 X6.391131 Y157.355219

G01 Z-0.125000 F100.0(Penetrate)
G01 X6.391131 Y150.427013 Z-0.125000 F400.000000
G00 Z5.000000

(End cutting path id: path25506)


(Start cutting path id: path25504)
(Change tool to Default tool)

G00 Z5.000000
G00 X123.691131 Y67.600221

G01 Z-0.125000 F100.0(Penetrate)
G01 X129.391131 Y64.309323 Z-0.125000 F400.000000
G00 Z5.000000

(End cutting path id: path25504)


(Start cutting path id: path25502)
(Change tool to Default tool)

G00 Z5.000000
G00 X6.391131 Y98.855217

G01 Z-0.125000 F100.0(Penetrate)
G01 X6.391131 Y91.927014 Z-0.125000 F400.000000
G00 Z5.000000

(End cutting path id: path25502)


(Start cutting path id: path25500)
(Change tool to Default tool)

G00 Z5.000000
G00 X6.691131 Y15.682011

G01 Z-0.125000 F100.0(Penetrate)
G01 X6.691131 Y9.100233 Z-0.125000 F400.000000
G00 Z5.000000

(End cutting path id: path25500)


(Start cutting path id: path25498)
(Change tool to Default tool)

G00 Z5.000000
G00 X25.891131 Y98.855217

G01 Z-0.125000 F100.0(Penetrate)
G01 X25.891131 Y91.927014 Z-0.125000 F400.000000
G00 Z5.000000

(End cutting path id: path25498)


(Start cutting path id: path25496)
(Change tool to Default tool)

G00 Z5.000000
G00 X26.191131 Y15.682011

G01 Z-0.125000 F100.0(Penetrate)
G01 X26.191131 Y9.100233 Z-0.125000 F400.000000
G00 Z5.000000

(End cutting path id: path25496)


(Start cutting path id: path25494)
(Change tool to Default tool)

G00 Z5.000000
G00 X45.391132 Y98.855217

G01 Z-0.125000 F100.0(Penetrate)
G01 X45.391132 Y91.927014 Z-0.125000 F400.000000
G00 Z5.000000

(End cutting path id: path25494)


(Start cutting path id: path25492)
(Change tool to Default tool)

G00 Z5.000000
G00 X6.691131 Y35.182011

G01 Z-0.125000 F100.0(Penetrate)
G01 X6.691131 Y28.600219 Z-0.125000 F400.000000
G00 Z5.000000

(End cutting path id: path25492)


(Start cutting path id: path25490)
(Change tool to Default tool)

G00 Z5.000000
G00 X64.891130 Y98.855217

G01 Z-0.125000 F100.0(Penetrate)
G01 X64.891130 Y91.927014 Z-0.125000 F400.000000
G00 Z5.000000

(End cutting path id: path25490)


(Start cutting path id: path25488)
(Change tool to Default tool)

G00 Z5.000000
G00 X6.691131 Y54.682012

G01 Z-0.125000 F100.0(Penetrate)
G01 X6.691131 Y48.100220 Z-0.125000 F400.000000
G00 Z5.000000

(End cutting path id: path25488)


(Start cutting path id: path25486)
(Change tool to Default tool)

G00 Z5.000000
G00 X84.391131 Y98.855217

G01 Z-0.125000 F100.0(Penetrate)
G01 X84.391131 Y91.927014 Z-0.125000 F400.000000
G00 Z5.000000

(End cutting path id: path25486)


(Start cutting path id: path25484)
(Change tool to Default tool)

G00 Z5.000000
G00 X6.691131 Y74.182013

G01 Z-0.125000 F100.0(Penetrate)
G01 X6.691131 Y67.600221 Z-0.125000 F400.000000
G00 Z5.000000

(End cutting path id: path25484)


(Start cutting path id: path25482)
(Change tool to Default tool)

G00 Z5.000000
G00 X103.891131 Y98.855217

G01 Z-0.125000 F100.0(Penetrate)
G01 X103.891131 Y91.927014 Z-0.125000 F400.000000
G00 Z5.000000

(End cutting path id: path25482)


(Start cutting path id: path25480)
(Change tool to Default tool)

G00 Z5.000000
G00 X45.691132 Y15.682011

G01 Z-0.125000 F100.0(Penetrate)
G01 X45.691132 Y9.100233 Z-0.125000 F400.000000
G00 Z5.000000

(End cutting path id: path25480)


(Start cutting path id: path25478)
(Change tool to Default tool)

G00 Z5.000000
G00 X123.391132 Y98.855217

G01 Z-0.125000 F100.0(Penetrate)
G01 X123.391132 Y91.927014 Z-0.125000 F400.000000
G00 Z5.000000

(End cutting path id: path25478)


(Start cutting path id: path25476)
(Change tool to Default tool)

G00 Z5.000000
G00 X65.191132 Y15.682011

G01 Z-0.125000 F100.0(Penetrate)
G01 X65.191132 Y9.100233 Z-0.125000 F400.000000
G00 Z5.000000

(End cutting path id: path25476)


(Start cutting path id: path25474)
(Change tool to Default tool)

G00 Z5.000000
G00 X123.391132 Y118.355218

G01 Z-0.125000 F100.0(Penetrate)
G01 X123.391132 Y111.427015 Z-0.125000 F400.000000
G00 Z5.000000

(End cutting path id: path25474)


(Start cutting path id: path25472)
(Change tool to Default tool)

G00 Z5.000000
G00 X84.691130 Y15.682011

G01 Z-0.125000 F100.0(Penetrate)
G01 X84.691130 Y9.100233 Z-0.125000 F400.000000
G00 Z5.000000

(End cutting path id: path25472)


(Start cutting path id: path25470)
(Change tool to Default tool)

G00 Z5.000000
G00 X103.891131 Y118.355218

G01 Z-0.125000 F100.0(Penetrate)
G01 X103.891131 Y111.427015 Z-0.125000 F400.000000
G00 Z5.000000

(End cutting path id: path25470)


(Start cutting path id: path25468)
(Change tool to Default tool)

G00 Z5.000000
G00 X104.191131 Y15.682011

G01 Z-0.125000 F100.0(Penetrate)
G01 X104.191131 Y9.100233 Z-0.125000 F400.000000
G00 Z5.000000

(End cutting path id: path25468)


(Start cutting path id: path25466)
(Change tool to Default tool)

G00 Z5.000000
G00 X84.391131 Y118.355218

G01 Z-0.125000 F100.0(Penetrate)
G01 X84.391131 Y111.427015 Z-0.125000 F400.000000
G00 Z5.000000

(End cutting path id: path25466)


(Start cutting path id: path25464)
(Change tool to Default tool)

G00 Z5.000000
G00 X123.691131 Y15.682011

G01 Z-0.125000 F100.0(Penetrate)
G01 X123.691131 Y9.100233 Z-0.125000 F400.000000
G00 Z5.000000

(End cutting path id: path25464)


(Start cutting path id: path25462)
(Change tool to Default tool)

G00 Z5.000000
G00 X64.891130 Y118.355218

G01 Z-0.125000 F100.0(Penetrate)
G01 X64.891130 Y111.427015 Z-0.125000 F400.000000
G00 Z5.000000

(End cutting path id: path25462)


(Start cutting path id: path25460)
(Change tool to Default tool)

G00 Z5.000000
G00 X26.191131 Y35.182011

G01 Z-0.125000 F100.0(Penetrate)
G01 X26.191131 Y28.600219 Z-0.125000 F400.000000
G00 Z5.000000

(End cutting path id: path25460)


(Start cutting path id: path25458)
(Change tool to Default tool)

G00 Z5.000000
G00 X45.391132 Y118.355218

G01 Z-0.125000 F100.0(Penetrate)
G01 X45.391132 Y111.427015 Z-0.125000 F400.000000
G00 Z5.000000

(End cutting path id: path25458)


(Start cutting path id: path25456)
(Change tool to Default tool)

G00 Z5.000000
G00 X26.191131 Y54.682012

G01 Z-0.125000 F100.0(Penetrate)
G01 X26.191131 Y48.100220 Z-0.125000 F400.000000
G00 Z5.000000

(End cutting path id: path25456)


(Start cutting path id: path25454)
(Change tool to Default tool)

G00 Z5.000000
G00 X25.891131 Y118.355218

G01 Z-0.125000 F100.0(Penetrate)
G01 X25.891131 Y111.427015 Z-0.125000 F400.000000
G00 Z5.000000

(End cutting path id: path25454)


(Start cutting path id: path25452)
(Change tool to Default tool)

G00 Z5.000000
G00 X26.191131 Y74.182013

G01 Z-0.125000 F100.0(Penetrate)
G01 X26.191131 Y67.600221 Z-0.125000 F400.000000
G00 Z5.000000

(End cutting path id: path25452)


(Start cutting path id: path25450)
(Change tool to Default tool)

G00 Z5.000000
G00 X6.391131 Y118.355218

G01 Z-0.125000 F100.0(Penetrate)
G01 X6.391131 Y111.427015 Z-0.125000 F400.000000
G00 Z5.000000

(End cutting path id: path25450)


(Start cutting path id: path25448)
(Change tool to Default tool)

G00 Z5.000000
G00 X45.691132 Y35.182011

G01 Z-0.125000 F100.0(Penetrate)
G01 X45.691132 Y28.600219 Z-0.125000 F400.000000
G00 Z5.000000

(End cutting path id: path25448)


(Start cutting path id: path25446)
(Change tool to Default tool)

G00 Z5.000000
G00 X6.391131 Y137.855218

G01 Z-0.125000 F100.0(Penetrate)
G01 X6.391131 Y130.927016 Z-0.125000 F400.000000
G00 Z5.000000

(End cutting path id: path25446)


(Start cutting path id: path25444)
(Change tool to Default tool)

G00 Z5.000000
G00 X65.191132 Y35.182011

G01 Z-0.125000 F100.0(Penetrate)
G01 X65.191132 Y28.600219 Z-0.125000 F400.000000
G00 Z5.000000

(End cutting path id: path25444)


(Start cutting path id: path25442)
(Change tool to Default tool)

G00 Z5.000000
G00 X25.891131 Y137.855218

G01 Z-0.125000 F100.0(Penetrate)
G01 X25.891131 Y130.927016 Z-0.125000 F400.000000
G00 Z5.000000

(End cutting path id: path25442)


(Start cutting path id: path25440)
(Change tool to Default tool)

G00 Z5.000000
G00 X84.691130 Y35.182011

G01 Z-0.125000 F100.0(Penetrate)
G01 X84.691130 Y28.600219 Z-0.125000 F400.000000
G00 Z5.000000

(End cutting path id: path25440)


(Start cutting path id: path25438)
(Change tool to Default tool)

G00 Z5.000000
G00 X45.391132 Y137.855218

G01 Z-0.125000 F100.0(Penetrate)
G01 X45.391132 Y130.927016 Z-0.125000 F400.000000
G00 Z5.000000

(End cutting path id: path25438)


(Start cutting path id: path25436)
(Change tool to Default tool)

G00 Z5.000000
G00 X104.191131 Y35.182011

G01 Z-0.125000 F100.0(Penetrate)
G01 X104.191131 Y28.600219 Z-0.125000 F400.000000
G00 Z5.000000

(End cutting path id: path25436)


(Start cutting path id: path25434)
(Change tool to Default tool)

G00 Z5.000000
G00 X64.891130 Y137.855218

G01 Z-0.125000 F100.0(Penetrate)
G01 X64.891130 Y130.927016 Z-0.125000 F400.000000
G00 Z5.000000

(End cutting path id: path25434)


(Start cutting path id: path25432)
(Change tool to Default tool)

G00 Z5.000000
G00 X123.691131 Y35.182011

G01 Z-0.125000 F100.0(Penetrate)
G01 X123.691131 Y28.600219 Z-0.125000 F400.000000
G00 Z5.000000

(End cutting path id: path25432)


(Start cutting path id: path25430)
(Change tool to Default tool)

G00 Z5.000000
G00 X84.391131 Y137.855218

G01 Z-0.125000 F100.0(Penetrate)
G01 X84.391131 Y130.927016 Z-0.125000 F400.000000
G00 Z5.000000

(End cutting path id: path25430)


(Start cutting path id: path25428)
(Change tool to Default tool)

G00 Z5.000000
G00 X45.691132 Y54.682012

G01 Z-0.125000 F100.0(Penetrate)
G01 X45.691132 Y48.100220 Z-0.125000 F400.000000
G00 Z5.000000

(End cutting path id: path25428)


(Start cutting path id: path25426)
(Change tool to Default tool)

G00 Z5.000000
G00 X103.891131 Y137.855218

G01 Z-0.125000 F100.0(Penetrate)
G01 X103.891131 Y130.927016 Z-0.125000 F400.000000
G00 Z5.000000

(End cutting path id: path25426)


(Start cutting path id: path25424)
(Change tool to Default tool)

G00 Z5.000000
G00 X65.191132 Y54.682012

G01 Z-0.125000 F100.0(Penetrate)
G01 X65.191132 Y48.100220 Z-0.125000 F400.000000
G00 Z5.000000

(End cutting path id: path25424)


(Start cutting path id: path25422)
(Change tool to Default tool)

G00 Z5.000000
G00 X123.391132 Y137.855218

G01 Z-0.125000 F100.0(Penetrate)
G01 X123.391132 Y130.927016 Z-0.125000 F400.000000
G00 Z5.000000

(End cutting path id: path25422)


(Start cutting path id: path25420)
(Change tool to Default tool)

G00 Z5.000000
G00 X84.691130 Y54.682012

G01 Z-0.125000 F100.0(Penetrate)
G01 X84.691130 Y48.100220 Z-0.125000 F400.000000
G00 Z5.000000

(End cutting path id: path25420)


(Start cutting path id: path25418)
(Change tool to Default tool)

G00 Z5.000000
G00 X123.391132 Y157.355219

G01 Z-0.125000 F100.0(Penetrate)
G01 X123.391132 Y150.427013 Z-0.125000 F400.000000
G00 Z5.000000

(End cutting path id: path25418)


(Start cutting path id: path25416)
(Change tool to Default tool)

G00 Z5.000000
G00 X104.191131 Y54.682012

G01 Z-0.125000 F100.0(Penetrate)
G01 X104.191131 Y48.100220 Z-0.125000 F400.000000
G00 Z5.000000

(End cutting path id: path25416)


(Start cutting path id: path25414)
(Change tool to Default tool)

G00 Z5.000000
G00 X103.891131 Y157.355219

G01 Z-0.125000 F100.0(Penetrate)
G01 X103.891131 Y150.427013 Z-0.125000 F400.000000
G00 Z5.000000

(End cutting path id: path25414)


(Start cutting path id: path25412)
(Change tool to Default tool)

G00 Z5.000000
G00 X123.691131 Y54.682012

G01 Z-0.125000 F100.0(Penetrate)
G01 X123.691131 Y48.100220 Z-0.125000 F400.000000
G00 Z5.000000

(End cutting path id: path25412)


(Start cutting path id: path25410)
(Change tool to Default tool)

G00 Z5.000000
G00 X84.391131 Y157.355219

G01 Z-0.125000 F100.0(Penetrate)
G01 X84.391131 Y150.427013 Z-0.125000 F400.000000
G00 Z5.000000

(End cutting path id: path25410)


(Start cutting path id: path25408)
(Change tool to Default tool)

G00 Z5.000000
G00 X45.691132 Y74.182013

G01 Z-0.125000 F100.0(Penetrate)
G01 X45.691132 Y67.600221 Z-0.125000 F400.000000
G00 Z5.000000

(End cutting path id: path25408)


(Start cutting path id: path25406)
(Change tool to Default tool)

G00 Z5.000000
G00 X64.891130 Y157.355219

G01 Z-0.125000 F100.0(Penetrate)
G01 X64.891130 Y150.427013 Z-0.125000 F400.000000
G00 Z5.000000

(End cutting path id: path25406)


(Start cutting path id: path25404)
(Change tool to Default tool)

G00 Z5.000000
G00 X65.191132 Y74.182013

G01 Z-0.125000 F100.0(Penetrate)
G01 X65.191132 Y67.600221 Z-0.125000 F400.000000
G00 Z5.000000

(End cutting path id: path25404)


(Start cutting path id: path25402)
(Change tool to Default tool)

G00 Z5.000000
G00 X45.391132 Y157.355219

G01 Z-0.125000 F100.0(Penetrate)
G01 X45.391132 Y150.427013 Z-0.125000 F400.000000
G00 Z5.000000

(End cutting path id: path25402)


(Start cutting path id: path25400)
(Change tool to Default tool)

G00 Z5.000000
G00 X84.691130 Y74.182013

G01 Z-0.125000 F100.0(Penetrate)
G01 X84.691130 Y67.600221 Z-0.125000 F400.000000
G00 Z5.000000

(End cutting path id: path25400)


(Start cutting path id: path25398)
(Change tool to Default tool)

G00 Z5.000000
G00 X31.891131 Y160.819319

G01 Z-0.125000 F100.0(Penetrate)
G01 X25.891131 Y157.355219 Z-0.125000 F400.000000
G00 Z5.000000

(End cutting path id: path25398)


(Start cutting path id: path25396)
(Change tool to Default tool)

G00 Z5.000000
G00 X104.191131 Y74.182013

G01 Z-0.125000 F100.0(Penetrate)
G01 X104.191131 Y67.600221 Z-0.125000 F400.000000
G00 Z5.000000

(End cutting path id: path25396)


(Start cutting path id: path25394)
(Change tool to Default tool)

G00 Z5.000000
G00 X12.391131 Y160.819319

G01 Z-0.125000 F100.0(Penetrate)
G01 X6.391131 Y157.355219 Z-0.125000 F400.000000
G00 Z5.000000

(End cutting path id: path25394)


(Start cutting path id: path25392)
(Change tool to Default tool)

G00 Z5.000000
G00 X123.691131 Y74.182013

G01 Z-0.125000 F100.0(Penetrate)
G01 X123.691131 Y67.600221 Z-0.125000 F400.000000
G00 Z5.000000

(End cutting path id: path25392)


(Start cutting path id: path25390)
(Change tool to Default tool)

G00 Z5.000000
G00 X12.391131 Y102.319320

G01 Z-0.125000 F100.0(Penetrate)
G01 X6.391131 Y98.855217 Z-0.125000 F400.000000
G00 Z5.000000

(End cutting path id: path25390)


(Start cutting path id: path25388)
(Change tool to Default tool)

G00 Z5.000000
G00 X12.391131 Y18.972908

G01 Z-0.125000 F100.0(Penetrate)
G01 X6.691131 Y15.682011 Z-0.125000 F400.000000
G00 Z5.000000

(End cutting path id: path25388)


(Start cutting path id: path25386)
(Change tool to Default tool)

G00 Z5.000000
G00 X31.891131 Y102.319320

G01 Z-0.125000 F100.0(Penetrate)
G01 X25.891131 Y98.855217 Z-0.125000 F400.000000
G00 Z5.000000

(End cutting path id: path25386)


(Start cutting path id: path25384)
(Change tool to Default tool)

G00 Z5.000000
G00 X31.891131 Y18.972908

G01 Z-0.125000 F100.0(Penetrate)
G01 X26.191131 Y15.682011 Z-0.125000 F400.000000
G00 Z5.000000

(End cutting path id: path25384)


(Start cutting path id: path25382)
(Change tool to Default tool)

G00 Z5.000000
G00 X51.391132 Y102.319320

G01 Z-0.125000 F100.0(Penetrate)
G01 X45.391132 Y98.855217 Z-0.125000 F400.000000
G00 Z5.000000

(End cutting path id: path25382)


(Start cutting path id: path25380)
(Change tool to Default tool)

G00 Z5.000000
G00 X12.391131 Y38.472909

G01 Z-0.125000 F100.0(Penetrate)
G01 X6.691131 Y35.182011 Z-0.125000 F400.000000
G00 Z5.000000

(End cutting path id: path25380)


(Start cutting path id: path25378)
(Change tool to Default tool)

G00 Z5.000000
G00 X70.891132 Y102.319320

G01 Z-0.125000 F100.0(Penetrate)
G01 X64.891130 Y98.855217 Z-0.125000 F400.000000
G00 Z5.000000

(End cutting path id: path25378)


(Start cutting path id: path25376)
(Change tool to Default tool)

G00 Z5.000000
G00 X12.391131 Y57.972909

G01 Z-0.125000 F100.0(Penetrate)
G01 X6.691131 Y54.682012 Z-0.125000 F400.000000
G00 Z5.000000

(End cutting path id: path25376)


(Start cutting path id: path25374)
(Change tool to Default tool)

G00 Z5.000000
G00 X90.391130 Y102.319320

G01 Z-0.125000 F100.0(Penetrate)
G01 X84.391131 Y98.855217 Z-0.125000 F400.000000
G00 Z5.000000

(End cutting path id: path25374)


(Start cutting path id: path25372)
(Change tool to Default tool)

G00 Z5.000000
G00 X12.391131 Y77.472910

G01 Z-0.125000 F100.0(Penetrate)
G01 X6.691131 Y74.182013 Z-0.125000 F400.000000
G00 Z5.000000

(End cutting path id: path25372)


(Start cutting path id: path25370)
(Change tool to Default tool)

G00 Z5.000000
G00 X109.891131 Y102.319320

G01 Z-0.125000 F100.0(Penetrate)
G01 X103.891131 Y98.855217 Z-0.125000 F400.000000
G00 Z5.000000

(End cutting path id: path25370)


(Start cutting path id: path25368)
(Change tool to Default tool)

G00 Z5.000000
G00 X51.391132 Y18.972908

G01 Z-0.125000 F100.0(Penetrate)
G01 X45.691132 Y15.682011 Z-0.125000 F400.000000
G00 Z5.000000

(End cutting path id: path25368)


(Start cutting path id: path25366)
(Change tool to Default tool)

G00 Z5.000000
G00 X129.391131 Y102.319320

G01 Z-0.125000 F100.0(Penetrate)
G01 X123.391132 Y98.855217 Z-0.125000 F400.000000
G00 Z5.000000

(End cutting path id: path25366)


(Start cutting path id: path25364)
(Change tool to Default tool)

G00 Z5.000000
G00 X70.891132 Y18.972908

G01 Z-0.125000 F100.0(Penetrate)
G01 X65.191132 Y15.682011 Z-0.125000 F400.000000
G00 Z5.000000

(End cutting path id: path25364)


(Start cutting path id: path25362)
(Change tool to Default tool)

G00 Z5.000000
G00 X129.391131 Y121.819318

G01 Z-0.125000 F100.0(Penetrate)
G01 X123.391132 Y118.355218 Z-0.125000 F400.000000
G00 Z5.000000

(End cutting path id: path25362)


(Start cutting path id: path25360)
(Change tool to Default tool)

G00 Z5.000000
G00 X90.391130 Y18.972908

G01 Z-0.125000 F100.0(Penetrate)
G01 X84.691130 Y15.682011 Z-0.125000 F400.000000
G00 Z5.000000

(End cutting path id: path25360)


(Start cutting path id: path25358)
(Change tool to Default tool)

G00 Z5.000000
G00 X109.891131 Y121.819318

G01 Z-0.125000 F100.0(Penetrate)
G01 X103.891131 Y118.355218 Z-0.125000 F400.000000
G00 Z5.000000

(End cutting path id: path25358)


(Start cutting path id: path25356)
(Change tool to Default tool)

G00 Z5.000000
G00 X109.891131 Y18.972908

G01 Z-0.125000 F100.0(Penetrate)
G01 X104.191131 Y15.682011 Z-0.125000 F400.000000
G00 Z5.000000

(End cutting path id: path25356)


(Start cutting path id: path25354)
(Change tool to Default tool)

G00 Z5.000000
G00 X90.391130 Y121.819318

G01 Z-0.125000 F100.0(Penetrate)
G01 X84.391131 Y118.355218 Z-0.125000 F400.000000
G00 Z5.000000

(End cutting path id: path25354)


(Start cutting path id: path25352)
(Change tool to Default tool)

G00 Z5.000000
G00 X129.391131 Y18.972908

G01 Z-0.125000 F100.0(Penetrate)
G01 X123.691131 Y15.682011 Z-0.125000 F400.000000
G00 Z5.000000

(End cutting path id: path25352)


(Start cutting path id: path25350)
(Change tool to Default tool)

G00 Z5.000000
G00 X70.891132 Y121.819318

G01 Z-0.125000 F100.0(Penetrate)
G01 X64.891130 Y118.355218 Z-0.125000 F400.000000
G00 Z5.000000

(End cutting path id: path25350)


(Start cutting path id: path25348)
(Change tool to Default tool)

G00 Z5.000000
G00 X31.891131 Y38.472909

G01 Z-0.125000 F100.0(Penetrate)
G01 X26.191131 Y35.182011 Z-0.125000 F400.000000
G00 Z5.000000

(End cutting path id: path25348)


(Start cutting path id: path25346)
(Change tool to Default tool)

G00 Z5.000000
G00 X51.391132 Y121.819318

G01 Z-0.125000 F100.0(Penetrate)
G01 X45.391132 Y118.355218 Z-0.125000 F400.000000
G00 Z5.000000

(End cutting path id: path25346)


(Start cutting path id: path25344)
(Change tool to Default tool)

G00 Z5.000000
G00 X31.891131 Y57.972909

G01 Z-0.125000 F100.0(Penetrate)
G01 X26.191131 Y54.682012 Z-0.125000 F400.000000
G00 Z5.000000

(End cutting path id: path25344)


(Start cutting path id: path25342)
(Change tool to Default tool)

G00 Z5.000000
G00 X31.891131 Y121.819318

G01 Z-0.125000 F100.0(Penetrate)
G01 X25.891131 Y118.355218 Z-0.125000 F400.000000
G00 Z5.000000

(End cutting path id: path25342)


(Start cutting path id: path25340)
(Change tool to Default tool)

G00 Z5.000000
G00 X31.891131 Y77.472910

G01 Z-0.125000 F100.0(Penetrate)
G01 X26.191131 Y74.182013 Z-0.125000 F400.000000
G00 Z5.000000

(End cutting path id: path25340)


(Start cutting path id: path25338)
(Change tool to Default tool)

G00 Z5.000000
G00 X12.391131 Y121.819318

G01 Z-0.125000 F100.0(Penetrate)
G01 X6.391131 Y118.355218 Z-0.125000 F400.000000
G00 Z5.000000

(End cutting path id: path25338)


(Start cutting path id: path25336)
(Change tool to Default tool)

G00 Z5.000000
G00 X51.391132 Y38.472909

G01 Z-0.125000 F100.0(Penetrate)
G01 X45.691132 Y35.182011 Z-0.125000 F400.000000
G00 Z5.000000

(End cutting path id: path25336)


(Start cutting path id: path25334)
(Change tool to Default tool)

G00 Z5.000000
G00 X12.391131 Y141.319318

G01 Z-0.125000 F100.0(Penetrate)
G01 X6.391131 Y137.855218 Z-0.125000 F400.000000
G00 Z5.000000

(End cutting path id: path25334)


(Start cutting path id: path25332)
(Change tool to Default tool)

G00 Z5.000000
G00 X70.891132 Y38.472909

G01 Z-0.125000 F100.0(Penetrate)
G01 X65.191132 Y35.182011 Z-0.125000 F400.000000
G00 Z5.000000

(End cutting path id: path25332)


(Start cutting path id: path25330)
(Change tool to Default tool)

G00 Z5.000000
G00 X31.891131 Y141.319318

G01 Z-0.125000 F100.0(Penetrate)
G01 X25.891131 Y137.855218 Z-0.125000 F400.000000
G00 Z5.000000

(End cutting path id: path25330)


(Start cutting path id: path25328)
(Change tool to Default tool)

G00 Z5.000000
G00 X90.391130 Y38.472909

G01 Z-0.125000 F100.0(Penetrate)
G01 X84.691130 Y35.182011 Z-0.125000 F400.000000
G00 Z5.000000

(End cutting path id: path25328)


(Start cutting path id: path25326)
(Change tool to Default tool)

G00 Z5.000000
G00 X51.391132 Y141.319318

G01 Z-0.125000 F100.0(Penetrate)
G01 X45.391132 Y137.855218 Z-0.125000 F400.000000
G00 Z5.000000

(End cutting path id: path25326)


(Start cutting path id: path25324)
(Change tool to Default tool)

G00 Z5.000000
G00 X109.891131 Y38.472909

G01 Z-0.125000 F100.0(Penetrate)
G01 X104.191131 Y35.182011 Z-0.125000 F400.000000
G00 Z5.000000

(End cutting path id: path25324)


(Start cutting path id: path25322)
(Change tool to Default tool)

G00 Z5.000000
G00 X70.891132 Y141.319318

G01 Z-0.125000 F100.0(Penetrate)
G01 X64.891130 Y137.855218 Z-0.125000 F400.000000
G00 Z5.000000

(End cutting path id: path25322)


(Start cutting path id: path25320)
(Change tool to Default tool)

G00 Z5.000000
G00 X129.391131 Y38.472909

G01 Z-0.125000 F100.0(Penetrate)
G01 X123.691131 Y35.182011 Z-0.125000 F400.000000
G00 Z5.000000

(End cutting path id: path25320)


(Start cutting path id: path25318)
(Change tool to Default tool)

G00 Z5.000000
G00 X90.391130 Y141.319318

G01 Z-0.125000 F100.0(Penetrate)
G01 X84.391131 Y137.855218 Z-0.125000 F400.000000
G00 Z5.000000

(End cutting path id: path25318)


(Start cutting path id: path25316)
(Change tool to Default tool)

G00 Z5.000000
G00 X51.391132 Y57.972909

G01 Z-0.125000 F100.0(Penetrate)
G01 X45.691132 Y54.682012 Z-0.125000 F400.000000
G00 Z5.000000

(End cutting path id: path25316)


(Start cutting path id: path25314)
(Change tool to Default tool)

G00 Z5.000000
G00 X109.891131 Y141.319318

G01 Z-0.125000 F100.0(Penetrate)
G01 X103.891131 Y137.855218 Z-0.125000 F400.000000
G00 Z5.000000

(End cutting path id: path25314)


(Start cutting path id: path25312)
(Change tool to Default tool)

G00 Z5.000000
G00 X70.891132 Y57.972909

G01 Z-0.125000 F100.0(Penetrate)
G01 X65.191132 Y54.682012 Z-0.125000 F400.000000
G00 Z5.000000

(End cutting path id: path25312)


(Start cutting path id: path25310)
(Change tool to Default tool)

G00 Z5.000000
G00 X129.391131 Y141.319318

G01 Z-0.125000 F100.0(Penetrate)
G01 X123.391132 Y137.855218 Z-0.125000 F400.000000
G00 Z5.000000

(End cutting path id: path25310)


(Start cutting path id: path25308)
(Change tool to Default tool)

G00 Z5.000000
G00 X90.391130 Y57.972909

G01 Z-0.125000 F100.0(Penetrate)
G01 X84.691130 Y54.682012 Z-0.125000 F400.000000
G00 Z5.000000

(End cutting path id: path25308)


(Start cutting path id: path25306)
(Change tool to Default tool)

G00 Z5.000000
G00 X129.391131 Y160.819319

G01 Z-0.125000 F100.0(Penetrate)
G01 X123.391132 Y157.355219 Z-0.125000 F400.000000
G00 Z5.000000

(End cutting path id: path25306)


(Start cutting path id: path25304)
(Change tool to Default tool)

G00 Z5.000000
G00 X109.891131 Y57.972909

G01 Z-0.125000 F100.0(Penetrate)
G01 X104.191131 Y54.682012 Z-0.125000 F400.000000
G00 Z5.000000

(End cutting path id: path25304)


(Start cutting path id: path25302)
(Change tool to Default tool)

G00 Z5.000000
G00 X109.891131 Y160.819319

G01 Z-0.125000 F100.0(Penetrate)
G01 X103.891131 Y157.355219 Z-0.125000 F400.000000
G00 Z5.000000

(End cutting path id: path25302)


(Start cutting path id: path25300)
(Change tool to Default tool)

G00 Z5.000000
G00 X129.391131 Y57.972909

G01 Z-0.125000 F100.0(Penetrate)
G01 X123.691131 Y54.682012 Z-0.125000 F400.000000
G00 Z5.000000

(End cutting path id: path25300)


(Start cutting path id: path25298)
(Change tool to Default tool)

G00 Z5.000000
G00 X90.391130 Y160.819319

G01 Z-0.125000 F100.0(Penetrate)
G01 X84.391131 Y157.355219 Z-0.125000 F400.000000
G00 Z5.000000

(End cutting path id: path25298)


(Start cutting path id: path25296)
(Change tool to Default tool)

G00 Z5.000000
G00 X51.391132 Y77.472910

G01 Z-0.125000 F100.0(Penetrate)
G01 X45.691132 Y74.182013 Z-0.125000 F400.000000
G00 Z5.000000

(End cutting path id: path25296)


(Start cutting path id: path25294)
(Change tool to Default tool)

G00 Z5.000000
G00 X70.891132 Y160.819319

G01 Z-0.125000 F100.0(Penetrate)
G01 X64.891130 Y157.355219 Z-0.125000 F400.000000
G00 Z5.000000

(End cutting path id: path25294)


(Start cutting path id: path25292)
(Change tool to Default tool)

G00 Z5.000000
G00 X70.891132 Y77.472910

G01 Z-0.125000 F100.0(Penetrate)
G01 X65.191132 Y74.182013 Z-0.125000 F400.000000
G00 Z5.000000

(End cutting path id: path25292)


(Start cutting path id: path25290)
(Change tool to Default tool)

G00 Z5.000000
G00 X51.391132 Y160.819319

G01 Z-0.125000 F100.0(Penetrate)
G01 X45.391132 Y157.355219 Z-0.125000 F400.000000
G00 Z5.000000

(End cutting path id: path25290)


(Start cutting path id: path25288)
(Change tool to Default tool)

G00 Z5.000000
G00 X90.391130 Y77.472910

G01 Z-0.125000 F100.0(Penetrate)
G01 X84.691130 Y74.182013 Z-0.125000 F400.000000
G00 Z5.000000

(End cutting path id: path25288)


(Start cutting path id: path25286)
(Change tool to Default tool)

G00 Z5.000000
G00 X18.391131 Y157.355219

G01 Z-0.125000 F100.0(Penetrate)
G01 X12.391131 Y160.819319 Z-0.125000 F400.000000
G00 Z5.000000

(End cutting path id: path25286)


(Start cutting path id: path25284)
(Change tool to Default tool)

G00 Z5.000000
G00 X109.891131 Y77.472910

G01 Z-0.125000 F100.0(Penetrate)
G01 X104.191131 Y74.182013 Z-0.125000 F400.000000
G00 Z5.000000

(End cutting path id: path25284)


(Start cutting path id: path25282)
(Change tool to Default tool)

G00 Z5.000000
G00 X18.391131 Y98.855217

G01 Z-0.125000 F100.0(Penetrate)
G01 X12.391131 Y102.319320 Z-0.125000 F400.000000
G00 Z5.000000

(End cutting path id: path25282)


(Start cutting path id: path25280)
(Change tool to Default tool)

G00 Z5.000000
G00 X129.391131 Y77.472910

G01 Z-0.125000 F100.0(Penetrate)
G01 X123.691131 Y74.182013 Z-0.125000 F400.000000
G00 Z5.000000

(End cutting path id: path25280)


(Start cutting path id: path25278)
(Change tool to Default tool)

G00 Z5.000000
G00 X37.891130 Y98.855217

G01 Z-0.125000 F100.0(Penetrate)
G01 X31.891131 Y102.319320 Z-0.125000 F400.000000
G00 Z5.000000

(End cutting path id: path25278)


(Start cutting path id: path25276)
(Change tool to Default tool)

G00 Z5.000000
G00 X18.091131 Y15.682011

G01 Z-0.125000 F100.0(Penetrate)
G01 X12.391131 Y18.972908 Z-0.125000 F400.000000
G00 Z5.000000

(End cutting path id: path25276)


(Start cutting path id: path25274)
(Change tool to Default tool)

G00 Z5.000000
G00 X57.391131 Y98.855217

G01 Z-0.125000 F100.0(Penetrate)
G01 X51.391132 Y102.319320 Z-0.125000 F400.000000
G00 Z5.000000

(End cutting path id: path25274)


(Start cutting path id: path25272)
(Change tool to Default tool)

G00 Z5.000000
G00 X37.591131 Y15.682011

G01 Z-0.125000 F100.0(Penetrate)
G01 X31.891131 Y18.972908 Z-0.125000 F400.000000
G00 Z5.000000

(End cutting path id: path25272)


(Start cutting path id: path25270)
(Change tool to Default tool)

G00 Z5.000000
G00 X76.891132 Y98.855217

G01 Z-0.125000 F100.0(Penetrate)
G01 X70.891132 Y102.319320 Z-0.125000 F400.000000
G00 Z5.000000

(End cutting path id: path25270)


(Start cutting path id: path25268)
(Change tool to Default tool)

G00 Z5.000000
G00 X18.091131 Y35.182011

G01 Z-0.125000 F100.0(Penetrate)
G01 X12.391131 Y38.472909 Z-0.125000 F400.000000
G00 Z5.000000

(End cutting path id: path25268)


(Start cutting path id: path25266)
(Change tool to Default tool)

G00 Z5.000000
G00 X96.391132 Y98.855217

G01 Z-0.125000 F100.0(Penetrate)
G01 X90.391130 Y102.319320 Z-0.125000 F400.000000
G00 Z5.000000

(End cutting path id: path25266)


(Start cutting path id: path25264)
(Change tool to Default tool)

G00 Z5.000000
G00 X18.091131 Y54.682012

G01 Z-0.125000 F100.0(Penetrate)
G01 X12.391131 Y57.972909 Z-0.125000 F400.000000
G00 Z5.000000

(End cutting path id: path25264)


(Start cutting path id: path25262)
(Change tool to Default tool)

G00 Z5.000000
G00 X115.891130 Y98.855217

G01 Z-0.125000 F100.0(Penetrate)
G01 X109.891131 Y102.319320 Z-0.125000 F400.000000
G00 Z5.000000

(End cutting path id: path25262)


(Start cutting path id: path25260)
(Change tool to Default tool)

G00 Z5.000000
G00 X18.091131 Y74.182013

G01 Z-0.125000 F100.0(Penetrate)
G01 X12.391131 Y77.472910 Z-0.125000 F400.000000
G00 Z5.000000

(End cutting path id: path25260)


(Start cutting path id: path25258)
(Change tool to Default tool)

G00 Z5.000000
G00 X135.391131 Y98.855217

G01 Z-0.125000 F100.0(Penetrate)
G01 X129.391131 Y102.319320 Z-0.125000 F400.000000
G00 Z5.000000

(End cutting path id: path25258)


(Start cutting path id: path25256)
(Change tool to Default tool)

G00 Z5.000000
G00 X57.091132 Y15.682011

G01 Z-0.125000 F100.0(Penetrate)
G01 X51.391132 Y18.972908 Z-0.125000 F400.000000
G00 Z5.000000

(End cutting path id: path25256)


(Start cutting path id: path25254)
(Change tool to Default tool)

G00 Z5.000000
G00 X135.391131 Y118.355218

G01 Z-0.125000 F100.0(Penetrate)
G01 X129.391131 Y121.819318 Z-0.125000 F400.000000
G00 Z5.000000

(End cutting path id: path25254)


(Start cutting path id: path25252)
(Change tool to Default tool)

G00 Z5.000000
G00 X76.591132 Y15.682011

G01 Z-0.125000 F100.0(Penetrate)
G01 X70.891132 Y18.972908 Z-0.125000 F400.000000
G00 Z5.000000

(End cutting path id: path25252)


(Start cutting path id: path25250)
(Change tool to Default tool)

G00 Z5.000000
G00 X115.891130 Y118.355218

G01 Z-0.125000 F100.0(Penetrate)
G01 X109.891131 Y121.819318 Z-0.125000 F400.000000
G00 Z5.000000

(End cutting path id: path25250)


(Start cutting path id: path25248)
(Change tool to Default tool)

G00 Z5.000000
G00 X96.091133 Y15.682011

G01 Z-0.125000 F100.0(Penetrate)
G01 X90.391130 Y18.972908 Z-0.125000 F400.000000
G00 Z5.000000

(End cutting path id: path25248)


(Start cutting path id: path25246)
(Change tool to Default tool)

G00 Z5.000000
G00 X96.391132 Y118.355218

G01 Z-0.125000 F100.0(Penetrate)
G01 X90.391130 Y121.819318 Z-0.125000 F400.000000
G00 Z5.000000

(End cutting path id: path25246)


(Start cutting path id: path25244)
(Change tool to Default tool)

G00 Z5.000000
G00 X115.591131 Y15.682011

G01 Z-0.125000 F100.0(Penetrate)
G01 X109.891131 Y18.972908 Z-0.125000 F400.000000
G00 Z5.000000

(End cutting path id: path25244)


(Start cutting path id: path25242)
(Change tool to Default tool)

G00 Z5.000000
G00 X76.891132 Y118.355218

G01 Z-0.125000 F100.0(Penetrate)
G01 X70.891132 Y121.819318 Z-0.125000 F400.000000
G00 Z5.000000

(End cutting path id: path25242)


(Start cutting path id: path25240)
(Change tool to Default tool)

G00 Z5.000000
G00 X135.091131 Y15.682011

G01 Z-0.125000 F100.0(Penetrate)
G01 X129.391131 Y18.972908 Z-0.125000 F400.000000
G00 Z5.000000

(End cutting path id: path25240)


(Start cutting path id: path25238)
(Change tool to Default tool)

G00 Z5.000000
G00 X57.391131 Y118.355218

G01 Z-0.125000 F100.0(Penetrate)
G01 X51.391132 Y121.819318 Z-0.125000 F400.000000
G00 Z5.000000

(End cutting path id: path25238)


(Start cutting path id: path25236)
(Change tool to Default tool)

G00 Z5.000000
G00 X37.591131 Y35.182011

G01 Z-0.125000 F100.0(Penetrate)
G01 X31.891131 Y38.472909 Z-0.125000 F400.000000
G00 Z5.000000

(End cutting path id: path25236)


(Start cutting path id: path25234)
(Change tool to Default tool)

G00 Z5.000000
G00 X37.891130 Y118.355218

G01 Z-0.125000 F100.0(Penetrate)
G01 X31.891131 Y121.819318 Z-0.125000 F400.000000
G00 Z5.000000

(End cutting path id: path25234)


(Start cutting path id: path25232)
(Change tool to Default tool)

G00 Z5.000000
G00 X37.591131 Y54.682012

G01 Z-0.125000 F100.0(Penetrate)
G01 X31.891131 Y57.972909 Z-0.125000 F400.000000
G00 Z5.000000

(End cutting path id: path25232)


(Start cutting path id: path25230)
(Change tool to Default tool)

G00 Z5.000000
G00 X18.391131 Y118.355218

G01 Z-0.125000 F100.0(Penetrate)
G01 X12.391131 Y121.819318 Z-0.125000 F400.000000
G00 Z5.000000

(End cutting path id: path25230)


(Start cutting path id: path25228)
(Change tool to Default tool)

G00 Z5.000000
G00 X37.591131 Y74.182013

G01 Z-0.125000 F100.0(Penetrate)
G01 X31.891131 Y77.472910 Z-0.125000 F400.000000
G00 Z5.000000

(End cutting path id: path25228)


(Start cutting path id: path25226)
(Change tool to Default tool)

G00 Z5.000000
G00 X18.391131 Y137.855218

G01 Z-0.125000 F100.0(Penetrate)
G01 X12.391131 Y141.319318 Z-0.125000 F400.000000
G00 Z5.000000

(End cutting path id: path25226)


(Start cutting path id: path25224)
(Change tool to Default tool)

G00 Z5.000000
G00 X57.091132 Y35.182011

G01 Z-0.125000 F100.0(Penetrate)
G01 X51.391132 Y38.472909 Z-0.125000 F400.000000
G00 Z5.000000

(End cutting path id: path25224)


(Start cutting path id: path25222)
(Change tool to Default tool)

G00 Z5.000000
G00 X37.891130 Y137.855218

G01 Z-0.125000 F100.0(Penetrate)
G01 X31.891131 Y141.319318 Z-0.125000 F400.000000
G00 Z5.000000

(End cutting path id: path25222)


(Start cutting path id: path25220)
(Change tool to Default tool)

G00 Z5.000000
G00 X76.591132 Y35.182011

G01 Z-0.125000 F100.0(Penetrate)
G01 X70.891132 Y38.472909 Z-0.125000 F400.000000
G00 Z5.000000

(End cutting path id: path25220)


(Start cutting path id: path25218)
(Change tool to Default tool)

G00 Z5.000000
G00 X57.391131 Y137.855218

G01 Z-0.125000 F100.0(Penetrate)
G01 X51.391132 Y141.319318 Z-0.125000 F400.000000
G00 Z5.000000

(End cutting path id: path25218)


(Start cutting path id: path25216)
(Change tool to Default tool)

G00 Z5.000000
G00 X96.091133 Y35.182011

G01 Z-0.125000 F100.0(Penetrate)
G01 X90.391130 Y38.472909 Z-0.125000 F400.000000
G00 Z5.000000

(End cutting path id: path25216)


(Start cutting path id: path25214)
(Change tool to Default tool)

G00 Z5.000000
G00 X76.891132 Y137.855218

G01 Z-0.125000 F100.0(Penetrate)
G01 X70.891132 Y141.319318 Z-0.125000 F400.000000
G00 Z5.000000

(End cutting path id: path25214)


(Start cutting path id: path25212)
(Change tool to Default tool)

G00 Z5.000000
G00 X115.591131 Y35.182011

G01 Z-0.125000 F100.0(Penetrate)
G01 X109.891131 Y38.472909 Z-0.125000 F400.000000
G00 Z5.000000

(End cutting path id: path25212)


(Start cutting path id: path25210)
(Change tool to Default tool)

G00 Z5.000000
G00 X96.391132 Y137.855218

G01 Z-0.125000 F100.0(Penetrate)
G01 X90.391130 Y141.319318 Z-0.125000 F400.000000
G00 Z5.000000

(End cutting path id: path25210)


(Start cutting path id: path25208)
(Change tool to Default tool)

G00 Z5.000000
G00 X135.091131 Y35.182011

G01 Z-0.125000 F100.0(Penetrate)
G01 X129.391131 Y38.472909 Z-0.125000 F400.000000
G00 Z5.000000

(End cutting path id: path25208)


(Start cutting path id: path25206)
(Change tool to Default tool)

G00 Z5.000000
G00 X115.891130 Y137.855218

G01 Z-0.125000 F100.0(Penetrate)
G01 X109.891131 Y141.319318 Z-0.125000 F400.000000
G00 Z5.000000

(End cutting path id: path25206)


(Start cutting path id: path25204)
(Change tool to Default tool)

G00 Z5.000000
G00 X57.091132 Y54.682012

G01 Z-0.125000 F100.0(Penetrate)
G01 X51.391132 Y57.972909 Z-0.125000 F400.000000
G00 Z5.000000

(End cutting path id: path25204)


(Start cutting path id: path25202)
(Change tool to Default tool)

G00 Z5.000000
G00 X135.391131 Y137.855218

G01 Z-0.125000 F100.0(Penetrate)
G01 X129.391131 Y141.319318 Z-0.125000 F400.000000
G00 Z5.000000

(End cutting path id: path25202)


(Start cutting path id: path25200)
(Change tool to Default tool)

G00 Z5.000000
G00 X76.591132 Y54.682012

G01 Z-0.125000 F100.0(Penetrate)
G01 X70.891132 Y57.972909 Z-0.125000 F400.000000
G00 Z5.000000

(End cutting path id: path25200)


(Start cutting path id: path25198)
(Change tool to Default tool)

G00 Z5.000000
G00 X135.391131 Y157.355219

G01 Z-0.125000 F100.0(Penetrate)
G01 X129.391131 Y160.819319 Z-0.125000 F400.000000
G00 Z5.000000

(End cutting path id: path25198)


(Start cutting path id: path25196)
(Change tool to Default tool)

G00 Z5.000000
G00 X96.091133 Y54.682012

G01 Z-0.125000 F100.0(Penetrate)
G01 X90.391130 Y57.972909 Z-0.125000 F400.000000
G00 Z5.000000

(End cutting path id: path25196)


(Start cutting path id: path25194)
(Change tool to Default tool)

G00 Z5.000000
G00 X115.891130 Y157.355219

G01 Z-0.125000 F100.0(Penetrate)
G01 X109.891131 Y160.819319 Z-0.125000 F400.000000
G00 Z5.000000

(End cutting path id: path25194)


(Start cutting path id: path25192)
(Change tool to Default tool)

G00 Z5.000000
G00 X115.591131 Y54.682012

G01 Z-0.125000 F100.0(Penetrate)
G01 X109.891131 Y57.972909 Z-0.125000 F400.000000
G00 Z5.000000

(End cutting path id: path25192)


(Start cutting path id: path25190)
(Change tool to Default tool)

G00 Z5.000000
G00 X96.391132 Y157.355219

G01 Z-0.125000 F100.0(Penetrate)
G01 X90.391130 Y160.819319 Z-0.125000 F400.000000
G00 Z5.000000

(End cutting path id: path25190)


(Start cutting path id: path25188)
(Change tool to Default tool)

G00 Z5.000000
G00 X135.091131 Y54.682012

G01 Z-0.125000 F100.0(Penetrate)
G01 X129.391131 Y57.972909 Z-0.125000 F400.000000
G00 Z5.000000

(End cutting path id: path25188)


(Start cutting path id: path25186)
(Change tool to Default tool)

G00 Z5.000000
G00 X76.891132 Y157.355219

G01 Z-0.125000 F100.0(Penetrate)
G01 X70.891132 Y160.819319 Z-0.125000 F400.000000
G00 Z5.000000

(End cutting path id: path25186)


(Start cutting path id: path25184)
(Change tool to Default tool)

G00 Z5.000000
G00 X57.091132 Y74.182013

G01 Z-0.125000 F100.0(Penetrate)
G01 X51.391132 Y77.472910 Z-0.125000 F400.000000
G00 Z5.000000

(End cutting path id: path25184)


(Start cutting path id: path25182)
(Change tool to Default tool)

G00 Z5.000000
G00 X57.391131 Y157.355219

G01 Z-0.125000 F100.0(Penetrate)
G01 X51.391132 Y160.819319 Z-0.125000 F400.000000
G00 Z5.000000

(End cutting path id: path25182)


(Start cutting path id: path25180)
(Change tool to Default tool)

G00 Z5.000000
G00 X76.591132 Y74.182013

G01 Z-0.125000 F100.0(Penetrate)
G01 X70.891132 Y77.472910 Z-0.125000 F400.000000
G00 Z5.000000

(End cutting path id: path25180)


(Start cutting path id: path25178)
(Change tool to Default tool)

G00 Z5.000000
G00 X37.891130 Y157.355219

G01 Z-0.125000 F100.0(Penetrate)
G01 X31.891131 Y160.819319 Z-0.125000 F400.000000
G00 Z5.000000

(End cutting path id: path25178)


(Start cutting path id: path25176)
(Change tool to Default tool)

G00 Z5.000000
G00 X96.091133 Y74.182013

G01 Z-0.125000 F100.0(Penetrate)
G01 X90.391130 Y77.472910 Z-0.125000 F400.000000
G00 Z5.000000

(End cutting path id: path25176)


(Start cutting path id: path25174)
(Change tool to Default tool)

G00 Z5.000000
G00 X18.391131 Y150.427013

G01 Z-0.125000 F100.0(Penetrate)
G01 X18.391131 Y157.355219 Z-0.125000 F400.000000
G00 Z5.000000

(End cutting path id: path25174)


(Start cutting path id: path25172)
(Change tool to Default tool)

G00 Z5.000000
G00 X115.591131 Y74.182013

G01 Z-0.125000 F100.0(Penetrate)
G01 X109.891131 Y77.472910 Z-0.125000 F400.000000
G00 Z5.000000

(End cutting path id: path25172)


(Start cutting path id: path25170)
(Change tool to Default tool)

G00 Z5.000000
G00 X18.391131 Y91.927014

G01 Z-0.125000 F100.0(Penetrate)
G01 X18.391131 Y98.855217 Z-0.125000 F400.000000
G00 Z5.000000

(End cutting path id: path25170)


(Start cutting path id: path25168)
(Change tool to Default tool)

G00 Z5.000000
G00 X135.091131 Y74.182013

G01 Z-0.125000 F100.0(Penetrate)
G01 X129.391131 Y77.472910 Z-0.125000 F400.000000
G00 Z5.000000

(End cutting path id: path25168)


(Start cutting path id: path25166)
(Change tool to Default tool)

G00 Z5.000000
G00 X37.891130 Y91.927014

G01 Z-0.125000 F100.0(Penetrate)
G01 X37.891130 Y98.855217 Z-0.125000 F400.000000
G00 Z5.000000

(End cutting path id: path25166)


(Start cutting path id: path25164)
(Change tool to Default tool)

G00 Z5.000000
G00 X18.091131 Y9.100233

G01 Z-0.125000 F100.0(Penetrate)
G01 X18.091131 Y15.682011 Z-0.125000 F400.000000
G00 Z5.000000

(End cutting path id: path25164)


(Start cutting path id: path25162)
(Change tool to Default tool)

G00 Z5.000000
G00 X57.391131 Y91.927014

G01 Z-0.125000 F100.0(Penetrate)
G01 X57.391131 Y98.855217 Z-0.125000 F400.000000
G00 Z5.000000

(End cutting path id: path25162)


(Start cutting path id: path25160)
(Change tool to Default tool)

G00 Z5.000000
G00 X37.591131 Y9.100233

G01 Z-0.125000 F100.0(Penetrate)
G01 X37.591131 Y15.682011 Z-0.125000 F400.000000
G00 Z5.000000

(End cutting path id: path25160)


(Start cutting path id: path25158)
(Change tool to Default tool)

G00 Z5.000000
G00 X76.891132 Y91.927014

G01 Z-0.125000 F100.0(Penetrate)
G01 X76.891132 Y98.855217 Z-0.125000 F400.000000
G00 Z5.000000

(End cutting path id: path25158)


(Start cutting path id: path25156)
(Change tool to Default tool)

G00 Z5.000000
G00 X18.091131 Y28.600219

G01 Z-0.125000 F100.0(Penetrate)
G01 X18.091131 Y35.182011 Z-0.125000 F400.000000
G00 Z5.000000

(End cutting path id: path25156)


(Start cutting path id: path25154)
(Change tool to Default tool)

G00 Z5.000000
G00 X96.391132 Y91.927014

G01 Z-0.125000 F100.0(Penetrate)
G01 X96.391132 Y98.855217 Z-0.125000 F400.000000
G00 Z5.000000

(End cutting path id: path25154)


(Start cutting path id: path25152)
(Change tool to Default tool)

G00 Z5.000000
G00 X18.091131 Y48.100220

G01 Z-0.125000 F100.0(Penetrate)
G01 X18.091131 Y54.682012 Z-0.125000 F400.000000
G00 Z5.000000

(End cutting path id: path25152)


(Start cutting path id: path25150)
(Change tool to Default tool)

G00 Z5.000000
G00 X115.891130 Y91.927014

G01 Z-0.125000 F100.0(Penetrate)
G01 X115.891130 Y98.855217 Z-0.125000 F400.000000
G00 Z5.000000

(End cutting path id: path25150)


(Start cutting path id: path25148)
(Change tool to Default tool)

G00 Z5.000000
G00 X18.091131 Y67.600221

G01 Z-0.125000 F100.0(Penetrate)
G01 X18.091131 Y74.182013 Z-0.125000 F400.000000
G00 Z5.000000

(End cutting path id: path25148)


(Start cutting path id: path25146)
(Change tool to Default tool)

G00 Z5.000000
G00 X135.391131 Y91.927014

G01 Z-0.125000 F100.0(Penetrate)
G01 X135.391131 Y98.855217 Z-0.125000 F400.000000
G00 Z5.000000

(End cutting path id: path25146)


(Start cutting path id: path25144)
(Change tool to Default tool)

G00 Z5.000000
G00 X57.091132 Y9.100233

G01 Z-0.125000 F100.0(Penetrate)
G01 X57.091132 Y15.682011 Z-0.125000 F400.000000
G00 Z5.000000

(End cutting path id: path25144)


(Start cutting path id: path25142)
(Change tool to Default tool)

G00 Z5.000000
G00 X135.391131 Y111.427015

G01 Z-0.125000 F100.0(Penetrate)
G01 X135.391131 Y118.355218 Z-0.125000 F400.000000
G00 Z5.000000

(End cutting path id: path25142)


(Start cutting path id: path25140)
(Change tool to Default tool)

G00 Z5.000000
G00 X76.591132 Y9.100233

G01 Z-0.125000 F100.0(Penetrate)
G01 X76.591132 Y15.682011 Z-0.125000 F400.000000
G00 Z5.000000

(End cutting path id: path25140)


(Start cutting path id: path25138)
(Change tool to Default tool)

G00 Z5.000000
G00 X115.891130 Y111.427015

G01 Z-0.125000 F100.0(Penetrate)
G01 X115.891130 Y118.355218 Z-0.125000 F400.000000
G00 Z5.000000

(End cutting path id: path25138)


(Start cutting path id: path25136)
(Change tool to Default tool)

G00 Z5.000000
G00 X96.091133 Y9.100233

G01 Z-0.125000 F100.0(Penetrate)
G01 X96.091133 Y15.682011 Z-0.125000 F400.000000
G00 Z5.000000

(End cutting path id: path25136)


(Start cutting path id: path25134)
(Change tool to Default tool)

G00 Z5.000000
G00 X96.391132 Y111.427015

G01 Z-0.125000 F100.0(Penetrate)
G01 X96.391132 Y118.355218 Z-0.125000 F400.000000
G00 Z5.000000

(End cutting path id: path25134)


(Start cutting path id: path25132)
(Change tool to Default tool)

G00 Z5.000000
G00 X115.591131 Y9.100233

G01 Z-0.125000 F100.0(Penetrate)
G01 X115.591131 Y15.682011 Z-0.125000 F400.000000
G00 Z5.000000

(End cutting path id: path25132)


(Start cutting path id: path25130)
(Change tool to Default tool)

G00 Z5.000000
G00 X76.891132 Y111.427015

G01 Z-0.125000 F100.0(Penetrate)
G01 X76.891132 Y118.355218 Z-0.125000 F400.000000
G00 Z5.000000

(End cutting path id: path25130)


(Start cutting path id: path25128)
(Change tool to Default tool)

G00 Z5.000000
G00 X135.091131 Y9.100233

G01 Z-0.125000 F100.0(Penetrate)
G01 X135.091131 Y15.682011 Z-0.125000 F400.000000
G00 Z5.000000

(End cutting path id: path25128)


(Start cutting path id: path25126)
(Change tool to Default tool)

G00 Z5.000000
G00 X57.391131 Y111.427015

G01 Z-0.125000 F100.0(Penetrate)
G01 X57.391131 Y118.355218 Z-0.125000 F400.000000
G00 Z5.000000

(End cutting path id: path25126)


(Start cutting path id: path25124)
(Change tool to Default tool)

G00 Z5.000000
G00 X37.591131 Y28.600219

G01 Z-0.125000 F100.0(Penetrate)
G01 X37.591131 Y35.182011 Z-0.125000 F400.000000
G00 Z5.000000

(End cutting path id: path25124)


(Start cutting path id: path25122)
(Change tool to Default tool)

G00 Z5.000000
G00 X37.891130 Y111.427015

G01 Z-0.125000 F100.0(Penetrate)
G01 X37.891130 Y118.355218 Z-0.125000 F400.000000
G00 Z5.000000

(End cutting path id: path25122)


(Start cutting path id: path25120)
(Change tool to Default tool)

G00 Z5.000000
G00 X37.591131 Y48.100220

G01 Z-0.125000 F100.0(Penetrate)
G01 X37.591131 Y54.682012 Z-0.125000 F400.000000
G00 Z5.000000

(End cutting path id: path25120)


(Start cutting path id: path25118)
(Change tool to Default tool)

G00 Z5.000000
G00 X18.391131 Y111.427015

G01 Z-0.125000 F100.0(Penetrate)
G01 X18.391131 Y118.355218 Z-0.125000 F400.000000
G00 Z5.000000

(End cutting path id: path25118)


(Start cutting path id: path25116)
(Change tool to Default tool)

G00 Z5.000000
G00 X37.591131 Y67.600221

G01 Z-0.125000 F100.0(Penetrate)
G01 X37.591131 Y74.182013 Z-0.125000 F400.000000
G00 Z5.000000

(End cutting path id: path25116)


(Start cutting path id: path25114)
(Change tool to Default tool)

G00 Z5.000000
G00 X18.391131 Y130.927016

G01 Z-0.125000 F100.0(Penetrate)
G01 X18.391131 Y137.855218 Z-0.125000 F400.000000
G00 Z5.000000

(End cutting path id: path25114)


(Start cutting path id: path25112)
(Change tool to Default tool)

G00 Z5.000000
G00 X57.091132 Y28.600219

G01 Z-0.125000 F100.0(Penetrate)
G01 X57.091132 Y35.182011 Z-0.125000 F400.000000
G00 Z5.000000

(End cutting path id: path25112)


(Start cutting path id: path25110)
(Change tool to Default tool)

G00 Z5.000000
G00 X37.891130 Y130.927016

G01 Z-0.125000 F100.0(Penetrate)
G01 X37.891130 Y137.855218 Z-0.125000 F400.000000
G00 Z5.000000

(End cutting path id: path25110)


(Start cutting path id: path25108)
(Change tool to Default tool)

G00 Z5.000000
G00 X76.591132 Y28.600219

G01 Z-0.125000 F100.0(Penetrate)
G01 X76.591132 Y35.182011 Z-0.125000 F400.000000
G00 Z5.000000

(End cutting path id: path25108)


(Start cutting path id: path25106)
(Change tool to Default tool)

G00 Z5.000000
G00 X57.391131 Y130.927016

G01 Z-0.125000 F100.0(Penetrate)
G01 X57.391131 Y137.855218 Z-0.125000 F400.000000
G00 Z5.000000

(End cutting path id: path25106)


(Start cutting path id: path25104)
(Change tool to Default tool)

G00 Z5.000000
G00 X96.091133 Y28.600219

G01 Z-0.125000 F100.0(Penetrate)
G01 X96.091133 Y35.182011 Z-0.125000 F400.000000
G00 Z5.000000

(End cutting path id: path25104)


(Start cutting path id: path25102)
(Change tool to Default tool)

G00 Z5.000000
G00 X76.891132 Y130.927016

G01 Z-0.125000 F100.0(Penetrate)
G01 X76.891132 Y137.855218 Z-0.125000 F400.000000
G00 Z5.000000

(End cutting path id: path25102)


(Start cutting path id: path25100)
(Change tool to Default tool)

G00 Z5.000000
G00 X115.591131 Y28.600219

G01 Z-0.125000 F100.0(Penetrate)
G01 X115.591131 Y35.182011 Z-0.125000 F400.000000
G00 Z5.000000

(End cutting path id: path25100)


(Start cutting path id: path25098)
(Change tool to Default tool)

G00 Z5.000000
G00 X96.391132 Y130.927016

G01 Z-0.125000 F100.0(Penetrate)
G01 X96.391132 Y137.855218 Z-0.125000 F400.000000
G00 Z5.000000

(End cutting path id: path25098)


(Start cutting path id: path25096)
(Change tool to Default tool)

G00 Z5.000000
G00 X135.091131 Y28.600219

G01 Z-0.125000 F100.0(Penetrate)
G01 X135.091131 Y35.182011 Z-0.125000 F400.000000
G00 Z5.000000

(End cutting path id: path25096)


(Start cutting path id: path25094)
(Change tool to Default tool)

G00 Z5.000000
G00 X115.891130 Y130.927016

G01 Z-0.125000 F100.0(Penetrate)
G01 X115.891130 Y137.855218 Z-0.125000 F400.000000
G00 Z5.000000

(End cutting path id: path25094)


(Start cutting path id: path25092)
(Change tool to Default tool)

G00 Z5.000000
G00 X57.091132 Y48.100220

G01 Z-0.125000 F100.0(Penetrate)
G01 X57.091132 Y54.682012 Z-0.125000 F400.000000
G00 Z5.000000

(End cutting path id: path25092)


(Start cutting path id: path25090)
(Change tool to Default tool)

G00 Z5.000000
G00 X135.391131 Y130.927016

G01 Z-0.125000 F100.0(Penetrate)
G01 X135.391131 Y137.855218 Z-0.125000 F400.000000
G00 Z5.000000

(End cutting path id: path25090)


(Start cutting path id: path25088)
(Change tool to Default tool)

G00 Z5.000000
G00 X76.591132 Y48.100220

G01 Z-0.125000 F100.0(Penetrate)
G01 X76.591132 Y54.682012 Z-0.125000 F400.000000
G00 Z5.000000

(End cutting path id: path25088)


(Start cutting path id: path25086)
(Change tool to Default tool)

G00 Z5.000000
G00 X135.391131 Y150.427013

G01 Z-0.125000 F100.0(Penetrate)
G01 X135.391131 Y157.355219 Z-0.125000 F400.000000
G00 Z5.000000

(End cutting path id: path25086)


(Start cutting path id: path25084)
(Change tool to Default tool)

G00 Z5.000000
G00 X96.091133 Y48.100220

G01 Z-0.125000 F100.0(Penetrate)
G01 X96.091133 Y54.682012 Z-0.125000 F400.000000
G00 Z5.000000

(End cutting path id: path25084)


(Start cutting path id: path25082)
(Change tool to Default tool)

G00 Z5.000000
G00 X115.891130 Y150.427013

G01 Z-0.125000 F100.0(Penetrate)
G01 X115.891130 Y157.355219 Z-0.125000 F400.000000
G00 Z5.000000

(End cutting path id: path25082)


(Start cutting path id: path25080)
(Change tool to Default tool)

G00 Z5.000000
G00 X115.591131 Y48.100220

G01 Z-0.125000 F100.0(Penetrate)
G01 X115.591131 Y54.682012 Z-0.125000 F400.000000
G00 Z5.000000

(End cutting path id: path25080)


(Start cutting path id: path25078)
(Change tool to Default tool)

G00 Z5.000000
G00 X96.391132 Y150.427013

G01 Z-0.125000 F100.0(Penetrate)
G01 X96.391132 Y157.355219 Z-0.125000 F400.000000
G00 Z5.000000

(End cutting path id: path25078)


(Start cutting path id: path25076)
(Change tool to Default tool)

G00 Z5.000000
G00 X135.091131 Y48.100220

G01 Z-0.125000 F100.0(Penetrate)
G01 X135.091131 Y54.682012 Z-0.125000 F400.000000
G00 Z5.000000

(End cutting path id: path25076)


(Start cutting path id: path25074)
(Change tool to Default tool)

G00 Z5.000000
G00 X76.891132 Y150.427013

G01 Z-0.125000 F100.0(Penetrate)
G01 X76.891132 Y157.355219 Z-0.125000 F400.000000
G00 Z5.000000

(End cutting path id: path25074)


(Start cutting path id: path25072)
(Change tool to Default tool)

G00 Z5.000000
G00 X57.091132 Y67.600221

G01 Z-0.125000 F100.0(Penetrate)
G01 X57.091132 Y74.182013 Z-0.125000 F400.000000
G00 Z5.000000

(End cutting path id: path25072)


(Start cutting path id: path25070)
(Change tool to Default tool)

G00 Z5.000000
G00 X57.391131 Y150.427013

G01 Z-0.125000 F100.0(Penetrate)
G01 X57.391131 Y157.355219 Z-0.125000 F400.000000
G00 Z5.000000

(End cutting path id: path25070)


(Start cutting path id: path25068)
(Change tool to Default tool)

G00 Z5.000000
G00 X76.591132 Y67.600221

G01 Z-0.125000 F100.0(Penetrate)
G01 X76.591132 Y74.182013 Z-0.125000 F400.000000
G00 Z5.000000

(End cutting path id: path25068)


(Start cutting path id: path25066)
(Change tool to Default tool)

G00 Z5.000000
G00 X37.891130 Y150.427013

G01 Z-0.125000 F100.0(Penetrate)
G01 X37.891130 Y157.355219 Z-0.125000 F400.000000
G00 Z5.000000

(End cutting path id: path25066)


(Start cutting path id: path25064)
(Change tool to Default tool)

G00 Z5.000000
G00 X96.091133 Y67.600221

G01 Z-0.125000 F100.0(Penetrate)
G01 X96.091133 Y74.182013 Z-0.125000 F400.000000
G00 Z5.000000

(End cutting path id: path25064)


(Start cutting path id: path25062)
(Change tool to Default tool)

G00 Z5.000000
G00 X12.391131 Y146.962913

G01 Z-0.125000 F100.0(Penetrate)
G01 X18.391131 Y150.427013 Z-0.125000 F400.000000
