%
(Header)
(Generated by gcodetools from Inkscape.)
(Using default header. To add your own header create file "header" in the output dir.)
M3 S1 F500
(Header end.)
G21 (All units in mm)

(Start cutting path id: path4489)
(Change tool to Default tool)

M63 P0
G00 X93.688039 Y160.428359

M62 P0(Penetrate)
G01 X92.982655 Y161.133742 Z0.000000 F50.000000
G01 X92.982655 Y161.839126 Z0.000000
G01 X94.040732 Y161.839126 Z0.000000
G01 X94.040732 Y161.662136 Z0.000000
G01 X94.216432 Y161.486435 Z0.000000
G01 X95.274506 Y161.486435 Z0.000000
G01 X95.451499 Y161.662136 Z0.000000
G01 X95.451499 Y162.367519 Z0.000000
G01 X95.274506 Y162.544509 Z0.000000
G01 X94.040732 Y162.544509 Z0.000000
G01 X94.040732 Y163.602585 Z0.000000
G01 X95.274506 Y163.602585 Z0.000000
G01 X95.451499 Y163.779575 Z0.000000
G01 X95.451499 Y164.307969 Z0.000000
G01 X96.509572 Y164.307969 Z0.000000
G01 X96.509572 Y163.249892 Z0.000000
G01 X96.508161 Y163.249892 Z0.000000
G01 X96.333754 Y163.074192 Z0.000000
G01 X96.509454 Y162.897202 Z0.000000
G01 X96.509454 Y161.133742 Z0.000000
G01 X95.804071 Y160.428359 Z0.000000
G01 X93.687920 Y160.428359 Z0.000000
G01 X93.688039 Y160.428359 Z0.000000
M63 P0

(End cutting path id: path4489)


(Start cutting path id: path4489)
(Change tool to Default tool)

M63 P0
G00 X92.982655 Y164.307969

M62 P0(Penetrate)
G01 X92.982655 Y165.013352 Z0.000000 F50.000000
G01 X93.688039 Y165.720025 Z0.000000
G01 X95.804189 Y165.720025 Z0.000000
G01 X96.509572 Y165.013352 Z0.000000
G01 X96.509572 Y164.660659 Z0.000000
G01 X94.216432 Y164.660659 Z0.000000
G01 X94.040732 Y164.484959 Z0.000000
G01 X94.040732 Y164.307969 Z0.000000
G01 X92.982655 Y164.307969 Z0.000000
G01 X92.982655 Y164.307969 Z0.000000
M63 P0

(End cutting path id: path4489)


(Start cutting path id: path4487)
(Change tool to Default tool)

M63 P0
G00 X89.853649 Y160.428359

M62 P0(Penetrate)
G01 X89.148266 Y161.133742 Z0.000000 F50.000000
G01 X89.148266 Y165.013352 Z0.000000
G01 X89.853649 Y165.720025 Z0.000000
G01 X90.206339 Y165.720025 Z0.000000
G01 X90.206339 Y161.662136 Z0.000000
G01 X90.382040 Y161.486435 Z0.000000
G01 X91.264416 Y161.486435 Z0.000000
G01 X91.264416 Y160.428359 Z0.000000
G01 X89.853649 Y160.428359 Z0.000000
G01 X89.853649 Y160.428359 Z0.000000
M63 P0

(End cutting path id: path4487)


(Start cutting path id: path4487)
(Change tool to Default tool)

M63 P0
G00 X91.617106 Y160.428359

M62 P0(Penetrate)
G01 X91.617106 Y164.484959 Z0.000000 F50.000000
G01 X91.440116 Y164.660659 Z0.000000
G01 X90.559033 Y164.660659 Z0.000000
G01 X90.559033 Y165.720025 Z0.000000
G01 X91.969799 Y165.720025 Z0.000000
G01 X92.675183 Y165.013352 Z0.000000
G01 X92.675183 Y161.133742 Z0.000000
G01 X91.969799 Y160.428359 Z0.000000
G01 X91.617106 Y160.428359 Z0.000000
G01 X91.617106 Y160.428359 Z0.000000
M63 P0

(End cutting path id: path4487)


(Start cutting path id: path4485)
(Change tool to Default tool)

M63 P0
G00 X87.253033 Y160.428359

M62 P0(Penetrate)
G01 X87.253033 Y161.486435 Z0.000000 F50.000000
G01 X87.605724 Y161.486435 Z0.000000
G01 X87.782717 Y161.662136 Z0.000000
G01 X87.782717 Y162.367519 Z0.000000
G01 X87.605724 Y162.544509 Z0.000000
G01 X87.253033 Y162.544509 Z0.000000
G01 X87.253033 Y163.602585 Z0.000000
G01 X88.488100 Y163.602585 Z0.000000
G01 X88.840790 Y163.249892 Z0.000000
G01 X88.840790 Y161.133742 Z0.000000
G01 X88.135407 Y160.428359 Z0.000000
G01 X87.253033 Y160.428359 Z0.000000
G01 X87.253033 Y160.428359 Z0.000000
M63 P0

(End cutting path id: path4485)


(Start cutting path id: path4485)
(Change tool to Default tool)

M63 P0
G00 X86.019257 Y160.428359

M62 P0(Penetrate)
G01 X85.313873 Y161.133742 Z0.000000 F50.000000
G01 X85.313873 Y165.013352 Z0.000000
G01 X86.019257 Y165.720025 Z0.000000
G01 X86.900340 Y165.720025 Z0.000000
G01 X86.900340 Y164.660659 Z0.000000
G01 X86.547650 Y164.660659 Z0.000000
G01 X86.371950 Y164.484959 Z0.000000
G01 X86.371950 Y163.602585 Z0.000000
G01 X86.900340 Y163.602585 Z0.000000
G01 X86.900340 Y162.544509 Z0.000000
G01 X86.547650 Y162.544509 Z0.000000
G01 X86.371950 Y162.367519 Z0.000000
G01 X86.371950 Y161.662136 Z0.000000
G01 X86.547650 Y161.486435 Z0.000000
G01 X86.900340 Y161.486435 Z0.000000
G01 X86.900340 Y160.428359 Z0.000000
G01 X86.019257 Y160.428359 Z0.000000
G01 X86.019257 Y160.428359 Z0.000000
M63 P0

(End cutting path id: path4485)


(Start cutting path id: path4485)
(Change tool to Default tool)

M63 P0
G00 X87.782717 Y164.307969

M62 P0(Penetrate)
G01 X87.782717 Y164.484959 Z0.000000 F50.000000
G01 X87.605724 Y164.660659 Z0.000000
G01 X87.253033 Y164.660659 Z0.000000
G01 X87.253033 Y165.720025 Z0.000000
G01 X88.135407 Y165.720025 Z0.000000
G01 X88.840790 Y165.013352 Z0.000000
G01 X88.840790 Y164.307969 Z0.000000
G01 X87.782717 Y164.307969 Z0.000000
G01 X87.782717 Y164.307969 Z0.000000
M63 P0

(End cutting path id: path4485)


(Start cutting path id: path4483)
(Change tool to Default tool)

M63 P0
G00 X82.184867 Y160.428359

M62 P0(Penetrate)
G01 X81.479484 Y161.133742 Z0.000000 F50.000000
G01 X81.479484 Y165.013352 Z0.000000
G01 X82.184867 Y165.720025 Z0.000000
G01 X82.537557 Y165.720025 Z0.000000
G01 X82.537557 Y161.662136 Z0.000000
G01 X82.713258 Y161.486435 Z0.000000
G01 X83.595634 Y161.486435 Z0.000000
G01 X83.595634 Y160.428359 Z0.000000
G01 X82.184867 Y160.428359 Z0.000000
G01 X82.184867 Y160.428359 Z0.000000
M63 P0

(End cutting path id: path4483)


(Start cutting path id: path4483)
(Change tool to Default tool)

M63 P0
G00 X83.948324 Y160.428359

M62 P0(Penetrate)
G01 X83.948324 Y164.484959 Z0.000000 F50.000000
G01 X83.771331 Y164.660659 Z0.000000
G01 X82.890250 Y164.660659 Z0.000000
G01 X82.890250 Y165.720025 Z0.000000
G01 X84.301017 Y165.720025 Z0.000000
G01 X85.006398 Y165.013352 Z0.000000
G01 X85.006398 Y161.133742 Z0.000000
G01 X84.301017 Y160.428359 Z0.000000
G01 X83.948324 Y160.428359 Z0.000000
G01 X83.948324 Y160.428359 Z0.000000
M63 P0

(End cutting path id: path4483)


(Start cutting path id: path4481)
(Change tool to Default tool)

M63 P0
G00 X74.826143 Y160.428359

M62 P0(Penetrate)
G01 X74.120759 Y161.133742 Z0.000000 F50.000000
G01 X74.120759 Y161.839126 Z0.000000
G01 X75.178833 Y161.839126 Z0.000000
G01 X75.178833 Y161.662136 Z0.000000
G01 X75.354533 Y161.486435 Z0.000000
G01 X75.707226 Y161.486435 Z0.000000
G01 X75.707226 Y160.428359 Z0.000000
G01 X74.826143 Y160.428359 Z0.000000
G01 X74.826143 Y160.428359 Z0.000000
M63 P0

(End cutting path id: path4481)


(Start cutting path id: path4481)
(Change tool to Default tool)

M63 P0
G00 X76.059917 Y160.428359

M62 P0(Penetrate)
G01 X76.059917 Y161.486435 Z0.000000 F50.000000
G01 X76.412610 Y161.486435 Z0.000000
G01 X76.589600 Y161.662136 Z0.000000
G01 X76.589600 Y162.367519 Z0.000000
G01 X76.412610 Y162.544509 Z0.000000
G01 X74.473450 Y162.544509 Z0.000000
G01 X74.120759 Y162.897202 Z0.000000
G01 X74.120759 Y165.013352 Z0.000000
G01 X74.826143 Y165.720025 Z0.000000
G01 X75.707226 Y165.720025 Z0.000000
G01 X75.707226 Y164.660659 Z0.000000
G01 X75.354533 Y164.660659 Z0.000000
G01 X75.178833 Y164.484959 Z0.000000
G01 X75.178833 Y163.779575 Z0.000000
G01 X75.354533 Y163.602585 Z0.000000
G01 X77.294983 Y163.602585 Z0.000000
G01 X77.647676 Y163.249892 Z0.000000
G01 X77.647676 Y161.133742 Z0.000000
G01 X76.942293 Y160.428359 Z0.000000
G01 X76.059917 Y160.428359 Z0.000000
G01 X76.059917 Y160.428359 Z0.000000
M63 P0

(End cutting path id: path4481)


(Start cutting path id: path4481)
(Change tool to Default tool)

M63 P0
G00 X76.589600 Y164.307969

M62 P0(Penetrate)
G01 X76.589600 Y164.484959 Z0.000000 F50.000000
G01 X76.412610 Y164.660659 Z0.000000
G01 X76.059917 Y164.660659 Z0.000000
G01 X76.059917 Y165.720025 Z0.000000
G01 X76.942293 Y165.720025 Z0.000000
G01 X77.647676 Y165.013352 Z0.000000
G01 X77.647676 Y164.307969 Z0.000000
G01 X76.589600 Y164.307969 Z0.000000
G01 X76.589600 Y164.307969 Z0.000000
M63 P0

(End cutting path id: path4481)


(Start cutting path id: path4479)
(Change tool to Default tool)

M63 P0
G00 X70.286367 Y160.428359

M62 P0(Penetrate)
G01 X70.286367 Y165.720025 Z0.000000 F50.000000
G01 X71.344443 Y165.720025 Z0.000000
G01 X71.344443 Y160.428359 Z0.000000
G01 X70.286367 Y160.428359 Z0.000000
G01 X70.286367 Y160.428359 Z0.000000
M63 P0

(End cutting path id: path4479)


(Start cutting path id: path4479)
(Change tool to Default tool)

M63 P0
G00 X72.755210 Y160.428359

M62 P0(Penetrate)
G01 X72.755210 Y162.367519 Z0.000000 F50.000000
G01 X72.578217 Y162.544509 Z0.000000
G01 X71.697134 Y162.544509 Z0.000000
G01 X71.697134 Y163.602585 Z0.000000
G01 X72.578217 Y163.602585 Z0.000000
G01 X72.755210 Y163.779575 Z0.000000
G01 X72.755210 Y164.484959 Z0.000000
G01 X72.578217 Y164.660659 Z0.000000
G01 X71.697134 Y164.660659 Z0.000000
G01 X71.697134 Y165.720025 Z0.000000
G01 X73.107900 Y165.720025 Z0.000000
G01 X73.813284 Y165.013352 Z0.000000
G01 X73.813284 Y163.249892 Z0.000000
G01 X73.811873 Y163.249892 Z0.000000
G01 X73.637465 Y163.074192 Z0.000000
G01 X73.813165 Y162.897202 Z0.000000
G01 X73.813165 Y160.428359 Z0.000000
G01 X72.755092 Y160.428359 Z0.000000
G01 X72.755210 Y160.428359 Z0.000000
M63 P0

(End cutting path id: path4479)


(Start cutting path id: path4477)
(Change tool to Default tool)

M63 P0
G00 X67.157361 Y160.428359

M62 P0(Penetrate)
G01 X66.451977 Y161.133742 Z0.000000 F50.000000
G01 X66.451977 Y165.013352 Z0.000000
G01 X67.157361 Y165.720025 Z0.000000
G01 X68.038441 Y165.720025 Z0.000000
G01 X68.038441 Y164.660659 Z0.000000
G01 X67.685751 Y164.660659 Z0.000000
G01 X67.510051 Y164.484959 Z0.000000
G01 X67.510051 Y161.662136 Z0.000000
G01 X67.685751 Y161.486435 Z0.000000
G01 X68.038441 Y161.486435 Z0.000000
G01 X68.038441 Y160.428359 Z0.000000
G01 X67.157361 Y160.428359 Z0.000000
G01 X67.157361 Y160.428359 Z0.000000
M63 P0

(End cutting path id: path4477)


(Start cutting path id: path4477)
(Change tool to Default tool)

M63 P0
G00 X68.391134 Y160.428359

M62 P0(Penetrate)
G01 X68.391134 Y161.486435 Z0.000000 F50.000000
G01 X68.743825 Y161.486435 Z0.000000
G01 X68.920818 Y161.662136 Z0.000000
G01 X68.920818 Y164.484959 Z0.000000
G01 X68.743825 Y164.660659 Z0.000000
G01 X68.391134 Y164.660659 Z0.000000
G01 X68.391134 Y165.720025 Z0.000000
G01 X69.273508 Y165.720025 Z0.000000
G01 X69.978891 Y165.013352 Z0.000000
G01 X69.978891 Y161.133742 Z0.000000
G01 X69.273508 Y160.428359 Z0.000000
G01 X68.391134 Y160.428359 Z0.000000
G01 X68.391134 Y160.428359 Z0.000000
M63 P0

(End cutting path id: path4477)


(Start cutting path id: path4475)
(Change tool to Default tool)

M63 P0
G00 X63.851359 Y160.428359

M62 P0(Penetrate)
G01 X63.851359 Y164.307969 Z0.000000 F50.000000
G01 X64.909435 Y164.307969 Z0.000000
G01 X64.909435 Y160.428359 Z0.000000
G01 X63.851359 Y160.428359 Z0.000000
G01 X63.851359 Y160.428359 Z0.000000
M63 P0

(End cutting path id: path4475)


(Start cutting path id: path4475)
(Change tool to Default tool)

M63 P0
G00 X62.617585 Y164.660659

M62 P0(Penetrate)
G01 X62.617585 Y165.720025 Z0.000000 F50.000000
G01 X66.144502 Y165.720025 Z0.000000
G01 X66.144502 Y164.660659 Z0.000000
G01 X62.617585 Y164.660659 Z0.000000
G01 X62.617585 Y164.660659 Z0.000000
M63 P0

(End cutting path id: path4475)


(Start cutting path id: path4473)
(Change tool to Default tool)

M63 P0
G00 X59.488576 Y160.428359

M62 P0(Penetrate)
G01 X58.783192 Y161.133742 Z0.000000 F50.000000
G01 X58.783192 Y161.839126 Z0.000000
G01 X59.841269 Y161.839126 Z0.000000
G01 X59.841269 Y161.662136 Z0.000000
G01 X60.016969 Y161.486435 Z0.000000
G01 X60.369659 Y161.486435 Z0.000000
G01 X60.369659 Y160.428359 Z0.000000
G01 X59.488576 Y160.428359 Z0.000000
G01 X59.488576 Y160.428359 Z0.000000
M63 P0

(End cutting path id: path4473)


(Start cutting path id: path4473)
(Change tool to Default tool)

M63 P0
G00 X60.722352 Y160.428359

M62 P0(Penetrate)
G01 X60.722352 Y161.486435 Z0.000000 F50.000000
G01 X61.075043 Y161.486435 Z0.000000
G01 X61.252035 Y161.662136 Z0.000000
G01 X61.252035 Y162.367519 Z0.000000
G01 X61.075043 Y162.544509 Z0.000000
G01 X59.135885 Y162.544509 Z0.000000
G01 X58.783192 Y162.897202 Z0.000000
G01 X58.783192 Y165.013352 Z0.000000
G01 X59.488576 Y165.720025 Z0.000000
G01 X60.369659 Y165.720025 Z0.000000
G01 X60.369659 Y164.660659 Z0.000000
G01 X60.016969 Y164.660659 Z0.000000
G01 X59.841269 Y164.484959 Z0.000000
G01 X59.841269 Y163.779575 Z0.000000
G01 X60.016969 Y163.602585 Z0.000000
G01 X61.957419 Y163.602585 Z0.000000
G01 X62.310109 Y163.249892 Z0.000000
G01 X62.310109 Y161.133742 Z0.000000
G01 X61.604726 Y160.428359 Z0.000000
G01 X60.722352 Y160.428359 Z0.000000
G01 X60.722352 Y160.428359 Z0.000000
M63 P0

(End cutting path id: path4473)


(Start cutting path id: path4473)
(Change tool to Default tool)

M63 P0
G00 X61.252035 Y164.307969

M62 P0(Penetrate)
G01 X61.252035 Y164.484959 Z0.000000 F50.000000
G01 X61.075043 Y164.660659 Z0.000000
G01 X60.722352 Y164.660659 Z0.000000
G01 X60.722352 Y165.720025 Z0.000000
G01 X61.604726 Y165.720025 Z0.000000
G01 X62.310109 Y165.013352 Z0.000000
G01 X62.310109 Y164.307969 Z0.000000
G01 X61.252035 Y164.307969 Z0.000000
G01 X61.252035 Y164.307969 Z0.000000
M63 P0

(End cutting path id: path4473)


(Start cutting path id: path4471)
(Change tool to Default tool)

M63 P0
G00 X57.418936 Y160.428359

M62 P0(Penetrate)
G01 X57.418936 Y165.720025 Z0.000000 F50.000000
G01 X58.477009 Y165.720025 Z0.000000
G01 X58.477009 Y160.428359 Z0.000000
G01 X57.418936 Y160.428359 Z0.000000
G01 X57.418936 Y160.428359 Z0.000000
M63 P0

(End cutting path id: path4471)


(Start cutting path id: path4469)
(Change tool to Default tool)

M63 P0
G00 X54.289926 Y160.428359

M62 P0(Penetrate)
G01 X53.584543 Y161.133742 Z0.000000 F50.000000
G01 X53.584543 Y161.839126 Z0.000000
G01 X54.642620 Y161.839126 Z0.000000
G01 X54.642620 Y161.662136 Z0.000000
G01 X54.818320 Y161.486435 Z0.000000
G01 X55.171010 Y161.486435 Z0.000000
G01 X55.171010 Y160.428359 Z0.000000
G01 X54.289926 Y160.428359 Z0.000000
G01 X54.289926 Y160.428359 Z0.000000
M63 P0

(End cutting path id: path4469)


(Start cutting path id: path4469)
(Change tool to Default tool)

M63 P0
G00 X55.523703 Y160.428359

M62 P0(Penetrate)
G01 X55.523703 Y161.486435 Z0.000000 F50.000000
G01 X55.876394 Y161.486435 Z0.000000
G01 X56.053386 Y161.662136 Z0.000000
G01 X56.053386 Y162.367519 Z0.000000
G01 X55.876394 Y162.544509 Z0.000000
G01 X53.937236 Y162.544509 Z0.000000
G01 X53.584543 Y162.897202 Z0.000000
G01 X53.584543 Y165.013352 Z0.000000
G01 X54.289926 Y165.720025 Z0.000000
G01 X55.171010 Y165.720025 Z0.000000
G01 X55.171010 Y164.660659 Z0.000000
G01 X54.818320 Y164.660659 Z0.000000
G01 X54.642620 Y164.484959 Z0.000000
G01 X54.642620 Y163.779575 Z0.000000
G01 X54.818320 Y163.602585 Z0.000000
G01 X56.758770 Y163.602585 Z0.000000
G01 X57.111460 Y163.249892 Z0.000000
G01 X57.111460 Y161.133742 Z0.000000
G01 X56.406077 Y160.428359 Z0.000000
G01 X55.523703 Y160.428359 Z0.000000
G01 X55.523703 Y160.428359 Z0.000000
M63 P0

(End cutting path id: path4469)


(Start cutting path id: path4469)
(Change tool to Default tool)

M63 P0
G00 X56.053386 Y164.307969

M62 P0(Penetrate)
G01 X56.053386 Y164.484959 Z0.000000 F50.000000
G01 X55.876394 Y164.660659 Z0.000000
G01 X55.523703 Y164.660659 Z0.000000
G01 X55.523703 Y165.720025 Z0.000000
G01 X56.406077 Y165.720025 Z0.000000
G01 X57.111460 Y165.013352 Z0.000000
G01 X57.111460 Y164.307969 Z0.000000
G01 X56.053386 Y164.307969 Z0.000000
G01 X56.053386 Y164.307969 Z0.000000
M63 P0

(End cutting path id: path4469)


(Start cutting path id: path4467)
(Change tool to Default tool)

M63 P0
G00 X51.160920 Y160.428359

M62 P0(Penetrate)
G01 X51.160920 Y161.486435 Z0.000000 F50.000000
G01 X53.277070 Y161.486435 Z0.000000
G01 X53.277070 Y160.428359 Z0.000000
G01 X51.160920 Y160.428359 Z0.000000
G01 X51.160920 Y160.428359 Z0.000000
M63 P0

(End cutting path id: path4467)


(Start cutting path id: path4467)
(Change tool to Default tool)

M63 P0
G00 X51.160920 Y162.544509

M62 P0(Penetrate)
G01 X51.160920 Y163.602585 Z0.000000 F50.000000
G01 X52.571687 Y163.602585 Z0.000000
G01 X52.571687 Y162.544509 Z0.000000
G01 X51.160920 Y162.544509 Z0.000000
G01 X51.160920 Y162.544509 Z0.000000
M63 P0

(End cutting path id: path4467)


(Start cutting path id: path4467)
(Change tool to Default tool)

M63 P0
G00 X49.750153 Y160.428359

M62 P0(Penetrate)
G01 X49.750153 Y165.720025 Z0.000000 F50.000000
G01 X50.808227 Y165.720025 Z0.000000
G01 X50.808227 Y160.428359 Z0.000000
G01 X49.750153 Y160.428359 Z0.000000
G01 X49.750153 Y160.428359 Z0.000000
M63 P0

(End cutting path id: path4467)


(Start cutting path id: path4467)
(Change tool to Default tool)

M63 P0
G00 X51.160920 Y164.660659

M62 P0(Penetrate)
G01 X51.160920 Y165.720025 Z0.000000 F50.000000
G01 X53.277070 Y165.720025 Z0.000000
G01 X53.277070 Y164.660659 Z0.000000
G01 X51.160920 Y164.660659 Z0.000000
G01 X51.160920 Y164.660659 Z0.000000
M63 P0

(End cutting path id: path4467)


(Start cutting path id: path4465)
(Change tool to Default tool)

M63 P0
G00 X45.915761 Y160.428359

M62 P0(Penetrate)
G01 X45.915761 Y165.720025 Z0.000000 F50.000000
G01 X46.973837 Y165.720025 Z0.000000
G01 X46.973837 Y160.428359 Z0.000000
G01 X45.915761 Y160.428359 Z0.000000
G01 X45.915761 Y160.428359 Z0.000000
M63 P0

(End cutting path id: path4465)


(Start cutting path id: path4465)
(Change tool to Default tool)

M63 P0
G00 X48.384604 Y160.428359

M62 P0(Penetrate)
G01 X48.384604 Y162.367519 Z0.000000 F50.000000
G01 X48.207611 Y162.544509 Z0.000000
G01 X47.326528 Y162.544509 Z0.000000
G01 X47.326528 Y163.602585 Z0.000000
G01 X48.207611 Y163.602585 Z0.000000
G01 X48.384604 Y163.779575 Z0.000000
G01 X48.384604 Y164.484959 Z0.000000
G01 X48.207611 Y164.660659 Z0.000000
G01 X47.326528 Y164.660659 Z0.000000
G01 X47.326528 Y165.720025 Z0.000000
G01 X48.737295 Y165.720025 Z0.000000
G01 X49.442678 Y165.013352 Z0.000000
G01 X49.442678 Y163.249892 Z0.000000
G01 X49.441267 Y163.249892 Z0.000000
G01 X49.266859 Y163.074192 Z0.000000
G01 X49.442559 Y162.897202 Z0.000000
G01 X49.442559 Y160.428359 Z0.000000
G01 X48.384486 Y160.428359 Z0.000000
G01 X48.384604 Y160.428359 Z0.000000
M63 P0

(End cutting path id: path4465)


(Start cutting path id: path7706)
(Change tool to Default tool)

M63 P0
G00 X103.980720 Y111.623088

M62 P0(Penetrate)
G03 X103.897508 Y111.589966 Z0.000000 I0.007888 J-0.140905 F50.000000
G03 X103.850986 Y111.513435 Z0.000000 I0.091100 J-0.107783
G03 X103.859892 Y111.424317 Z0.000000 I0.137621 J-0.031251
G03 X103.920638 Y111.358505 Z0.000000 I0.128716 J0.057867
G01 X109.820846 Y107.952545 Z0.000000
G03 X109.892461 Y107.930761 Z0.000000 I0.075407 J0.119290
G03 X109.965143 Y107.948666 Z0.000000 I0.003793 J0.141074
G03 X110.018444 Y108.001224 Z0.000000 I-0.068889 J0.123169
G03 X110.037367 Y108.073647 Z0.000000 I-0.122190 J0.070611
G03 X110.016590 Y108.145561 Z0.000000 I-0.141114 J-0.001812
G03 X109.961957 Y108.196733 Z0.000000 I-0.120336 J-0.073726
G01 X104.061749 Y111.603242 Z0.000000
G03 X104.022734 Y111.619286 Z0.000000 I-0.072578 J-0.121032
G03 X103.980720 Y111.623083 Z0.000000 I-0.033564 J-0.137076
G01 X103.980720 Y111.623088 Z0.000000
M63 P0

(End cutting path id: path7706)


(Start cutting path id: path7704)
(Change tool to Default tool)

M63 P0
G00 X84.480375 Y111.623088

M62 P0(Penetrate)
G03 X84.397365 Y111.589743 Z0.000000 I0.008388 J-0.140876 F50.000000
G03 X84.351080 Y111.513190 Z0.000000 I0.091398 J-0.107530
G03 X84.360117 Y111.424191 Z0.000000 I0.137683 J-0.030978
G03 X84.420846 Y111.358505 Z0.000000 I0.128646 J0.058022
G01 X90.320501 Y107.952545 Z0.000000
G03 X90.392116 Y107.930761 Z0.000000 I0.075407 J0.119290
G03 X90.464798 Y107.948666 Z0.000000 I0.003793 J0.141074
G03 X90.518099 Y108.001224 Z0.000000 I-0.068889 J0.123169
G03 X90.537022 Y108.073647 Z0.000000 I-0.122190 J0.070611
G03 X90.516245 Y108.145561 Z0.000000 I-0.141114 J-0.001812
G03 X90.461612 Y108.196733 Z0.000000 I-0.120336 J-0.073726
G01 X84.561957 Y111.603242 Z0.000000
G03 X84.522676 Y111.619370 Z0.000000 I-0.072630 J-0.121001
G03 X84.480375 Y111.623083 Z0.000000 I-0.033349 J-0.137128
G01 X84.480375 Y111.623088 Z0.000000
M63 P0

(End cutting path id: path7704)


(Start cutting path id: path7702)
(Change tool to Default tool)

M63 P0
G00 X64.980583 Y111.623088

M62 P0(Penetrate)
G03 X64.897371 Y111.589966 Z0.000000 I0.007888 J-0.140905 F50.000000
G03 X64.850849 Y111.513435 Z0.000000 I0.091100 J-0.107783
G03 X64.859755 Y111.424317 Z0.000000 I0.137621 J-0.031251
G03 X64.920501 Y111.358505 Z0.000000 I0.128716 J0.057867
G01 X70.820709 Y107.952545 Z0.000000
G03 X70.892324 Y107.930761 Z0.000000 I0.075407 J0.119290
G03 X70.965006 Y107.948666 Z0.000000 I0.003793 J0.141074
G03 X71.018307 Y108.001224 Z0.000000 I-0.068889 J0.123169
G03 X71.037230 Y108.073647 Z0.000000 I-0.122190 J0.070611
G03 X71.016453 Y108.145561 Z0.000000 I-0.141114 J-0.001812
G03 X70.961821 Y108.196733 Z0.000000 I-0.120336 J-0.073726
G01 X65.061612 Y111.603242 Z0.000000
G03 X65.022597 Y111.619286 Z0.000000 I-0.072578 J-0.121032
G03 X64.980583 Y111.623083 Z0.000000 I-0.033564 J-0.137076
G01 X64.980583 Y111.623088 Z0.000000
M63 P0

(End cutting path id: path7702)


(Start cutting path id: path7700)
(Change tool to Default tool)

M63 P0
G00 X45.480792 Y111.623088

M62 P0(Penetrate)
G03 X45.397579 Y111.589966 Z0.000000 I0.007888 J-0.140905 F50.000000
G03 X45.351058 Y111.513435 Z0.000000 I0.091100 J-0.107783
G03 X45.359963 Y111.424317 Z0.000000 I0.137621 J-0.031251
G03 X45.420709 Y111.358505 Z0.000000 I0.128716 J0.057867
G01 X51.320367 Y107.952545 Z0.000000
G03 X51.391982 Y107.930761 Z0.000000 I0.075407 J0.119290
G03 X51.464664 Y107.948666 Z0.000000 I0.003793 J0.141074
G03 X51.517965 Y108.001224 Z0.000000 I-0.068889 J0.123169
G03 X51.536888 Y108.073647 Z0.000000 I-0.122190 J0.070611
G03 X51.516111 Y108.145561 Z0.000000 I-0.141114 J-0.001812
G03 X51.461478 Y108.196733 Z0.000000 I-0.120336 J-0.073726
G01 X45.561820 Y111.603242 Z0.000000
G03 X45.522805 Y111.619286 Z0.000000 I-0.072578 J-0.121032
G03 X45.480792 Y111.623083 Z0.000000 I-0.033564 J-0.137076
G01 X45.480792 Y111.623088 Z0.000000
M63 P0

(End cutting path id: path7700)


(Start cutting path id: path7698)
(Change tool to Default tool)

M63 P0
G00 X25.980450 Y111.623088

M62 P0(Penetrate)
G03 X25.897237 Y111.589967 Z0.000000 I0.007887 J-0.140905 F50.000000
G03 X25.850716 Y111.513435 Z0.000000 I0.091100 J-0.107783
G03 X25.859621 Y111.424317 Z0.000000 I0.137621 J-0.031252
G03 X25.920367 Y111.358505 Z0.000000 I0.128716 J0.057866
G01 X31.820575 Y107.952545 Z0.000000
G03 X31.892190 Y107.930761 Z0.000000 I0.075407 J0.119290
G03 X31.964872 Y107.948666 Z0.000000 I0.003793 J0.141074
G03 X32.018173 Y108.001224 Z0.000000 I-0.068889 J0.123169
G03 X32.037097 Y108.073647 Z0.000000 I-0.122190 J0.070611
G03 X32.016319 Y108.145561 Z0.000000 I-0.141114 J-0.001812
G03 X31.961687 Y108.196733 Z0.000000 I-0.120336 J-0.073726
G01 X26.061478 Y111.603242 Z0.000000
G03 X26.022463 Y111.619286 Z0.000000 I-0.072578 J-0.121032
G03 X25.980450 Y111.623083 Z0.000000 I-0.033564 J-0.137076
G01 X25.980450 Y111.623088 Z0.000000
M63 P0

(End cutting path id: path7698)


(Start cutting path id: path7696)
(Change tool to Default tool)

M63 P0
G00 X25.980450 Y111.623088

M62 P0(Penetrate)
G03 X25.897237 Y111.589967 Z0.000000 I0.007887 J-0.140905 F50.000000
G03 X25.850716 Y111.513435 Z0.000000 I0.091100 J-0.107783
G03 X25.859621 Y111.424317 Z0.000000 I0.137621 J-0.031252
G03 X25.920367 Y111.358505 Z0.000000 I0.128716 J0.057866
G01 X31.820575 Y107.952545 Z0.000000
G03 X31.892190 Y107.930761 Z0.000000 I0.075407 J0.119290
G03 X31.964872 Y107.948666 Z0.000000 I0.003793 J0.141074
G03 X32.018173 Y108.001224 Z0.000000 I-0.068889 J0.123169
G03 X32.037097 Y108.073647 Z0.000000 I-0.122190 J0.070611
G03 X32.016319 Y108.145561 Z0.000000 I-0.141114 J-0.001812
G03 X31.961687 Y108.196733 Z0.000000 I-0.120336 J-0.073726
G01 X26.061478 Y111.603242 Z0.000000
G03 X26.022463 Y111.619286 Z0.000000 I-0.072578 J-0.121032
G03 X25.980450 Y111.623083 Z0.000000 I-0.033564 J-0.137076
G01 X25.980450 Y111.623088 Z0.000000
M63 P0

(End cutting path id: path7696)


(Start cutting path id: path7694)
(Change tool to Default tool)

M63 P0
G00 X6.480658 Y111.623088

M62 P0(Penetrate)
G03 X6.397446 Y111.589967 Z0.000000 I0.007887 J-0.140905 F50.000000
G03 X6.350924 Y111.513435 Z0.000000 I0.091100 J-0.107783
G03 X6.359829 Y111.424317 Z0.000000 I0.137621 J-0.031252
G03 X6.420575 Y111.358505 Z0.000000 I0.128716 J0.057866
G01 X12.320784 Y107.952545 Z0.000000
G03 X12.392399 Y107.930761 Z0.000000 I0.075407 J0.119290
G03 X12.465081 Y107.948666 Z0.000000 I0.003793 J0.141074
G03 X12.518381 Y108.001224 Z0.000000 I-0.068889 J0.123169
G03 X12.537305 Y108.073647 Z0.000000 I-0.122190 J0.070611
G03 X12.516528 Y108.145561 Z0.000000 I-0.141114 J-0.001812
G03 X12.461895 Y108.196733 Z0.000000 I-0.120336 J-0.073726
G01 X6.561686 Y111.603242 Z0.000000
G03 X6.522672 Y111.619286 Z0.000000 I-0.072578 J-0.121032
G03 X6.480658 Y111.623083 Z0.000000 I-0.033564 J-0.137076
G01 X6.480658 Y111.623088 Z0.000000
M63 P0

(End cutting path id: path7694)


(Start cutting path id: path7692)
(Change tool to Default tool)

M63 P0
G00 X103.980720 Y131.122880

M62 P0(Penetrate)
G03 X103.898086 Y131.089541 Z0.000000 I0.008785 J-0.140852 F50.000000
G03 X103.851897 Y131.013342 Z0.000000 I0.091418 J-0.107513
G03 X103.860566 Y130.924659 Z0.000000 I0.137607 J-0.031313
G03 X103.920638 Y130.858847 Z0.000000 I0.128938 J0.057369
G01 X109.820846 Y127.452337 Z0.000000
G03 X109.891486 Y127.433448 Z0.000000 I0.070566 J0.122363
G03 X109.962105 Y127.452410 Z0.000000 I-0.000073 J0.141252
G03 X110.013781 Y127.504144 Z0.000000 I-0.070693 J0.122289
G03 X110.032665 Y127.574785 Z0.000000 I-0.122369 J0.070556
G03 X110.013696 Y127.645404 Z0.000000 I-0.141252 J-0.000086
G03 X109.961957 Y127.697075 Z0.000000 I-0.122283 J-0.070704
G01 X104.061749 Y131.103034 Z0.000000
G03 X104.022734 Y131.119078 Z0.000000 I-0.072578 J-0.121032
G03 X103.980720 Y131.122874 Z0.000000 I-0.033564 J-0.137076
G01 X103.980720 Y131.122880 Z0.000000
M63 P0

(End cutting path id: path7692)


(Start cutting path id: path7690)
(Change tool to Default tool)

M63 P0
G00 X84.480375 Y131.122880

M62 P0(Penetrate)
G03 X84.397941 Y131.089321 Z0.000000 I0.009281 J-0.140820 F50.000000
G03 X84.351986 Y131.013099 Z0.000000 I0.091715 J-0.107260
G03 X84.360788 Y130.924533 Z0.000000 I0.137670 J-0.031039
G03 X84.420846 Y130.858847 Z0.000000 I0.128868 J0.057528
G01 X90.320501 Y127.452337 Z0.000000
G03 X90.391141 Y127.433448 Z0.000000 I0.070566 J0.122363
G03 X90.461761 Y127.452410 Z0.000000 I-0.000073 J0.141252
G03 X90.513436 Y127.504144 Z0.000000 I-0.070693 J0.122289
G03 X90.532320 Y127.574785 Z0.000000 I-0.122369 J0.070556
G03 X90.513351 Y127.645404 Z0.000000 I-0.141252 J-0.000086
G03 X90.461612 Y127.697075 Z0.000000 I-0.122283 J-0.070704
G01 X84.561957 Y131.103034 Z0.000000
G03 X84.522676 Y131.119162 Z0.000000 I-0.072630 J-0.121001
G03 X84.480375 Y131.122874 Z0.000000 I-0.033349 J-0.137128
G01 X84.480375 Y131.122880 Z0.000000
M63 P0

(End cutting path id: path7690)


(Start cutting path id: path7688)
(Change tool to Default tool)

M63 P0
G00 X64.980583 Y131.122880

M62 P0(Penetrate)
G03 X64.897950 Y131.089541 Z0.000000 I0.008785 J-0.140852 F50.000000
G03 X64.851761 Y131.013342 Z0.000000 I0.091418 J-0.107513
G03 X64.860430 Y130.924659 Z0.000000 I0.137607 J-0.031313
G03 X64.920501 Y130.858847 Z0.000000 I0.128938 J0.057369
G01 X70.820709 Y127.452337 Z0.000000
G03 X70.891349 Y127.433448 Z0.000000 I0.070566 J0.122363
G03 X70.961969 Y127.452410 Z0.000000 I-0.000073 J0.141252
G03 X71.013644 Y127.504144 Z0.000000 I-0.070693 J0.122289
G03 X71.032528 Y127.574785 Z0.000000 I-0.122369 J0.070556
G03 X71.013559 Y127.645404 Z0.000000 I-0.141252 J-0.000086
G03 X70.961821 Y127.697075 Z0.000000 I-0.122283 J-0.070704
G01 X65.061612 Y131.103034 Z0.000000
G03 X65.022597 Y131.119078 Z0.000000 I-0.072578 J-0.121032
G03 X64.980583 Y131.122874 Z0.000000 I-0.033564 J-0.137076
G01 X64.980583 Y131.122880 Z0.000000
M63 P0

(End cutting path id: path7688)


(Start cutting path id: path7686)
(Change tool to Default tool)

M63 P0
G00 X45.480792 Y131.122880

M62 P0(Penetrate)
G03 X45.398158 Y131.089541 Z0.000000 I0.008785 J-0.140852 F50.000000
G03 X45.351969 Y131.013342 Z0.000000 I0.091418 J-0.107513
G03 X45.360638 Y130.924659 Z0.000000 I0.137607 J-0.031313
G03 X45.420709 Y130.858847 Z0.000000 I0.128938 J0.057369
G01 X51.320367 Y127.452337 Z0.000000
G03 X51.391007 Y127.433448 Z0.000000 I0.070566 J0.122363
G03 X51.461627 Y127.452410 Z0.000000 I-0.000073 J0.141252
G03 X51.513302 Y127.504144 Z0.000000 I-0.070693 J0.122289
G03 X51.532186 Y127.574785 Z0.000000 I-0.122369 J0.070556
G03 X51.513217 Y127.645404 Z0.000000 I-0.141252 J-0.000086
G03 X51.461478 Y127.697075 Z0.000000 I-0.122283 J-0.070704
G01 X45.561820 Y131.103034 Z0.000000
G03 X45.522805 Y131.119078 Z0.000000 I-0.072578 J-0.121032
G03 X45.480792 Y131.122874 Z0.000000 I-0.033564 J-0.137076
G01 X45.480792 Y131.122880 Z0.000000
M63 P0

(End cutting path id: path7686)


(Start cutting path id: path7684)
(Change tool to Default tool)

M63 P0
G00 X25.980450 Y131.122880

M62 P0(Penetrate)
G03 X25.897816 Y131.089541 Z0.000000 I0.008784 J-0.140852 F50.000000
G03 X25.851627 Y131.013342 Z0.000000 I0.091418 J-0.107513
G03 X25.860296 Y130.924659 Z0.000000 I0.137607 J-0.031314
G03 X25.920367 Y130.858847 Z0.000000 I0.128938 J0.057369
G01 X31.820575 Y127.452337 Z0.000000
G03 X31.891215 Y127.433448 Z0.000000 I0.070566 J0.122363
G03 X31.961835 Y127.452410 Z0.000000 I-0.000073 J0.141252
G03 X32.013511 Y127.504144 Z0.000000 I-0.070693 J0.122289
G03 X32.032394 Y127.574785 Z0.000000 I-0.122369 J0.070556
G03 X32.013425 Y127.645404 Z0.000000 I-0.141252 J-0.000086
G03 X31.961687 Y127.697075 Z0.000000 I-0.122283 J-0.070704
G01 X26.061478 Y131.103034 Z0.000000
G03 X26.022463 Y131.119078 Z0.000000 I-0.072578 J-0.121032
G03 X25.980450 Y131.122874 Z0.000000 I-0.033564 J-0.137076
G01 X25.980450 Y131.122880 Z0.000000
M63 P0

(End cutting path id: path7684)


(Start cutting path id: path7682)
(Change tool to Default tool)

M63 P0
G00 X6.480658 Y131.122880

M62 P0(Penetrate)
G03 X6.398024 Y131.089541 Z0.000000 I0.008784 J-0.140852 F50.000000
G03 X6.351835 Y131.013342 Z0.000000 I0.091418 J-0.107513
G03 X6.360504 Y130.924659 Z0.000000 I0.137607 J-0.031314
G03 X6.420575 Y130.858847 Z0.000000 I0.128938 J0.057369
G01 X12.320784 Y127.452337 Z0.000000
G03 X12.391423 Y127.433448 Z0.000000 I0.070566 J0.122363
G03 X12.462043 Y127.452410 Z0.000000 I-0.000073 J0.141252
G03 X12.513719 Y127.504144 Z0.000000 I-0.070693 J0.122289
G03 X12.532602 Y127.574785 Z0.000000 I-0.122369 J0.070556
G03 X12.513633 Y127.645404 Z0.000000 I-0.141252 J-0.000086
G03 X12.461895 Y127.697075 Z0.000000 I-0.122283 J-0.070704
G01 X6.561686 Y131.103034 Z0.000000
G03 X6.522672 Y131.119078 Z0.000000 I-0.072578 J-0.121032
G03 X6.480658 Y131.122874 Z0.000000 I-0.033564 J-0.137076
G01 X6.480658 Y131.122880 Z0.000000
M63 P0

(End cutting path id: path7682)


(Start cutting path id: path7680)
(Change tool to Default tool)

M63 P0
G00 X103.994501 Y150.623222

M62 P0(Penetrate)
G03 X103.905762 Y150.596322 Z0.000000 I-0.005702 J-0.141010 F50.000000
G03 X103.852871 Y150.520159 Z0.000000 I0.083037 J-0.114110
G03 X103.858663 Y150.427613 Z0.000000 I0.135928 J-0.037947
G03 X103.920638 Y150.358639 Z0.000000 I0.130136 J0.054599
G01 X109.820846 Y146.952679 Z0.000000
G03 X109.892461 Y146.930895 Z0.000000 I0.075407 J0.119290
G03 X109.965143 Y146.948800 Z0.000000 I0.003793 J0.141074
G03 X110.018444 Y147.001358 Z0.000000 I-0.068889 J0.123169
G03 X110.037367 Y147.073781 Z0.000000 I-0.122190 J0.070611
G03 X110.016590 Y147.145695 Z0.000000 I-0.141114 J-0.001812
G03 X109.961957 Y147.196866 Z0.000000 I-0.120336 J-0.073726
G01 X104.061749 Y150.603379 Z0.000000
G03 X104.029377 Y150.617542 Z0.000000 I-0.072307 J-0.121194
G03 X103.994501 Y150.623219 Z0.000000 I-0.039935 J-0.135357
G01 X103.994501 Y150.623222 Z0.000000
M63 P0

(End cutting path id: path7680)


(Start cutting path id: path7678)
(Change tool to Default tool)

M63 P0
G00 X84.494706 Y150.623222

M62 P0(Penetrate)
G03 X84.405968 Y150.596321 Z0.000000 I-0.005699 J-0.141010 F50.000000
G03 X84.353079 Y150.520157 Z0.000000 I0.083039 J-0.114109
G03 X84.358872 Y150.427612 Z0.000000 I0.135928 J-0.037945
G03 X84.420846 Y150.358639 Z0.000000 I0.130135 J0.054600
G01 X90.320501 Y146.952679 Z0.000000
G03 X90.392116 Y146.930895 Z0.000000 I0.075407 J0.119290
G03 X90.464798 Y146.948800 Z0.000000 I0.003793 J0.141074
G03 X90.518099 Y147.001358 Z0.000000 I-0.068889 J0.123169
G03 X90.537022 Y147.073781 Z0.000000 I-0.122190 J0.070611
G03 X90.516245 Y147.145695 Z0.000000 I-0.141114 J-0.001812
G03 X90.461612 Y147.196866 Z0.000000 I-0.120336 J-0.073726
G01 X84.561957 Y150.603379 Z0.000000
G03 X84.529583 Y150.617542 Z0.000000 I-0.072307 J-0.121194
G03 X84.494706 Y150.623219 Z0.000000 I-0.039933 J-0.135358
G01 X84.494706 Y150.623222 Z0.000000
M63 P0

(End cutting path id: path7678)


(Start cutting path id: path7676)
(Change tool to Default tool)

M63 P0
G00 X64.994917 Y150.623222

M62 P0(Penetrate)
G03 X64.905932 Y150.596604 Z0.000000 I-0.006301 J-0.140984 F50.000000
G03 X64.852762 Y150.520448 Z0.000000 I0.082684 J-0.114367
G03 X64.858438 Y150.427740 Z0.000000 I0.135854 J-0.038210
G03 X64.920501 Y150.358639 Z0.000000 I0.130178 J0.054497
G01 X70.820709 Y146.952679 Z0.000000
G03 X70.892324 Y146.930895 Z0.000000 I0.075407 J0.119290
G03 X70.965006 Y146.948800 Z0.000000 I0.003793 J0.141074
G03 X71.018307 Y147.001358 Z0.000000 I-0.068889 J0.123169
G03 X71.037230 Y147.073781 Z0.000000 I-0.122190 J0.070611
G03 X71.016453 Y147.145695 Z0.000000 I-0.141114 J-0.001812
G03 X70.961821 Y147.196866 Z0.000000 I-0.120336 J-0.073726
G01 X65.061612 Y150.603379 Z0.000000
G03 X65.029507 Y150.617474 Z0.000000 I-0.072344 J-0.121172
G03 X64.994917 Y150.623219 Z0.000000 I-0.040239 J-0.135267
G01 X64.994917 Y150.623222 Z0.000000
M63 P0

(End cutting path id: path7676)


(Start cutting path id: path7674)
(Change tool to Default tool)

M63 P0
G00 X45.494572 Y150.623222

M62 P0(Penetrate)
G03 X45.405833 Y150.596322 Z0.000000 I-0.005702 J-0.141010 F50.000000
G03 X45.352943 Y150.520159 Z0.000000 I0.083037 J-0.114110
G03 X45.358735 Y150.427613 Z0.000000 I0.135928 J-0.037947
G03 X45.420709 Y150.358639 Z0.000000 I0.130136 J0.054599
G01 X51.320367 Y146.952679 Z0.000000
G03 X51.391982 Y146.930895 Z0.000000 I0.075407 J0.119290
G03 X51.464664 Y146.948800 Z0.000000 I0.003793 J0.141074
G03 X51.517965 Y147.001358 Z0.000000 I-0.068889 J0.123169
G03 X51.536888 Y147.073781 Z0.000000 I-0.122190 J0.070611
G03 X51.516111 Y147.145695 Z0.000000 I-0.141114 J-0.001812
G03 X51.461478 Y147.196866 Z0.000000 I-0.120336 J-0.073726
G01 X45.561820 Y150.603379 Z0.000000
G03 X45.529448 Y150.617542 Z0.000000 I-0.072307 J-0.121194
G03 X45.494572 Y150.623219 Z0.000000 I-0.039935 J-0.135357
G01 X45.494572 Y150.623222 Z0.000000
M63 P0

(End cutting path id: path7674)


(Start cutting path id: path7672)
(Change tool to Default tool)

M63 P0
G00 X25.994781 Y150.623222

M62 P0(Penetrate)
G03 X25.905797 Y150.596603 Z0.000000 I-0.006299 J-0.140985 F50.000000
G03 X25.852628 Y150.520447 Z0.000000 I0.082685 J-0.114366
G03 X25.858304 Y150.427740 Z0.000000 I0.135854 J-0.038209
G03 X25.920367 Y150.358639 Z0.000000 I0.130178 J0.054498
G01 X31.820575 Y146.952679 Z0.000000
G03 X31.892190 Y146.930895 Z0.000000 I0.075407 J0.119290
G03 X31.964872 Y146.948800 Z0.000000 I0.003793 J0.141074
G03 X32.018173 Y147.001358 Z0.000000 I-0.068889 J0.123169
G03 X32.037097 Y147.073781 Z0.000000 I-0.122190 J0.070611
G03 X32.016319 Y147.145695 Z0.000000 I-0.141114 J-0.001812
G03 X31.961687 Y147.196866 Z0.000000 I-0.120336 J-0.073726
G01 X26.061478 Y150.603379 Z0.000000
G03 X26.029372 Y150.617474 Z0.000000 I-0.072344 J-0.121172
G03 X25.994781 Y150.623219 Z0.000000 I-0.040238 J-0.135267
G01 X25.994781 Y150.623222 Z0.000000
M63 P0

(End cutting path id: path7672)


(Start cutting path id: path7670)
(Change tool to Default tool)

M63 P0
G00 X6.494989 Y150.623222

M62 P0(Penetrate)
G03 X6.406005 Y150.596603 Z0.000000 I-0.006299 J-0.140985 F50.000000
G03 X6.352836 Y150.520447 Z0.000000 I0.082685 J-0.114366
G03 X6.358512 Y150.427740 Z0.000000 I0.135854 J-0.038209
G03 X6.420575 Y150.358639 Z0.000000 I0.130178 J0.054498
G01 X12.320784 Y146.952679 Z0.000000
G03 X12.392399 Y146.930895 Z0.000000 I0.075407 J0.119290
G03 X12.465081 Y146.948800 Z0.000000 I0.003793 J0.141074
G03 X12.518381 Y147.001358 Z0.000000 I-0.068889 J0.123169
G03 X12.537305 Y147.073781 Z0.000000 I-0.122190 J0.070611
G03 X12.516528 Y147.145695 Z0.000000 I-0.141114 J-0.001812
G03 X12.461895 Y147.196866 Z0.000000 I-0.120336 J-0.073726
G01 X6.561686 Y150.603379 Z0.000000
G03 X6.529580 Y150.617474 Z0.000000 I-0.072344 J-0.121172
G03 X6.494989 Y150.623219 Z0.000000 I-0.040238 J-0.135267
G01 X6.494989 Y150.623222 Z0.000000
M63 P0

(End cutting path id: path7670)


(Start cutting path id: path7668)
(Change tool to Default tool)

M63 P0
G00 X6.480658 Y92.122743

M62 P0(Penetrate)
G03 X6.398027 Y92.089404 Z0.000000 I0.008789 J-0.140851 F50.000000
G03 X6.351840 Y92.013206 Z0.000000 I0.091420 J-0.107512
G03 X6.360507 Y91.924525 Z0.000000 I0.137607 J-0.031314
G03 X6.420575 Y91.858713 Z0.000000 I0.128939 J0.057367
G01 X12.320784 Y88.452201 Z0.000000
G03 X12.427976 Y88.438155 Z0.000000 I0.070551 J0.122373
G03 X12.513705 Y88.504018 Z0.000000 I-0.036641 J0.136418
G03 X12.527754 Y88.611209 Z0.000000 I-0.122370 J0.070556
G03 X12.461895 Y88.696941 Z0.000000 I-0.136420 J-0.036636
G01 X6.561686 Y92.103451 Z0.000000
G03 X6.522629 Y92.119217 Z0.000000 I-0.071764 J-0.121517
G03 X6.480658 Y92.122755 Z0.000000 I-0.032706 J-0.137283
G01 X6.480658 Y92.122743 Z0.000000
M63 P0

(End cutting path id: path7668)


(Start cutting path id: path7666)
(Change tool to Default tool)

M63 P0
G00 X25.980450 Y92.122743

M62 P0(Penetrate)
G03 X25.897819 Y92.089404 Z0.000000 I0.008789 J-0.140851 F50.000000
G03 X25.851631 Y92.013206 Z0.000000 I0.091420 J-0.107512
G03 X25.860299 Y91.924525 Z0.000000 I0.137607 J-0.031314
G03 X25.920367 Y91.858713 Z0.000000 I0.128939 J0.057367
G01 X31.820575 Y88.452201 Z0.000000
G03 X31.927767 Y88.438155 Z0.000000 I0.070551 J0.122373
G03 X32.013497 Y88.504018 Z0.000000 I-0.036641 J0.136418
G03 X32.027546 Y88.611209 Z0.000000 I-0.122370 J0.070556
G03 X31.961687 Y88.696941 Z0.000000 I-0.136420 J-0.036636
G01 X26.061478 Y92.103451 Z0.000000
G03 X26.022421 Y92.119217 Z0.000000 I-0.071764 J-0.121517
G03 X25.980450 Y92.122755 Z0.000000 I-0.032706 J-0.137283
G01 X25.980450 Y92.122743 Z0.000000
M63 P0

(End cutting path id: path7666)


(Start cutting path id: path7664)
(Change tool to Default tool)

M63 P0
G00 X45.480792 Y92.122743

M62 P0(Penetrate)
G03 X45.398161 Y92.089403 Z0.000000 I0.008789 J-0.140851 F50.000000
G03 X45.351973 Y92.013206 Z0.000000 I0.091420 J-0.107511
G03 X45.360641 Y91.924525 Z0.000000 I0.137607 J-0.031314
G03 X45.420709 Y91.858713 Z0.000000 I0.128939 J0.057367
G01 X51.320367 Y88.452201 Z0.000000
G03 X51.427559 Y88.438155 Z0.000000 I0.070551 J0.122373
G03 X51.513288 Y88.504018 Z0.000000 I-0.036641 J0.136418
G03 X51.527338 Y88.611209 Z0.000000 I-0.122370 J0.070556
G03 X51.461478 Y88.696941 Z0.000000 I-0.136420 J-0.036636
G01 X45.561820 Y92.103451 Z0.000000
G03 X45.522763 Y92.119217 Z0.000000 I-0.071764 J-0.121517
G03 X45.480792 Y92.122755 Z0.000000 I-0.032706 J-0.137283
G01 X45.480792 Y92.122743 Z0.000000
M63 P0

(End cutting path id: path7664)


(Start cutting path id: path7662)
(Change tool to Default tool)

M63 P0
G00 X64.980583 Y92.122743

M62 P0(Penetrate)
G03 X64.897953 Y92.089403 Z0.000000 I0.008789 J-0.140851 F50.000000
G03 X64.851765 Y92.013206 Z0.000000 I0.091420 J-0.107511
G03 X64.860433 Y91.924525 Z0.000000 I0.137607 J-0.031314
G03 X64.920501 Y91.858713 Z0.000000 I0.128939 J0.057367
G01 X70.820709 Y88.452201 Z0.000000
G03 X70.927901 Y88.438155 Z0.000000 I0.070551 J0.122373
G03 X71.013630 Y88.504018 Z0.000000 I-0.036641 J0.136418
G03 X71.027680 Y88.611209 Z0.000000 I-0.122370 J0.070556
G03 X70.961821 Y88.696941 Z0.000000 I-0.136420 J-0.036636
G01 X65.061612 Y92.103451 Z0.000000
G03 X65.022554 Y92.119217 Z0.000000 I-0.071764 J-0.121517
G03 X64.980583 Y92.122755 Z0.000000 I-0.032706 J-0.137283
G01 X64.980583 Y92.122743 Z0.000000
M63 P0

(End cutting path id: path7662)


(Start cutting path id: path7660)
(Change tool to Default tool)

M63 P0
G00 X84.480375 Y92.122743

M62 P0(Penetrate)
G03 X84.397944 Y92.089183 Z0.000000 I0.009285 J-0.140819 F50.000000
G03 X84.351991 Y92.012963 Z0.000000 I0.091716 J-0.107259
G03 X84.360792 Y91.924399 Z0.000000 I0.137669 J-0.031039
G03 X84.420846 Y91.858713 Z0.000000 I0.128869 J0.057525
G01 X90.320501 Y88.452201 Z0.000000
G03 X90.427693 Y88.438155 Z0.000000 I0.070551 J0.122373
G03 X90.513422 Y88.504018 Z0.000000 I-0.036641 J0.136418
G03 X90.527472 Y88.611209 Z0.000000 I-0.122370 J0.070556
G03 X90.461612 Y88.696941 Z0.000000 I-0.136420 J-0.036636
G01 X84.561957 Y92.103451 Z0.000000
G03 X84.522633 Y92.119300 Z0.000000 I-0.071820 J-0.121483
G03 X84.480375 Y92.122755 Z0.000000 I-0.032496 J-0.137333
G01 X84.480375 Y92.122743 Z0.000000
M63 P0

(End cutting path id: path7660)


(Start cutting path id: path7658)
(Change tool to Default tool)

M63 P0
G00 X103.980720 Y92.122743

M62 P0(Penetrate)
G03 X103.898089 Y92.089403 Z0.000000 I0.008789 J-0.140851 F50.000000
G03 X103.851902 Y92.013206 Z0.000000 I0.091420 J-0.107511
G03 X103.860570 Y91.924525 Z0.000000 I0.137607 J-0.031314
G03 X103.920638 Y91.858713 Z0.000000 I0.128939 J0.057367
G01 X109.820846 Y88.452201 Z0.000000
G03 X109.928038 Y88.438155 Z0.000000 I0.070551 J0.122373
G03 X110.013767 Y88.504018 Z0.000000 I-0.036641 J0.136418
G03 X110.027817 Y88.611209 Z0.000000 I-0.122370 J0.070556
G03 X109.961957 Y88.696941 Z0.000000 I-0.136420 J-0.036636
G01 X104.061749 Y92.103451 Z0.000000
G03 X104.022691 Y92.119217 Z0.000000 I-0.071764 J-0.121517
G03 X103.980720 Y92.122755 Z0.000000 I-0.032706 J-0.137283
G01 X103.980720 Y92.122743 Z0.000000
M63 P0

(End cutting path id: path7658)


(Start cutting path id: path7656)
(Change tool to Default tool)

M63 P0
G00 X123.480512 Y92.122743

M62 P0(Penetrate)
G03 X123.397881 Y92.089403 Z0.000000 I0.008789 J-0.140851 F50.000000
G03 X123.351694 Y92.013206 Z0.000000 I0.091420 J-0.107511
G03 X123.360362 Y91.924525 Z0.000000 I0.137607 J-0.031314
G03 X123.420430 Y91.858713 Z0.000000 I0.128939 J0.057367
G01 X129.320638 Y88.452201 Z0.000000
G03 X129.427830 Y88.438155 Z0.000000 I0.070551 J0.122373
G03 X129.513559 Y88.504018 Z0.000000 I-0.036641 J0.136418
G03 X129.527609 Y88.611209 Z0.000000 I-0.122370 J0.070556
G03 X129.461749 Y88.696941 Z0.000000 I-0.136420 J-0.036636
G01 X123.561541 Y92.103451 Z0.000000
G03 X123.522483 Y92.119217 Z0.000000 I-0.071764 J-0.121517
G03 X123.480512 Y92.122755 Z0.000000 I-0.032706 J-0.137283
G01 X123.480512 Y92.122743 Z0.000000
M63 P0

(End cutting path id: path7656)


(Start cutting path id: path7654)
(Change tool to Default tool)

M63 P0
G00 X123.480512 Y111.623088

M62 P0(Penetrate)
G03 X123.397300 Y111.589966 Z0.000000 I0.007888 J-0.140905 F50.000000
G03 X123.350778 Y111.513435 Z0.000000 I0.091100 J-0.107783
G03 X123.359683 Y111.424317 Z0.000000 I0.137621 J-0.031251
G03 X123.420430 Y111.358505 Z0.000000 I0.128716 J0.057867
G01 X129.320638 Y107.952545 Z0.000000
G03 X129.392253 Y107.930761 Z0.000000 I0.075407 J0.119290
G03 X129.464935 Y107.948666 Z0.000000 I0.003793 J0.141074
G03 X129.518235 Y108.001224 Z0.000000 I-0.068889 J0.123169
G03 X129.537159 Y108.073647 Z0.000000 I-0.122190 J0.070611
G03 X129.516382 Y108.145561 Z0.000000 I-0.141114 J-0.001812
G03 X129.461749 Y108.196733 Z0.000000 I-0.120336 J-0.073726
G01 X123.561541 Y111.603242 Z0.000000
G03 X123.522526 Y111.619286 Z0.000000 I-0.072578 J-0.121032
G03 X123.480512 Y111.623083 Z0.000000 I-0.033564 J-0.137076
G01 X123.480512 Y111.623088 Z0.000000
M63 P0

(End cutting path id: path7654)


(Start cutting path id: path7652)
(Change tool to Default tool)

M63 P0
G00 X123.480512 Y131.122880

M62 P0(Penetrate)
G03 X123.397878 Y131.089541 Z0.000000 I0.008785 J-0.140852 F50.000000
G03 X123.351689 Y131.013342 Z0.000000 I0.091418 J-0.107513
G03 X123.360358 Y130.924659 Z0.000000 I0.137607 J-0.031313
G03 X123.420430 Y130.858847 Z0.000000 I0.128938 J0.057369
G01 X129.320638 Y127.452337 Z0.000000
G03 X129.391277 Y127.433448 Z0.000000 I0.070566 J0.122363
G03 X129.461897 Y127.452410 Z0.000000 I-0.000073 J0.141252
G03 X129.513573 Y127.504144 Z0.000000 I-0.070693 J0.122289
G03 X129.532456 Y127.574785 Z0.000000 I-0.122369 J0.070556
G03 X129.513487 Y127.645404 Z0.000000 I-0.141252 J-0.000086
G03 X129.461749 Y127.697075 Z0.000000 I-0.122283 J-0.070704
G01 X123.561541 Y131.103034 Z0.000000
G03 X123.522526 Y131.119078 Z0.000000 I-0.072578 J-0.121032
G03 X123.480512 Y131.122874 Z0.000000 I-0.033564 J-0.137076
G01 X123.480512 Y131.122880 Z0.000000
M63 P0

(End cutting path id: path7652)


(Start cutting path id: path7650)
(Change tool to Default tool)

M63 P0
G00 X123.494843 Y150.623222

M62 P0(Penetrate)
G03 X123.405859 Y150.596603 Z0.000000 I-0.006298 J-0.140985 F50.000000
G03 X123.352690 Y150.520446 Z0.000000 I0.082686 J-0.114365
G03 X123.358367 Y150.427740 Z0.000000 I0.135854 J-0.038209
G03 X123.420430 Y150.358639 Z0.000000 I0.130178 J0.054498
G01 X129.320638 Y146.952679 Z0.000000
G03 X129.392253 Y146.930895 Z0.000000 I0.075407 J0.119290
G03 X129.464935 Y146.948800 Z0.000000 I0.003793 J0.141074
G03 X129.518235 Y147.001358 Z0.000000 I-0.068889 J0.123169
G03 X129.537159 Y147.073781 Z0.000000 I-0.122190 J0.070611
G03 X129.516382 Y147.145695 Z0.000000 I-0.141114 J-0.001812
G03 X129.461749 Y147.196866 Z0.000000 I-0.120336 J-0.073726
G01 X123.561541 Y150.603379 Z0.000000
G03 X123.529434 Y150.617474 Z0.000000 I-0.072344 J-0.121172
G03 X123.494843 Y150.623219 Z0.000000 I-0.040237 J-0.135267
G01 X123.494843 Y150.623222 Z0.000000
M63 P0

(End cutting path id: path7650)


(Start cutting path id: path7648)
(Change tool to Default tool)

M63 P0
G00 X103.988986 Y118.436658

M62 P0(Penetrate)
G03 X103.890049 Y118.393964 Z0.000000 I0.002211 J-0.141108 F50.000000
G03 X103.850082 Y118.293893 Z0.000000 I0.101149 J-0.098414
G01 X103.850082 Y111.480874 Z0.000000
G03 X103.868315 Y111.409471 Z0.000000 I0.141111 J-0.001996
G03 X103.920055 Y111.356994 Z0.000000 I0.122878 J0.069407
G03 X103.991193 Y111.337753 Z0.000000 I0.071138 J0.121884
G03 X104.062331 Y111.356994 Z0.000000 I-0.000000 J0.141125
G03 X104.114071 Y111.409471 Z0.000000 I-0.071138 J0.121884
G03 X104.132304 Y111.480874 Z0.000000 I-0.122878 J0.069407
G01 X104.132304 Y118.293893 Z0.000000
G03 X104.121835 Y118.348916 Z0.000000 I-0.141115 J0.001657
G03 X104.090786 Y118.395533 Z0.000000 I-0.130646 J-0.053366
G03 X104.044050 Y118.426401 Z0.000000 I-0.099597 J-0.099983
G03 X103.988986 Y118.436658 Z0.000000 I-0.052861 J-0.130851
G01 X103.988986 Y118.436658 Z0.000000
M63 P0

(End cutting path id: path7648)


(Start cutting path id: path7646)
(Change tool to Default tool)

M63 P0
G00 X84.489195 Y118.436658

M62 P0(Penetrate)
G03 X84.390257 Y118.393964 Z0.000000 I0.002211 J-0.141108 F50.000000
G03 X84.350290 Y118.293893 Z0.000000 I0.101149 J-0.098414
G01 X84.350290 Y111.480874 Z0.000000
G03 X84.368524 Y111.409471 Z0.000000 I0.141111 J-0.001996
G03 X84.420264 Y111.356994 Z0.000000 I0.122878 J0.069407
G03 X84.491402 Y111.337753 Z0.000000 I0.071138 J0.121884
G03 X84.562539 Y111.356994 Z0.000000 I-0.000000 J0.141125
G03 X84.614279 Y111.409471 Z0.000000 I-0.071138 J0.121884
G03 X84.632513 Y111.480874 Z0.000000 I-0.122878 J0.069407
G01 X84.632513 Y118.293893 Z0.000000
G03 X84.622043 Y118.348916 Z0.000000 I-0.141115 J0.001657
G03 X84.590995 Y118.395533 Z0.000000 I-0.130646 J-0.053366
G03 X84.544258 Y118.426401 Z0.000000 I-0.099597 J-0.099983
G03 X84.489195 Y118.436658 Z0.000000 I-0.052861 J-0.130851
G01 X84.489195 Y118.436658 Z0.000000
M63 P0

(End cutting path id: path7646)


(Start cutting path id: path7644)
(Change tool to Default tool)

M63 P0
G00 X64.988852 Y118.436658

M62 P0(Penetrate)
G03 X64.889913 Y118.393965 Z0.000000 I0.002209 J-0.141108 F50.000000
G03 X64.849945 Y118.293893 Z0.000000 I0.101148 J-0.098415
G01 X64.849945 Y111.480874 Z0.000000
G03 X64.868179 Y111.409471 Z0.000000 I0.141111 J-0.001996
G03 X64.919919 Y111.356994 Z0.000000 I0.122878 J0.069407
G03 X64.991057 Y111.337753 Z0.000000 I0.071138 J0.121884
G03 X65.062195 Y111.356994 Z0.000000 I0.000000 J0.141125
G03 X65.113934 Y111.409471 Z0.000000 I-0.071138 J0.121884
G03 X65.132168 Y111.480874 Z0.000000 I-0.122878 J0.069407
G01 X65.132168 Y118.293893 Z0.000000
G03 X65.121698 Y118.348916 Z0.000000 I-0.141115 J0.001657
G03 X65.090651 Y118.395532 Z0.000000 I-0.130646 J-0.053366
G03 X65.043915 Y118.426400 Z0.000000 I-0.099598 J-0.099982
G03 X64.988852 Y118.436658 Z0.000000 I-0.052863 J-0.130851
G01 X64.988852 Y118.436658 Z0.000000
M63 P0

(End cutting path id: path7644)


(Start cutting path id: path7642)
(Change tool to Default tool)

M63 P0
G00 X45.489061 Y118.436658

M62 P0(Penetrate)
G03 X45.390121 Y118.393965 Z0.000000 I0.002209 J-0.141108 F50.000000
G03 X45.350154 Y118.293893 Z0.000000 I0.101148 J-0.098415
G01 X45.350154 Y111.480874 Z0.000000
G03 X45.368387 Y111.409471 Z0.000000 I0.141111 J-0.001996
G03 X45.420127 Y111.356994 Z0.000000 I0.122878 J0.069407
G03 X45.491265 Y111.337753 Z0.000000 I0.071138 J0.121884
G03 X45.562403 Y111.356994 Z0.000000 I-0.000000 J0.141125
G03 X45.614143 Y111.409471 Z0.000000 I-0.071138 J0.121884
G03 X45.632376 Y111.480874 Z0.000000 I-0.122878 J0.069407
G01 X45.632376 Y118.293893 Z0.000000
G03 X45.621907 Y118.348916 Z0.000000 I-0.141115 J0.001657
G03 X45.590859 Y118.395532 Z0.000000 I-0.130646 J-0.053366
G03 X45.544123 Y118.426400 Z0.000000 I-0.099598 J-0.099982
G03 X45.489061 Y118.436658 Z0.000000 I-0.052863 J-0.130851
G01 X45.489061 Y118.436658 Z0.000000
M63 P0

(End cutting path id: path7642)


(Start cutting path id: path7640)
(Change tool to Default tool)

M63 P0
G00 X25.989269 Y118.436658

M62 P0(Penetrate)
G03 X25.889974 Y118.394157 Z0.000000 I0.001658 J-0.141115 F50.000000
G03 X25.849812 Y118.293893 Z0.000000 I0.100953 J-0.098614
G01 X25.849812 Y111.480874 Z0.000000
G03 X25.868045 Y111.409471 Z0.000000 I0.141111 J-0.001996
G03 X25.919785 Y111.356994 Z0.000000 I0.122878 J0.069407
G03 X25.990923 Y111.337753 Z0.000000 I0.071138 J0.121884
G03 X26.062061 Y111.356994 Z0.000000 I0.000000 J0.141125
G03 X26.113801 Y111.409471 Z0.000000 I-0.071138 J0.121884
G03 X26.132034 Y111.480874 Z0.000000 I-0.122878 J0.069407
G01 X26.132034 Y118.293893 Z0.000000
G03 X26.121614 Y118.348786 Z0.000000 I-0.141116 J0.001649
G03 X26.090709 Y118.395333 Z0.000000 I-0.130696 J-0.053243
G03 X26.044162 Y118.426238 Z0.000000 I-0.099791 J-0.099791
G03 X25.989269 Y118.436658 Z0.000000 I-0.053244 J-0.130696
G01 X25.989269 Y118.436658 Z0.000000
M63 P0

(End cutting path id: path7640)


(Start cutting path id: path7638)
(Change tool to Default tool)

M63 P0
G00 X25.989269 Y118.436658

M62 P0(Penetrate)
G03 X25.889974 Y118.394157 Z0.000000 I0.001658 J-0.141115 F50.000000
G03 X25.849812 Y118.293893 Z0.000000 I0.100953 J-0.098614
G01 X25.849812 Y111.480874 Z0.000000
G03 X25.868045 Y111.409471 Z0.000000 I0.141111 J-0.001996
G03 X25.919785 Y111.356994 Z0.000000 I0.122878 J0.069407
G03 X25.990923 Y111.337753 Z0.000000 I0.071138 J0.121884
G03 X26.062061 Y111.356994 Z0.000000 I0.000000 J0.141125
G03 X26.113801 Y111.409471 Z0.000000 I-0.071138 J0.121884
G03 X26.132034 Y111.480874 Z0.000000 I-0.122878 J0.069407
G01 X26.132034 Y118.293893 Z0.000000
G03 X26.121614 Y118.348786 Z0.000000 I-0.141116 J0.001649
G03 X26.090709 Y118.395333 Z0.000000 I-0.130696 J-0.053243
G03 X26.044162 Y118.426238 Z0.000000 I-0.099791 J-0.099791
G03 X25.989269 Y118.436658 Z0.000000 I-0.053244 J-0.130696
G01 X25.989269 Y118.436658 Z0.000000
M63 P0

(End cutting path id: path7638)


(Start cutting path id: path7636)
(Change tool to Default tool)

M63 P0
G00 X6.488926 Y118.436658

M62 P0(Penetrate)
G03 X6.389987 Y118.393964 Z0.000000 I0.002209 J-0.141108 F50.000000
G03 X6.350020 Y118.293893 Z0.000000 I0.101148 J-0.098414
G01 X6.350020 Y111.480874 Z0.000000
G03 X6.368253 Y111.409471 Z0.000000 I0.141111 J-0.001996
G03 X6.419993 Y111.356994 Z0.000000 I0.122878 J0.069407
G03 X6.491131 Y111.337753 Z0.000000 I0.071138 J0.121884
G03 X6.562269 Y111.356994 Z0.000000 I-0.000000 J0.141125
G03 X6.614009 Y111.409471 Z0.000000 I-0.071138 J0.121884
G03 X6.632242 Y111.480874 Z0.000000 I-0.122878 J0.069407
G01 X6.632242 Y118.293893 Z0.000000
G03 X6.621773 Y118.348916 Z0.000000 I-0.141115 J0.001657
G03 X6.590725 Y118.395532 Z0.000000 I-0.130646 J-0.053366
G03 X6.543989 Y118.426401 Z0.000000 I-0.099598 J-0.099983
G03 X6.488926 Y118.436658 Z0.000000 I-0.052862 J-0.130851
G01 X6.488926 Y118.436658 Z0.000000
M63 P0

(End cutting path id: path7636)


(Start cutting path id: path7634)
(Change tool to Default tool)

M63 P0
G00 X103.988986 Y137.937003

M62 P0(Penetrate)
G03 X103.935153 Y137.925418 Z0.000000 I0.002204 J-0.141108 F50.000000
G03 X103.889851 Y137.894113 Z0.000000 I0.056037 J-0.129523
G03 X103.859978 Y137.847854 Z0.000000 I0.101339 J-0.098218
G03 X103.850082 Y137.793685 Z0.000000 I0.131212 J-0.051959
G01 X103.850082 Y130.981216 Z0.000000
G03 X103.868315 Y130.909813 Z0.000000 I0.141111 J-0.001996
G03 X103.920055 Y130.857336 Z0.000000 I0.122878 J0.069407
G03 X103.991193 Y130.838095 Z0.000000 I0.071138 J0.121884
G03 X104.062331 Y130.857336 Z0.000000 I0.000000 J0.141125
G03 X104.114071 Y130.909813 Z0.000000 I-0.071138 J0.121884
G03 X104.132304 Y130.981216 Z0.000000 I-0.122878 J0.069407
G01 X104.132304 Y137.793685 Z0.000000
G03 X104.121998 Y137.848879 Z0.000000 I-0.141108 J0.002210
G03 X104.090987 Y137.895686 Z0.000000 I-0.130802 J-0.052984
G03 X104.044180 Y137.926697 Z0.000000 I-0.099791 J-0.099791
G03 X103.988986 Y137.937003 Z0.000000 I-0.052984 J-0.130802
G01 X103.988986 Y137.937003 Z0.000000
M63 P0

(End cutting path id: path7634)


(Start cutting path id: path7632)
(Change tool to Default tool)

M63 P0
G00 X84.489195 Y137.937003

M62 P0(Penetrate)
G03 X84.435361 Y137.925418 Z0.000000 I0.002204 J-0.141108 F50.000000
G03 X84.390059 Y137.894113 Z0.000000 I0.056037 J-0.129523
G03 X84.360186 Y137.847854 Z0.000000 I0.101339 J-0.098218
G03 X84.350290 Y137.793685 Z0.000000 I0.131212 J-0.051959
G01 X84.350290 Y130.981216 Z0.000000
G03 X84.368524 Y130.909813 Z0.000000 I0.141111 J-0.001996
G03 X84.420264 Y130.857336 Z0.000000 I0.122878 J0.069407
G03 X84.491402 Y130.838095 Z0.000000 I0.071138 J0.121884
G03 X84.562539 Y130.857336 Z0.000000 I-0.000000 J0.141125
G03 X84.614279 Y130.909813 Z0.000000 I-0.071138 J0.121884
G03 X84.632513 Y130.981216 Z0.000000 I-0.122878 J0.069407
G01 X84.632513 Y137.793685 Z0.000000
G03 X84.622206 Y137.848879 Z0.000000 I-0.141108 J0.002210
G03 X84.591195 Y137.895686 Z0.000000 I-0.130802 J-0.052984
G03 X84.544388 Y137.926697 Z0.000000 I-0.099791 J-0.099791
G03 X84.489195 Y137.937003 Z0.000000 I-0.052984 J-0.130802
G01 X84.489195 Y137.937003 Z0.000000
M63 P0

(End cutting path id: path7632)


(Start cutting path id: path7630)
(Change tool to Default tool)

M63 P0
G00 X64.988852 Y137.937003

M62 P0(Penetrate)
G03 X64.935018 Y137.925419 Z0.000000 I0.002201 J-0.141108 F50.000000
G03 X64.889715 Y137.894114 Z0.000000 I0.056035 J-0.129524
G03 X64.859842 Y137.847855 Z0.000000 I0.101338 J-0.098219
G03 X64.849945 Y137.793685 Z0.000000 I0.131212 J-0.051960
G01 X64.849945 Y130.981216 Z0.000000
G03 X64.868179 Y130.909813 Z0.000000 I0.141111 J-0.001996
G03 X64.919919 Y130.857336 Z0.000000 I0.122878 J0.069407
G03 X64.991057 Y130.838095 Z0.000000 I0.071138 J0.121884
G03 X65.062195 Y130.857336 Z0.000000 I-0.000000 J0.141125
G03 X65.113934 Y130.909813 Z0.000000 I-0.071138 J0.121884
G03 X65.132168 Y130.981216 Z0.000000 I-0.122878 J0.069407
G01 X65.132168 Y137.793685 Z0.000000
G03 X65.121862 Y137.848878 Z0.000000 I-0.141108 J0.002210
G03 X65.090851 Y137.895685 Z0.000000 I-0.130802 J-0.052983
G03 X65.044045 Y137.926696 Z0.000000 I-0.099792 J-0.099790
G03 X64.988852 Y137.937003 Z0.000000 I-0.052986 J-0.130801
G01 X64.988852 Y137.937003 Z0.000000
M63 P0

(End cutting path id: path7630)


(Start cutting path id: path7628)
(Change tool to Default tool)

M63 P0
G00 X45.489061 Y137.937003

M62 P0(Penetrate)
G03 X45.435226 Y137.925419 Z0.000000 I0.002201 J-0.141108 F50.000000
G03 X45.389924 Y137.894114 Z0.000000 I0.056035 J-0.129524
G03 X45.360050 Y137.847855 Z0.000000 I0.101338 J-0.098219
G03 X45.350154 Y137.793685 Z0.000000 I0.131212 J-0.051960
G01 X45.350154 Y130.981216 Z0.000000
G03 X45.368387 Y130.909813 Z0.000000 I0.141111 J-0.001996
G03 X45.420127 Y130.857336 Z0.000000 I0.122878 J0.069407
G03 X45.491265 Y130.838095 Z0.000000 I0.071138 J0.121884
G03 X45.562403 Y130.857336 Z0.000000 I0.000000 J0.141125
G03 X45.614143 Y130.909813 Z0.000000 I-0.071138 J0.121884
G03 X45.632376 Y130.981216 Z0.000000 I-0.122878 J0.069407
G01 X45.632376 Y137.793685 Z0.000000
G03 X45.622070 Y137.848878 Z0.000000 I-0.141108 J0.002210
G03 X45.591060 Y137.895685 Z0.000000 I-0.130802 J-0.052983
G03 X45.544254 Y137.926696 Z0.000000 I-0.099792 J-0.099790
G03 X45.489061 Y137.937003 Z0.000000 I-0.052986 J-0.130801
G01 X45.489061 Y137.937003 Z0.000000
M63 P0

(End cutting path id: path7628)


(Start cutting path id: path7626)
(Change tool to Default tool)

M63 P0
G00 X25.989269 Y137.937003

M62 P0(Penetrate)
G03 X25.935265 Y137.925575 Z0.000000 I0.001650 J-0.141116 F50.000000
G03 X25.889776 Y137.894306 Z0.000000 I0.055654 J-0.129688
G03 X25.859761 Y137.847980 Z0.000000 I0.101144 J-0.098419
G03 X25.849812 Y137.793685 Z0.000000 I0.131159 J-0.052093
G01 X25.849812 Y130.981216 Z0.000000
G03 X25.868045 Y130.909813 Z0.000000 I0.141111 J-0.001996
G03 X25.919785 Y130.857336 Z0.000000 I0.122878 J0.069407
G03 X25.990923 Y130.838095 Z0.000000 I0.071138 J0.121884
G03 X26.062061 Y130.857336 Z0.000000 I-0.000000 J0.141125
G03 X26.113801 Y130.909813 Z0.000000 I-0.071138 J0.121884
G03 X26.132034 Y130.981216 Z0.000000 I-0.122878 J0.069407
G01 X26.132034 Y137.793685 Z0.000000
G03 X26.121777 Y137.848748 Z0.000000 I-0.141108 J0.002203
G03 X26.090909 Y137.895485 Z0.000000 I-0.130851 J-0.052861
G03 X26.044292 Y137.926533 Z0.000000 I-0.099983 J-0.099597
G03 X25.989269 Y137.937003 Z0.000000 I-0.053366 J-0.130646
G01 X25.989269 Y137.937003 Z0.000000
M63 P0

(End cutting path id: path7626)


(Start cutting path id: path7624)
(Change tool to Default tool)

M63 P0
G00 X6.488926 Y137.937003

M62 P0(Penetrate)
G03 X6.435092 Y137.925418 Z0.000000 I0.002202 J-0.141108 F50.000000
G03 X6.389790 Y137.894114 Z0.000000 I0.056036 J-0.129524
G03 X6.359916 Y137.847855 Z0.000000 I0.101338 J-0.098219
G03 X6.350020 Y137.793685 Z0.000000 I0.131212 J-0.051960
G01 X6.350020 Y130.981216 Z0.000000
G03 X6.368253 Y130.909813 Z0.000000 I0.141111 J-0.001996
G03 X6.419993 Y130.857336 Z0.000000 I0.122878 J0.069407
G03 X6.491131 Y130.838095 Z0.000000 I0.071138 J0.121884
G03 X6.562269 Y130.857336 Z0.000000 I-0.000000 J0.141125
G03 X6.614009 Y130.909813 Z0.000000 I-0.071138 J0.121884
G03 X6.632242 Y130.981216 Z0.000000 I-0.122878 J0.069407
G01 X6.632242 Y137.793685 Z0.000000
G03 X6.621936 Y137.848878 Z0.000000 I-0.141108 J0.002210
G03 X6.590925 Y137.895685 Z0.000000 I-0.130802 J-0.052983
G03 X6.544119 Y137.926696 Z0.000000 I-0.099791 J-0.099790
G03 X6.488926 Y137.937003 Z0.000000 I-0.052985 J-0.130801
G01 X6.488926 Y137.937003 Z0.000000
M63 P0

(End cutting path id: path7624)


(Start cutting path id: path7622)
(Change tool to Default tool)

M63 P0
G00 X103.988986 Y157.436795

M62 P0(Penetrate)
G03 X103.935153 Y157.425210 Z0.000000 I0.002204 J-0.141108 F50.000000
G03 X103.889851 Y157.393905 Z0.000000 I0.056037 J-0.129523
G03 X103.859978 Y157.347646 Z0.000000 I0.101339 J-0.098218
G03 X103.850082 Y157.293477 Z0.000000 I0.131212 J-0.051959
G01 X103.850082 Y150.481007 Z0.000000
G03 X103.868315 Y150.409605 Z0.000000 I0.141111 J-0.001996
G03 X103.920055 Y150.357128 Z0.000000 I0.122878 J0.069407
G03 X103.991193 Y150.337887 Z0.000000 I0.071138 J0.121884
G03 X104.062331 Y150.357128 Z0.000000 I0.000000 J0.141125
G03 X104.114071 Y150.409605 Z0.000000 I-0.071138 J0.121884
G03 X104.132304 Y150.481007 Z0.000000 I-0.122878 J0.069407
G01 X104.132304 Y157.293477 Z0.000000
G03 X104.121998 Y157.348670 Z0.000000 I-0.141108 J0.002210
G03 X104.090987 Y157.395477 Z0.000000 I-0.130802 J-0.052984
G03 X104.044180 Y157.426488 Z0.000000 I-0.099791 J-0.099791
G03 X103.988986 Y157.436795 Z0.000000 I-0.052984 J-0.130802
G01 X103.988986 Y157.436795 Z0.000000
M63 P0

(End cutting path id: path7622)


(Start cutting path id: path7620)
(Change tool to Default tool)

M63 P0
G00 X84.489195 Y157.436795

M62 P0(Penetrate)
G03 X84.435361 Y157.425210 Z0.000000 I0.002204 J-0.141108 F50.000000
G03 X84.390059 Y157.393905 Z0.000000 I0.056037 J-0.129523
G03 X84.360186 Y157.347646 Z0.000000 I0.101339 J-0.098218
G03 X84.350290 Y157.293477 Z0.000000 I0.131212 J-0.051959
G01 X84.350290 Y150.481007 Z0.000000
G03 X84.368524 Y150.409605 Z0.000000 I0.141111 J-0.001996
G03 X84.420264 Y150.357128 Z0.000000 I0.122878 J0.069407
G03 X84.491402 Y150.337887 Z0.000000 I0.071138 J0.121884
G03 X84.562539 Y150.357128 Z0.000000 I-0.000000 J0.141125
G03 X84.614279 Y150.409605 Z0.000000 I-0.071138 J0.121884
G03 X84.632513 Y150.481007 Z0.000000 I-0.122878 J0.069407
G01 X84.632513 Y157.293477 Z0.000000
G03 X84.622206 Y157.348670 Z0.000000 I-0.141108 J0.002210
G03 X84.591195 Y157.395477 Z0.000000 I-0.130802 J-0.052984
G03 X84.544388 Y157.426488 Z0.000000 I-0.099791 J-0.099791
G03 X84.489195 Y157.436795 Z0.000000 I-0.052984 J-0.130802
G01 X84.489195 Y157.436795 Z0.000000
M63 P0

(End cutting path id: path7620)


(Start cutting path id: path7618)
(Change tool to Default tool)

M63 P0
G00 X64.988852 Y157.436795

M62 P0(Penetrate)
G03 X64.935018 Y157.425210 Z0.000000 I0.002201 J-0.141108 F50.000000
G03 X64.889715 Y157.393906 Z0.000000 I0.056035 J-0.129524
G03 X64.859842 Y157.347647 Z0.000000 I0.101338 J-0.098219
G03 X64.849945 Y157.293477 Z0.000000 I0.131212 J-0.051960
G01 X64.849945 Y150.481007 Z0.000000
G03 X64.868179 Y150.409605 Z0.000000 I0.141111 J-0.001996
G03 X64.919919 Y150.357128 Z0.000000 I0.122878 J0.069407
G03 X64.991057 Y150.337887 Z0.000000 I0.071138 J0.121884
G03 X65.062195 Y150.357128 Z0.000000 I-0.000000 J0.141125
G03 X65.113934 Y150.409605 Z0.000000 I-0.071138 J0.121884
G03 X65.132168 Y150.481007 Z0.000000 I-0.122878 J0.069407
G01 X65.132168 Y157.293477 Z0.000000
G03 X65.121862 Y157.348670 Z0.000000 I-0.141108 J0.002210
G03 X65.090851 Y157.395476 Z0.000000 I-0.130802 J-0.052983
G03 X65.044045 Y157.426488 Z0.000000 I-0.099792 J-0.099790
G03 X64.988852 Y157.436795 Z0.000000 I-0.052986 J-0.130801
G01 X64.988852 Y157.436795 Z0.000000
M63 P0

(End cutting path id: path7618)


(Start cutting path id: path7616)
(Change tool to Default tool)

M63 P0
G00 X45.489061 Y157.436795

M62 P0(Penetrate)
G03 X45.435226 Y157.425210 Z0.000000 I0.002201 J-0.141108 F50.000000
G03 X45.389924 Y157.393906 Z0.000000 I0.056035 J-0.129524
G03 X45.360050 Y157.347647 Z0.000000 I0.101338 J-0.098219
G03 X45.350154 Y157.293477 Z0.000000 I0.131212 J-0.051960
G01 X45.350154 Y150.481007 Z0.000000
G03 X45.368387 Y150.409605 Z0.000000 I0.141111 J-0.001996
G03 X45.420127 Y150.357128 Z0.000000 I0.122878 J0.069407
G03 X45.491265 Y150.337887 Z0.000000 I0.071138 J0.121884
G03 X45.562403 Y150.357128 Z0.000000 I0.000000 J0.141125
G03 X45.614143 Y150.409605 Z0.000000 I-0.071138 J0.121884
G03 X45.632376 Y150.481007 Z0.000000 I-0.122878 J0.069407
G01 X45.632376 Y157.293477 Z0.000000
G03 X45.622070 Y157.348670 Z0.000000 I-0.141108 J0.002210
G03 X45.591060 Y157.395476 Z0.000000 I-0.130802 J-0.052983
G03 X45.544254 Y157.426488 Z0.000000 I-0.099792 J-0.099790
G03 X45.489061 Y157.436795 Z0.000000 I-0.052986 J-0.130801
G01 X45.489061 Y157.436795 Z0.000000
M63 P0

(End cutting path id: path7616)


(Start cutting path id: path7614)
(Change tool to Default tool)

M63 P0
G00 X25.989269 Y157.436795

M62 P0(Penetrate)
G03 X25.935265 Y157.425367 Z0.000000 I0.001650 J-0.141116 F50.000000
G03 X25.889776 Y157.394098 Z0.000000 I0.055654 J-0.129688
G03 X25.859761 Y157.347772 Z0.000000 I0.101144 J-0.098419
G03 X25.849812 Y157.293477 Z0.000000 I0.131159 J-0.052093
G01 X25.849812 Y150.481007 Z0.000000
G03 X25.868045 Y150.409605 Z0.000000 I0.141111 J-0.001996
G03 X25.919785 Y150.357128 Z0.000000 I0.122878 J0.069407
G03 X25.990923 Y150.337887 Z0.000000 I0.071138 J0.121884
G03 X26.062061 Y150.357128 Z0.000000 I-0.000000 J0.141125
G03 X26.113801 Y150.409605 Z0.000000 I-0.071138 J0.121884
G03 X26.132034 Y150.481007 Z0.000000 I-0.122878 J0.069407
G01 X26.132034 Y157.293477 Z0.000000
G03 X26.121777 Y157.348540 Z0.000000 I-0.141108 J0.002203
G03 X26.090909 Y157.395277 Z0.000000 I-0.130851 J-0.052861
G03 X26.044292 Y157.426325 Z0.000000 I-0.099983 J-0.099597
G03 X25.989269 Y157.436795 Z0.000000 I-0.053366 J-0.130646
G01 X25.989269 Y157.436795 Z0.000000
M63 P0

(End cutting path id: path7614)


(Start cutting path id: path7612)
(Change tool to Default tool)

M63 P0
G00 X6.488926 Y157.436795

M62 P0(Penetrate)
G03 X6.435092 Y157.425210 Z0.000000 I0.002202 J-0.141108 F50.000000
G03 X6.389790 Y157.393905 Z0.000000 I0.056036 J-0.129524
G03 X6.359916 Y157.347646 Z0.000000 I0.101338 J-0.098219
G03 X6.350020 Y157.293477 Z0.000000 I0.131212 J-0.051960
G01 X6.350020 Y150.481007 Z0.000000
G03 X6.368253 Y150.409605 Z0.000000 I0.141111 J-0.001996
G03 X6.419993 Y150.357128 Z0.000000 I0.122878 J0.069407
G03 X6.491131 Y150.337887 Z0.000000 I0.071138 J0.121884
G03 X6.562269 Y150.357128 Z0.000000 I0.000000 J0.141125
G03 X6.614009 Y150.409605 Z0.000000 I-0.071138 J0.121884
G03 X6.632242 Y150.481007 Z0.000000 I-0.122878 J0.069407
G01 X6.632242 Y157.293477 Z0.000000
G03 X6.621936 Y157.348670 Z0.000000 I-0.141108 J0.002210
G03 X6.590925 Y157.395477 Z0.000000 I-0.130802 J-0.052983
G03 X6.544119 Y157.426488 Z0.000000 I-0.099791 J-0.099790
G03 X6.488926 Y157.436795 Z0.000000 I-0.052985 J-0.130801
G01 X6.488926 Y157.436795 Z0.000000
M63 P0

(End cutting path id: path7612)


(Start cutting path id: path7610)
(Change tool to Default tool)

M63 P0
G00 X6.488926 Y98.936866

M62 P0(Penetrate)
G03 X6.435093 Y98.925282 Z0.000000 I0.002202 J-0.141108 F50.000000
G03 X6.389791 Y98.893978 Z0.000000 I0.056035 J-0.129524
G03 X6.359917 Y98.847720 Z0.000000 I0.101337 J-0.098220
G03 X6.350020 Y98.793551 Z0.000000 I0.131211 J-0.051962
G01 X6.350020 Y91.981082 Z0.000000
G03 X6.368253 Y91.909679 Z0.000000 I0.141111 J-0.001996
G03 X6.419993 Y91.857202 Z0.000000 I0.122878 J0.069407
G03 X6.491131 Y91.837961 Z0.000000 I0.071138 J0.121884
G03 X6.562269 Y91.857202 Z0.000000 I0.000000 J0.141125
G03 X6.614009 Y91.909679 Z0.000000 I-0.071138 J0.121884
G03 X6.632242 Y91.981082 Z0.000000 I-0.122878 J0.069407
G01 X6.632242 Y98.793551 Z0.000000
G03 X6.621935 Y98.848743 Z0.000000 I-0.141108 J0.002207
G03 X6.590924 Y98.895549 Z0.000000 I-0.130801 J-0.052985
G03 X6.544119 Y98.926559 Z0.000000 I-0.099790 J-0.099791
G03 X6.488926 Y98.936866 Z0.000000 I-0.052985 J-0.130801
G01 X6.488926 Y98.936866 Z0.000000
M63 P0

(End cutting path id: path7610)


(Start cutting path id: path7608)
(Change tool to Default tool)

M63 P0
G00 X25.989269 Y98.936866

M62 P0(Penetrate)
G03 X25.935266 Y98.925439 Z0.000000 I0.001651 J-0.141116 F50.000000
G03 X25.889777 Y98.894171 Z0.000000 I0.055654 J-0.129688
G03 X25.859762 Y98.847846 Z0.000000 I0.101143 J-0.098420
G03 X25.849812 Y98.793551 Z0.000000 I0.131158 J-0.052095
G01 X25.849812 Y91.981082 Z0.000000
G03 X25.868045 Y91.909679 Z0.000000 I0.141111 J-0.001996
G03 X25.919785 Y91.857202 Z0.000000 I0.122878 J0.069407
G03 X25.990923 Y91.837961 Z0.000000 I0.071138 J0.121884
G03 X26.062061 Y91.857202 Z0.000000 I-0.000000 J0.141125
G03 X26.113801 Y91.909679 Z0.000000 I-0.071138 J0.121884
G03 X26.132034 Y91.981082 Z0.000000 I-0.122878 J0.069407
G01 X26.132034 Y98.793551 Z0.000000
G03 X26.121776 Y98.848613 Z0.000000 I-0.141108 J0.002200
G03 X26.090908 Y98.895349 Z0.000000 I-0.130851 J-0.052863
G03 X26.044292 Y98.926397 Z0.000000 I-0.099982 J-0.099598
G03 X25.989269 Y98.936866 Z0.000000 I-0.053366 J-0.130646
G01 X25.989269 Y98.936866 Z0.000000
M63 P0

(End cutting path id: path7608)


(Start cutting path id: path7606)
(Change tool to Default tool)

M63 P0
G00 X45.489061 Y98.936866

M62 P0(Penetrate)
G03 X45.435227 Y98.925282 Z0.000000 I0.002201 J-0.141108 F50.000000
G03 X45.389925 Y98.893978 Z0.000000 I0.056035 J-0.129524
G03 X45.360051 Y98.847720 Z0.000000 I0.101337 J-0.098220
G03 X45.350154 Y98.793551 Z0.000000 I0.131211 J-0.051962
G01 X45.350154 Y91.981082 Z0.000000
G03 X45.368387 Y91.909679 Z0.000000 I0.141111 J-0.001996
G03 X45.420127 Y91.857202 Z0.000000 I0.122878 J0.069407
G03 X45.491265 Y91.837961 Z0.000000 I0.071138 J0.121884
G03 X45.562403 Y91.857202 Z0.000000 I0.000000 J0.141125
G03 X45.614143 Y91.909679 Z0.000000 I-0.071138 J0.121884
G03 X45.632376 Y91.981082 Z0.000000 I-0.122878 J0.069407
G01 X45.632376 Y98.793551 Z0.000000
G03 X45.622069 Y98.848743 Z0.000000 I-0.141108 J0.002207
G03 X45.591059 Y98.895549 Z0.000000 I-0.130801 J-0.052985
G03 X45.544253 Y98.926559 Z0.000000 I-0.099791 J-0.099791
G03 X45.489061 Y98.936866 Z0.000000 I-0.052985 J-0.130801
G01 X45.489061 Y98.936866 Z0.000000
M63 P0

(End cutting path id: path7606)


(Start cutting path id: path7604)
(Change tool to Default tool)

M63 P0
G00 X64.988852 Y98.936866

M62 P0(Penetrate)
G03 X64.935019 Y98.925282 Z0.000000 I0.002201 J-0.141108 F50.000000
G03 X64.889716 Y98.893978 Z0.000000 I0.056035 J-0.129524
G03 X64.859843 Y98.847720 Z0.000000 I0.101337 J-0.098220
G03 X64.849945 Y98.793551 Z0.000000 I0.131211 J-0.051962
G01 X64.849945 Y91.981082 Z0.000000
G03 X64.868179 Y91.909679 Z0.000000 I0.141111 J-0.001996
G03 X64.919919 Y91.857202 Z0.000000 I0.122878 J0.069407
G03 X64.991057 Y91.837961 Z0.000000 I0.071138 J0.121884
G03 X65.062195 Y91.857202 Z0.000000 I-0.000000 J0.141125
G03 X65.113934 Y91.909679 Z0.000000 I-0.071138 J0.121884
G03 X65.132168 Y91.981082 Z0.000000 I-0.122878 J0.069407
G01 X65.132168 Y98.793551 Z0.000000
G03 X65.121861 Y98.848743 Z0.000000 I-0.141108 J0.002207
G03 X65.090850 Y98.895549 Z0.000000 I-0.130801 J-0.052985
G03 X65.044045 Y98.926559 Z0.000000 I-0.099791 J-0.099791
G03 X64.988852 Y98.936866 Z0.000000 I-0.052985 J-0.130801
G01 X64.988852 Y98.936866 Z0.000000
M63 P0

(End cutting path id: path7604)


(Start cutting path id: path7602)
(Change tool to Default tool)

M63 P0
G00 X84.489195 Y98.936866

M62 P0(Penetrate)
G03 X84.435362 Y98.925281 Z0.000000 I0.002204 J-0.141108 F50.000000
G03 X84.390060 Y98.893977 Z0.000000 I0.056037 J-0.129523
G03 X84.360187 Y98.847719 Z0.000000 I0.101338 J-0.098219
G03 X84.350290 Y98.793551 Z0.000000 I0.131211 J-0.051961
G01 X84.350290 Y91.981082 Z0.000000
G03 X84.368524 Y91.909679 Z0.000000 I0.141111 J-0.001996
G03 X84.420264 Y91.857202 Z0.000000 I0.122878 J0.069407
G03 X84.491402 Y91.837961 Z0.000000 I0.071138 J0.121884
G03 X84.562539 Y91.857202 Z0.000000 I-0.000000 J0.141125
G03 X84.614279 Y91.909679 Z0.000000 I-0.071138 J0.121884
G03 X84.632513 Y91.981082 Z0.000000 I-0.122878 J0.069407
G01 X84.632513 Y98.793551 Z0.000000
G03 X84.622205 Y98.848744 Z0.000000 I-0.141108 J0.002207
G03 X84.591194 Y98.895550 Z0.000000 I-0.130801 J-0.052986
G03 X84.544388 Y98.926560 Z0.000000 I-0.099790 J-0.099792
G03 X84.489195 Y98.936866 Z0.000000 I-0.052983 J-0.130802
G01 X84.489195 Y98.936866 Z0.000000
M63 P0

(End cutting path id: path7602)


(Start cutting path id: path7600)
(Change tool to Default tool)

M63 P0
G00 X103.988986 Y98.936866

M62 P0(Penetrate)
G03 X103.935154 Y98.925281 Z0.000000 I0.002204 J-0.141108 F50.000000
G03 X103.889852 Y98.893977 Z0.000000 I0.056037 J-0.129523
G03 X103.859979 Y98.847719 Z0.000000 I0.101338 J-0.098219
G03 X103.850082 Y98.793551 Z0.000000 I0.131211 J-0.051961
G01 X103.850082 Y91.981082 Z0.000000
G03 X103.868315 Y91.909679 Z0.000000 I0.141111 J-0.001996
G03 X103.920055 Y91.857202 Z0.000000 I0.122878 J0.069407
G03 X103.991193 Y91.837961 Z0.000000 I0.071138 J0.121884
G03 X104.062331 Y91.857202 Z0.000000 I0.000000 J0.141125
G03 X104.114071 Y91.909679 Z0.000000 I-0.071138 J0.121884
G03 X104.132304 Y91.981082 Z0.000000 I-0.122878 J0.069407
G01 X104.132304 Y98.793551 Z0.000000
G03 X104.121997 Y98.848744 Z0.000000 I-0.141108 J0.002207
G03 X104.090986 Y98.895550 Z0.000000 I-0.130801 J-0.052986
G03 X104.044179 Y98.926560 Z0.000000 I-0.099790 J-0.099792
G03 X103.988986 Y98.936866 Z0.000000 I-0.052983 J-0.130802
G01 X103.988986 Y98.936866 Z0.000000
M63 P0

(End cutting path id: path7600)


(Start cutting path id: path7598)
(Change tool to Default tool)

M63 P0
G00 X123.488778 Y98.936866

M62 P0(Penetrate)
G03 X123.434945 Y98.925281 Z0.000000 I0.002204 J-0.141108 F50.000000
G03 X123.389644 Y98.893977 Z0.000000 I0.056037 J-0.129523
G03 X123.359771 Y98.847719 Z0.000000 I0.101338 J-0.098219
G03 X123.349874 Y98.793551 Z0.000000 I0.131211 J-0.051961
G01 X123.349874 Y91.981082 Z0.000000
G03 X123.368107 Y91.909679 Z0.000000 I0.141111 J-0.001996
G03 X123.419847 Y91.857202 Z0.000000 I0.122878 J0.069407
G03 X123.490985 Y91.837961 Z0.000000 I0.071138 J0.121884
G03 X123.562123 Y91.857202 Z0.000000 I-0.000000 J0.141125
G03 X123.613863 Y91.909679 Z0.000000 I-0.071138 J0.121884
G03 X123.632096 Y91.981082 Z0.000000 I-0.122878 J0.069407
G01 X123.632096 Y98.793551 Z0.000000
G03 X123.621789 Y98.848744 Z0.000000 I-0.141108 J0.002207
G03 X123.590778 Y98.895550 Z0.000000 I-0.130801 J-0.052986
G03 X123.543971 Y98.926560 Z0.000000 I-0.099790 J-0.099792
G03 X123.488778 Y98.936866 Z0.000000 I-0.052983 J-0.130802
G01 X123.488778 Y98.936866 Z0.000000
M63 P0

(End cutting path id: path7598)


(Start cutting path id: path7596)
(Change tool to Default tool)

M63 P0
G00 X123.488778 Y118.436658

M62 P0(Penetrate)
G03 X123.389841 Y118.393964 Z0.000000 I0.002211 J-0.141108 F50.000000
G03 X123.349874 Y118.293893 Z0.000000 I0.101149 J-0.098414
G01 X123.349874 Y111.480874 Z0.000000
G03 X123.368107 Y111.409471 Z0.000000 I0.141111 J-0.001996
G03 X123.419847 Y111.356994 Z0.000000 I0.122878 J0.069407
G03 X123.490985 Y111.337753 Z0.000000 I0.071138 J0.121884
G03 X123.562123 Y111.356994 Z0.000000 I0.000000 J0.141125
G03 X123.613863 Y111.409471 Z0.000000 I-0.071138 J0.121884
G03 X123.632096 Y111.480874 Z0.000000 I-0.122878 J0.069407
G01 X123.632096 Y118.293893 Z0.000000
G03 X123.621627 Y118.348916 Z0.000000 I-0.141115 J0.001657
G03 X123.590578 Y118.395533 Z0.000000 I-0.130646 J-0.053366
G03 X123.543841 Y118.426401 Z0.000000 I-0.099597 J-0.099983
G03 X123.488778 Y118.436658 Z0.000000 I-0.052861 J-0.130851
G01 X123.488778 Y118.436658 Z0.000000
M63 P0

(End cutting path id: path7596)


(Start cutting path id: path7594)
(Change tool to Default tool)

M63 P0
G00 X123.488778 Y137.937003

M62 P0(Penetrate)
G03 X123.434945 Y137.925418 Z0.000000 I0.002204 J-0.141108 F50.000000
G03 X123.389643 Y137.894113 Z0.000000 I0.056037 J-0.129523
G03 X123.359770 Y137.847854 Z0.000000 I0.101339 J-0.098218
G03 X123.349874 Y137.793685 Z0.000000 I0.131212 J-0.051959
G01 X123.349874 Y130.981216 Z0.000000
G03 X123.368107 Y130.909813 Z0.000000 I0.141111 J-0.001996
G03 X123.419847 Y130.857336 Z0.000000 I0.122878 J0.069407
G03 X123.490985 Y130.838095 Z0.000000 I0.071138 J0.121884
G03 X123.562123 Y130.857336 Z0.000000 I0.000000 J0.141125
G03 X123.613863 Y130.909813 Z0.000000 I-0.071138 J0.121884
G03 X123.632096 Y130.981216 Z0.000000 I-0.122878 J0.069407
G01 X123.632096 Y137.793685 Z0.000000
G03 X123.621790 Y137.848879 Z0.000000 I-0.141108 J0.002210
G03 X123.590779 Y137.895686 Z0.000000 I-0.130802 J-0.052984
G03 X123.543972 Y137.926697 Z0.000000 I-0.099791 J-0.099791
G03 X123.488778 Y137.937003 Z0.000000 I-0.052984 J-0.130802
G01 X123.488778 Y137.937003 Z0.000000
M63 P0

(End cutting path id: path7594)


(Start cutting path id: path7592)
(Change tool to Default tool)

M63 P0
G00 X123.488778 Y157.436795

M62 P0(Penetrate)
G03 X123.434945 Y157.425210 Z0.000000 I0.002204 J-0.141108 F50.000000
G03 X123.389643 Y157.393905 Z0.000000 I0.056037 J-0.129523
G03 X123.359770 Y157.347646 Z0.000000 I0.101339 J-0.098218
G03 X123.349874 Y157.293477 Z0.000000 I0.131212 J-0.051959
G01 X123.349874 Y150.481007 Z0.000000
G03 X123.368107 Y150.409605 Z0.000000 I0.141111 J-0.001996
G03 X123.419847 Y150.357128 Z0.000000 I0.122878 J0.069407
G03 X123.490985 Y150.337887 Z0.000000 I0.071138 J0.121884
G03 X123.562123 Y150.357128 Z0.000000 I0.000000 J0.141125
G03 X123.613863 Y150.409605 Z0.000000 I-0.071138 J0.121884
G03 X123.632096 Y150.481007 Z0.000000 I-0.122878 J0.069407
G01 X123.632096 Y157.293477 Z0.000000
G03 X123.621790 Y157.348670 Z0.000000 I-0.141108 J0.002210
G03 X123.590779 Y157.395477 Z0.000000 I-0.130802 J-0.052984
G03 X123.543972 Y157.426488 Z0.000000 I-0.099791 J-0.099791
G03 X123.488778 Y157.436795 Z0.000000 I-0.052984 J-0.130802
G01 X123.488778 Y157.436795 Z0.000000
M63 P0

(End cutting path id: path7592)


(Start cutting path id: path7590)
(Change tool to Default tool)

M63 P0
G00 X109.883133 Y121.842067

M62 P0(Penetrate)
G03 X109.850825 Y121.835803 Z0.000000 I0.010525 J-0.140732 F50.000000
G03 X109.820846 Y121.822227 Z0.000000 I0.042832 J-0.134468
G01 X103.920638 Y118.415717 Z0.000000
G03 X103.866021 Y118.364543 Z0.000000 I0.065730 J-0.124883
G03 X103.845254 Y118.292636 Z0.000000 I0.120347 J-0.073709
G03 X103.864178 Y118.220223 Z0.000000 I0.141114 J-0.001803
G03 X103.917469 Y118.167670 Z0.000000 I0.122190 J0.070611
G03 X103.990139 Y118.149759 Z0.000000 I0.068899 J0.123164
G03 X104.061749 Y118.171527 Z0.000000 I-0.003771 J0.141075
G01 X109.961957 Y121.578037 Z0.000000
G03 X110.023987 Y121.648163 Z0.000000 I-0.068707 J0.123271
G03 X110.028478 Y121.741679 Z0.000000 I-0.130736 J0.053145
G03 X109.973455 Y121.817427 Z0.000000 I-0.135228 J-0.040371
G03 X109.883133 Y121.842070 Z0.000000 I-0.080204 J-0.116119
G01 X109.883133 Y121.842067 Z0.000000
M63 P0

(End cutting path id: path7590)


(Start cutting path id: path7588)
(Change tool to Default tool)

M63 P0
G00 X90.383341 Y121.842067

M62 P0(Penetrate)
G03 X90.350747 Y121.835866 Z0.000000 I0.009896 J-0.140778 F50.000000
G03 X90.320501 Y121.822227 Z0.000000 I0.042490 J-0.134577
G01 X84.420846 Y118.415717 Z0.000000
G03 X84.366230 Y118.364543 Z0.000000 I0.065730 J-0.124883
G03 X84.345463 Y118.292636 Z0.000000 I0.120347 J-0.073709
G03 X84.364386 Y118.220223 Z0.000000 I0.141114 J-0.001803
G03 X84.417677 Y118.167670 Z0.000000 I0.122190 J0.070611
G03 X84.490348 Y118.149759 Z0.000000 I0.068899 J0.123164
G03 X84.561957 Y118.171527 Z0.000000 I-0.003771 J0.141075
G01 X90.461612 Y121.578037 Z0.000000
G03 X90.523529 Y121.648035 Z0.000000 I-0.068786 J0.123227
G03 X90.528132 Y121.741374 Z0.000000 I-0.130702 J0.053229
G03 X90.473403 Y121.817125 Z0.000000 I-0.135305 J-0.040111
G03 X90.383341 Y121.842070 Z0.000000 I-0.080576 J-0.115861
G01 X90.383341 Y121.842067 Z0.000000
M63 P0

(End cutting path id: path7588)


(Start cutting path id: path7586)
(Change tool to Default tool)

M63 P0
G00 X70.883549 Y121.842067

M62 P0(Penetrate)
G03 X70.850955 Y121.835866 Z0.000000 I0.009896 J-0.140778 F50.000000
G03 X70.820709 Y121.822227 Z0.000000 I0.042490 J-0.134577
G01 X64.920501 Y118.415717 Z0.000000
G03 X64.865885 Y118.364543 Z0.000000 I0.065730 J-0.124883
G03 X64.845118 Y118.292636 Z0.000000 I0.120347 J-0.073709
G03 X64.864041 Y118.220223 Z0.000000 I0.141114 J-0.001803
G03 X64.917332 Y118.167670 Z0.000000 I0.122190 J0.070611
G03 X64.990003 Y118.149759 Z0.000000 I0.068899 J0.123164
G03 X65.061612 Y118.171527 Z0.000000 I-0.003771 J0.141075
G01 X70.961821 Y121.578037 Z0.000000
G03 X71.023737 Y121.648035 Z0.000000 I-0.068786 J0.123227
G03 X71.028340 Y121.741374 Z0.000000 I-0.130702 J0.053229
G03 X70.973611 Y121.817125 Z0.000000 I-0.135305 J-0.040111
G03 X70.883549 Y121.842070 Z0.000000 I-0.080576 J-0.115861
G01 X70.883549 Y121.842067 Z0.000000
M63 P0

(End cutting path id: path7586)


(Start cutting path id: path7584)
(Change tool to Default tool)

M63 P0
G00 X51.383207 Y121.842067

M62 P0(Penetrate)
G03 X51.350613 Y121.835866 Z0.000000 I0.009896 J-0.140778 F50.000000
G03 X51.320367 Y121.822227 Z0.000000 I0.042490 J-0.134577
G01 X45.420709 Y118.415717 Z0.000000
G03 X45.366093 Y118.364543 Z0.000000 I0.065730 J-0.124883
G03 X45.345326 Y118.292636 Z0.000000 I0.120347 J-0.073709
G03 X45.364249 Y118.220223 Z0.000000 I0.141114 J-0.001803
G03 X45.417541 Y118.167670 Z0.000000 I0.122190 J0.070611
G03 X45.490211 Y118.149759 Z0.000000 I0.068899 J0.123164
G03 X45.561820 Y118.171527 Z0.000000 I-0.003771 J0.141075
G01 X51.461478 Y121.578037 Z0.000000
G03 X51.523395 Y121.648035 Z0.000000 I-0.068786 J0.123227
G03 X51.527998 Y121.741374 Z0.000000 I-0.130702 J0.053229
G03 X51.473269 Y121.817125 Z0.000000 I-0.135305 J-0.040111
G03 X51.383207 Y121.842070 Z0.000000 I-0.080576 J-0.115861
G01 X51.383207 Y121.842067 Z0.000000
M63 P0

(End cutting path id: path7584)


(Start cutting path id: path7582)
(Change tool to Default tool)

M63 P0
G00 X31.883415 Y121.842067

M62 P0(Penetrate)
G03 X31.850821 Y121.835866 Z0.000000 I0.009896 J-0.140778 F50.000000
G03 X31.820575 Y121.822227 Z0.000000 I0.042490 J-0.134577
G01 X25.920367 Y118.415717 Z0.000000
G03 X25.865751 Y118.364543 Z0.000000 I0.065730 J-0.124883
G03 X25.844984 Y118.292636 Z0.000000 I0.120347 J-0.073709
G03 X25.863907 Y118.220223 Z0.000000 I0.141114 J-0.001803
G03 X25.917198 Y118.167670 Z0.000000 I0.122190 J0.070611
G03 X25.989869 Y118.149759 Z0.000000 I0.068899 J0.123164
G03 X26.061478 Y118.171527 Z0.000000 I-0.003771 J0.141075
G01 X31.961687 Y121.578034 Z0.000000
G03 X32.023603 Y121.648032 Z0.000000 I-0.068786 J0.123227
G03 X32.028206 Y121.741372 Z0.000000 I-0.130702 J0.053229
G03 X31.973477 Y121.817122 Z0.000000 I-0.135305 J-0.040111
G03 X31.883415 Y121.842067 Z0.000000 I-0.080576 J-0.115861
G01 X31.883415 Y121.842067 Z0.000000
M63 P0

(End cutting path id: path7582)


(Start cutting path id: path7580)
(Change tool to Default tool)

M63 P0
G00 X31.883415 Y121.842067

M62 P0(Penetrate)
G03 X31.850821 Y121.835866 Z0.000000 I0.009896 J-0.140778 F50.000000
G03 X31.820575 Y121.822227 Z0.000000 I0.042490 J-0.134577
G01 X25.920367 Y118.415717 Z0.000000
G03 X25.865751 Y118.364543 Z0.000000 I0.065730 J-0.124883
G03 X25.844984 Y118.292636 Z0.000000 I0.120347 J-0.073709
G03 X25.863907 Y118.220223 Z0.000000 I0.141114 J-0.001803
G03 X25.917198 Y118.167670 Z0.000000 I0.122190 J0.070611
G03 X25.989869 Y118.149759 Z0.000000 I0.068899 J0.123164
G03 X26.061478 Y118.171527 Z0.000000 I-0.003771 J0.141075
G01 X31.961687 Y121.578034 Z0.000000
G03 X32.023603 Y121.648032 Z0.000000 I-0.068786 J0.123227
G03 X32.028206 Y121.741372 Z0.000000 I-0.130702 J0.053229
G03 X31.973477 Y121.817122 Z0.000000 I-0.135305 J-0.040111
G03 X31.883415 Y121.842067 Z0.000000 I-0.080576 J-0.115861
G01 X31.883415 Y121.842067 Z0.000000
M63 P0

(End cutting path id: path7580)


(Start cutting path id: path7578)
(Change tool to Default tool)

M63 P0
G00 X12.383071 Y121.842067

M62 P0(Penetrate)
G03 X12.350763 Y121.835803 Z0.000000 I0.010524 J-0.140732 F50.000000
G03 X12.320784 Y121.822227 Z0.000000 I0.042832 J-0.134468
G01 X6.420575 Y118.415714 Z0.000000
G03 X6.365959 Y118.364540 Z0.000000 I0.065730 J-0.124883
G03 X6.345192 Y118.292634 Z0.000000 I0.120347 J-0.073709
G03 X6.364115 Y118.220220 Z0.000000 I0.141114 J-0.001803
G03 X6.417407 Y118.167667 Z0.000000 I0.122190 J0.070611
G03 X6.490077 Y118.149756 Z0.000000 I0.068899 J0.123164
G03 X6.561686 Y118.171524 Z0.000000 I-0.003771 J0.141075
G01 X12.461895 Y121.578034 Z0.000000
G03 X12.523924 Y121.648160 Z0.000000 I-0.068707 J0.123271
G03 X12.528416 Y121.741676 Z0.000000 I-0.130736 J0.053145
G03 X12.473393 Y121.817424 Z0.000000 I-0.135228 J-0.040371
G03 X12.383071 Y121.842067 Z0.000000 I-0.080205 J-0.116119
G01 X12.383071 Y121.842067 Z0.000000
M63 P0

(End cutting path id: path7578)


(Start cutting path id: path7576)
(Change tool to Default tool)

M63 P0
G00 X109.883133 Y141.341859

M62 P0(Penetrate)
G03 X109.850825 Y141.335595 Z0.000000 I0.010525 J-0.140732 F50.000000
G03 X109.820846 Y141.322019 Z0.000000 I0.042832 J-0.134468
G01 X103.920638 Y137.916059 Z0.000000
G03 X103.868902 Y137.864387 Z0.000000 I0.070551 J-0.122373
G03 X103.849935 Y137.793770 Z0.000000 I0.122286 J-0.070701
G03 X103.868818 Y137.723131 Z0.000000 I0.141253 J-0.000084
G03 X103.920492 Y137.671397 Z0.000000 I0.122370 J0.070556
G03 X103.991110 Y137.652433 Z0.000000 I0.070696 J0.122289
G03 X104.061749 Y137.671319 Z0.000000 I0.000079 J0.141253
G01 X109.961957 Y141.077829 Z0.000000
G03 X110.023987 Y141.147955 Z0.000000 I-0.068707 J0.123271
G03 X110.028478 Y141.241471 Z0.000000 I-0.130736 J0.053145
G03 X109.973455 Y141.317219 Z0.000000 I-0.135228 J-0.040371
G03 X109.883133 Y141.341862 Z0.000000 I-0.080204 J-0.116119
G01 X109.883133 Y141.341859 Z0.000000
M63 P0

(End cutting path id: path7576)


(Start cutting path id: path7574)
(Change tool to Default tool)

M63 P0
G00 X90.383341 Y141.341859

M62 P0(Penetrate)
G03 X90.350747 Y141.335658 Z0.000000 I0.009896 J-0.140778 F50.000000
G03 X90.320501 Y141.322019 Z0.000000 I0.042490 J-0.134577
G01 X84.420846 Y137.916059 Z0.000000
G03 X84.369111 Y137.864387 Z0.000000 I0.070551 J-0.122373
G03 X84.350143 Y137.793770 Z0.000000 I0.122286 J-0.070701
G03 X84.369027 Y137.723131 Z0.000000 I0.141253 J-0.000084
G03 X84.420701 Y137.671397 Z0.000000 I0.122370 J0.070556
G03 X84.491318 Y137.652433 Z0.000000 I0.070696 J0.122289
G03 X84.561957 Y137.671319 Z0.000000 I0.000079 J0.141253
G01 X90.461612 Y141.077826 Z0.000000
G03 X90.523529 Y141.147824 Z0.000000 I-0.068786 J0.123227
G03 X90.528132 Y141.241163 Z0.000000 I-0.130702 J0.053229
G03 X90.473403 Y141.316914 Z0.000000 I-0.135305 J-0.040111
G03 X90.383341 Y141.341859 Z0.000000 I-0.080576 J-0.115861
G01 X90.383341 Y141.341859 Z0.000000
M63 P0

(End cutting path id: path7574)


(Start cutting path id: path7572)
(Change tool to Default tool)

M63 P0
G00 X70.883549 Y141.341859

M62 P0(Penetrate)
G03 X70.850955 Y141.335658 Z0.000000 I0.009896 J-0.140778 F50.000000
G03 X70.820709 Y141.322019 Z0.000000 I0.042490 J-0.134577
G01 X64.920501 Y137.916059 Z0.000000
G03 X64.868766 Y137.864387 Z0.000000 I0.070551 J-0.122373
G03 X64.849798 Y137.793770 Z0.000000 I0.122286 J-0.070701
G03 X64.868682 Y137.723131 Z0.000000 I0.141253 J-0.000084
G03 X64.920356 Y137.671397 Z0.000000 I0.122370 J0.070556
G03 X64.990973 Y137.652433 Z0.000000 I0.070696 J0.122289
G03 X65.061612 Y137.671319 Z0.000000 I0.000079 J0.141253
G01 X70.961821 Y141.077829 Z0.000000
G03 X71.023737 Y141.147827 Z0.000000 I-0.068786 J0.123227
G03 X71.028340 Y141.241166 Z0.000000 I-0.130702 J0.053229
G03 X70.973611 Y141.316917 Z0.000000 I-0.135305 J-0.040111
G03 X70.883549 Y141.341862 Z0.000000 I-0.080576 J-0.115861
G01 X70.883549 Y141.341859 Z0.000000
M63 P0

(End cutting path id: path7572)


(Start cutting path id: path7570)
(Change tool to Default tool)

M63 P0
G00 X51.383207 Y141.341859

M62 P0(Penetrate)
G03 X51.350613 Y141.335658 Z0.000000 I0.009896 J-0.140778 F50.000000
G03 X51.320367 Y141.322019 Z0.000000 I0.042490 J-0.134577
G01 X45.420709 Y137.916059 Z0.000000
G03 X45.368974 Y137.864387 Z0.000000 I0.070551 J-0.122373
G03 X45.350007 Y137.793770 Z0.000000 I0.122286 J-0.070701
G03 X45.368890 Y137.723131 Z0.000000 I0.141253 J-0.000084
G03 X45.420564 Y137.671397 Z0.000000 I0.122370 J0.070556
G03 X45.491182 Y137.652433 Z0.000000 I0.070696 J0.122289
G03 X45.561820 Y137.671319 Z0.000000 I0.000079 J0.141253
G01 X51.461478 Y141.077829 Z0.000000
G03 X51.523395 Y141.147827 Z0.000000 I-0.068786 J0.123227
G03 X51.527998 Y141.241166 Z0.000000 I-0.130702 J0.053229
G03 X51.473269 Y141.316917 Z0.000000 I-0.135305 J-0.040111
G03 X51.383207 Y141.341862 Z0.000000 I-0.080576 J-0.115861
G01 X51.383207 Y141.341859 Z0.000000
M63 P0

(End cutting path id: path7570)


(Start cutting path id: path7568)
(Change tool to Default tool)

M63 P0
G00 X31.883415 Y141.341859

M62 P0(Penetrate)
G03 X31.850821 Y141.335658 Z0.000000 I0.009896 J-0.140778 F50.000000
G03 X31.820575 Y141.322019 Z0.000000 I0.042490 J-0.134577
G01 X25.920367 Y137.916059 Z0.000000
G03 X25.868632 Y137.864387 Z0.000000 I0.070551 J-0.122373
G03 X25.849665 Y137.793770 Z0.000000 I0.122286 J-0.070701
G03 X25.868548 Y137.723131 Z0.000000 I0.141253 J-0.000084
G03 X25.920222 Y137.671397 Z0.000000 I0.122370 J0.070556
G03 X25.990839 Y137.652433 Z0.000000 I0.070696 J0.122289
G03 X26.061478 Y137.671319 Z0.000000 I0.000079 J0.141253
G01 X31.961687 Y141.077826 Z0.000000
G03 X32.023603 Y141.147824 Z0.000000 I-0.068786 J0.123227
G03 X32.028206 Y141.241163 Z0.000000 I-0.130702 J0.053229
G03 X31.973477 Y141.316914 Z0.000000 I-0.135305 J-0.040111
G03 X31.883415 Y141.341859 Z0.000000 I-0.080576 J-0.115861
G01 X31.883415 Y141.341859 Z0.000000
M63 P0

(End cutting path id: path7568)


(Start cutting path id: path7566)
(Change tool to Default tool)

M63 P0
G00 X12.383071 Y141.341859

M62 P0(Penetrate)
G03 X12.350763 Y141.335595 Z0.000000 I0.010524 J-0.140732 F50.000000
G03 X12.320784 Y141.322019 Z0.000000 I0.042832 J-0.134468
G01 X6.420575 Y137.916056 Z0.000000
G03 X6.368840 Y137.864385 Z0.000000 I0.070551 J-0.122373
G03 X6.349873 Y137.793768 Z0.000000 I0.122286 J-0.070701
G03 X6.368756 Y137.723128 Z0.000000 I0.141253 J-0.000084
G03 X6.420430 Y137.671395 Z0.000000 I0.122370 J0.070556
G03 X6.491048 Y137.652430 Z0.000000 I0.070696 J0.122289
G03 X6.561686 Y137.671316 Z0.000000 I0.000079 J0.141253
G01 X12.461895 Y141.077826 Z0.000000
G03 X12.523924 Y141.147952 Z0.000000 I-0.068707 J0.123271
G03 X12.528416 Y141.241467 Z0.000000 I-0.130736 J0.053145
G03 X12.473393 Y141.317215 Z0.000000 I-0.135228 J-0.040371
G03 X12.383071 Y141.341859 Z0.000000 I-0.080205 J-0.116119
G01 X12.383071 Y141.341859 Z0.000000
M63 P0

(End cutting path id: path7566)


(Start cutting path id: path7564)
(Change tool to Default tool)

M63 P0
G00 X109.897464 Y160.842201

M62 P0(Penetrate)
G03 X109.857736 Y160.837762 Z0.000000 I-0.004351 J-0.141058 F50.000000
G03 X109.820846 Y160.822361 Z0.000000 I0.035378 J-0.136619
G01 X103.920638 Y157.415851 Z0.000000
G03 X103.866021 Y157.364677 Z0.000000 I0.065730 J-0.124883
G03 X103.845254 Y157.292770 Z0.000000 I0.120347 J-0.073709
G03 X103.864178 Y157.220357 Z0.000000 I0.141114 J-0.001803
G03 X103.917469 Y157.167804 Z0.000000 I0.122190 J0.070611
G03 X103.990139 Y157.149893 Z0.000000 I0.068899 J0.123164
G03 X104.061749 Y157.171661 Z0.000000 I-0.003771 J0.141075
G01 X109.961957 Y160.577620 Z0.000000
G03 X110.022919 Y160.644442 Z0.000000 I-0.068278 J0.123509
G03 X110.030790 Y160.734551 Z0.000000 I-0.129240 J0.056687
G03 X109.982337 Y160.810930 Z0.000000 I-0.137111 J-0.033421
G03 X109.897464 Y160.842204 Z0.000000 I-0.088658 J-0.109801
G01 X109.897464 Y160.842201 Z0.000000
M63 P0

(End cutting path id: path7564)


(Start cutting path id: path7562)
(Change tool to Default tool)

M63 P0
G00 X90.397122 Y160.842201

M62 P0(Penetrate)
G03 X90.357392 Y160.837762 Z0.000000 I-0.004353 J-0.141058 F50.000000
G03 X90.320501 Y160.822361 Z0.000000 I0.035376 J-0.136619
G01 X84.420846 Y157.415851 Z0.000000
G03 X84.366230 Y157.364677 Z0.000000 I0.065730 J-0.124883
G03 X84.345463 Y157.292770 Z0.000000 I0.120347 J-0.073709
G03 X84.364386 Y157.220357 Z0.000000 I0.141114 J-0.001803
G03 X84.417677 Y157.167804 Z0.000000 I0.122190 J0.070611
G03 X84.490348 Y157.149893 Z0.000000 I0.068899 J0.123164
G03 X84.561957 Y157.171661 Z0.000000 I-0.003771 J0.141075
G01 X90.461612 Y160.577620 Z0.000000
G03 X90.522574 Y160.644442 Z0.000000 I-0.068278 J0.123509
G03 X90.530445 Y160.734549 Z0.000000 I-0.129239 J0.056688
G03 X90.481994 Y160.810929 Z0.000000 I-0.137111 J-0.033420
G03 X90.397122 Y160.842204 Z0.000000 I-0.088659 J-0.109799
G01 X90.397122 Y160.842201 Z0.000000
M63 P0

(End cutting path id: path7562)


(Start cutting path id: path7560)
(Change tool to Default tool)

M63 P0
G00 X70.897330 Y160.842201

M62 P0(Penetrate)
G03 X70.857600 Y160.837762 Z0.000000 I-0.004353 J-0.141058 F50.000000
G03 X70.820709 Y160.822361 Z0.000000 I0.035376 J-0.136619
G01 X64.920501 Y157.415851 Z0.000000
G03 X64.865885 Y157.364677 Z0.000000 I0.065730 J-0.124883
G03 X64.845118 Y157.292770 Z0.000000 I0.120347 J-0.073709
G03 X64.864041 Y157.220357 Z0.000000 I0.141114 J-0.001803
G03 X64.917332 Y157.167804 Z0.000000 I0.122190 J0.070611
G03 X64.990003 Y157.149893 Z0.000000 I0.068899 J0.123164
G03 X65.061612 Y157.171661 Z0.000000 I-0.003771 J0.141075
G01 X70.961821 Y160.577620 Z0.000000
G03 X71.022782 Y160.644442 Z0.000000 I-0.068278 J0.123509
G03 X71.030654 Y160.734549 Z0.000000 I-0.129239 J0.056688
G03 X70.982202 Y160.810929 Z0.000000 I-0.137111 J-0.033420
G03 X70.897330 Y160.842204 Z0.000000 I-0.088659 J-0.109799
G01 X70.897330 Y160.842201 Z0.000000
M63 P0

(End cutting path id: path7560)


(Start cutting path id: path7558)
(Change tool to Default tool)

M63 P0
G00 X51.397538 Y160.842201

M62 P0(Penetrate)
G03 X51.357523 Y160.837840 Z0.000000 I-0.004875 J-0.141041 F50.000000
G03 X51.320367 Y160.822361 Z0.000000 I0.035140 J-0.136680
G01 X45.420709 Y157.415851 Z0.000000
G03 X45.366093 Y157.364677 Z0.000000 I0.065730 J-0.124883
G03 X45.345326 Y157.292770 Z0.000000 I0.120347 J-0.073709
G03 X45.364249 Y157.220357 Z0.000000 I0.141114 J-0.001803
G03 X45.417541 Y157.167804 Z0.000000 I0.122190 J0.070611
G03 X45.490211 Y157.149893 Z0.000000 I0.068899 J0.123164
G03 X45.561820 Y157.171661 Z0.000000 I-0.003771 J0.141075
G01 X51.461478 Y160.577620 Z0.000000
G03 X51.522405 Y160.644315 Z0.000000 I-0.068251 J0.123524
G03 X51.530404 Y160.734295 Z0.000000 I-0.129177 J0.056829
G03 X51.482198 Y160.810692 Z0.000000 I-0.137176 J-0.033151
G03 X51.397538 Y160.842204 Z0.000000 I-0.088970 J-0.109547
G01 X51.397538 Y160.842201 Z0.000000
M63 P0

(End cutting path id: path7558)


(Start cutting path id: path7556)
(Change tool to Default tool)

M63 P0
G00 X31.897193 Y160.842201

M62 P0(Penetrate)
G03 X31.857465 Y160.837762 Z0.000000 I-0.004351 J-0.141058 F50.000000
G03 X31.820575 Y160.822361 Z0.000000 I0.035378 J-0.136619
G01 X25.920367 Y157.415851 Z0.000000
G03 X25.865751 Y157.364677 Z0.000000 I0.065730 J-0.124883
G03 X25.844984 Y157.292770 Z0.000000 I0.120347 J-0.073709
G03 X25.863907 Y157.220357 Z0.000000 I0.141114 J-0.001803
G03 X25.917198 Y157.167804 Z0.000000 I0.122190 J0.070611
G03 X25.989869 Y157.149893 Z0.000000 I0.068899 J0.123164
G03 X26.061478 Y157.171661 Z0.000000 I-0.003771 J0.141075
G01 X31.961687 Y160.577618 Z0.000000
G03 X32.022648 Y160.644439 Z0.000000 I-0.068278 J0.123509
G03 X32.030519 Y160.734548 Z0.000000 I-0.129240 J0.056687
G03 X31.982066 Y160.810927 Z0.000000 I-0.137111 J-0.033421
G03 X31.897193 Y160.842201 Z0.000000 I-0.088658 J-0.109801
G01 X31.897193 Y160.842201 Z0.000000
M63 P0

(End cutting path id: path7556)


(Start cutting path id: path7554)
(Change tool to Default tool)

M63 P0
G00 X12.397403 Y160.842201

M62 P0(Penetrate)
G03 X12.357674 Y160.837762 Z0.000000 I-0.004352 J-0.141058 F50.000000
G03 X12.320784 Y160.822361 Z0.000000 I0.035377 J-0.136619
G01 X6.420575 Y157.415848 Z0.000000
G03 X6.365959 Y157.364674 Z0.000000 I0.065730 J-0.124883
G03 X6.345192 Y157.292767 Z0.000000 I0.120347 J-0.073709
G03 X6.364115 Y157.220354 Z0.000000 I0.141114 J-0.001803
G03 X6.417407 Y157.167801 Z0.000000 I0.122190 J0.070611
G03 X6.490077 Y157.149890 Z0.000000 I0.068899 J0.123164
G03 X6.561686 Y157.171658 Z0.000000 I-0.003771 J0.141075
G01 X12.461895 Y160.577618 Z0.000000
G03 X12.522856 Y160.644439 Z0.000000 I-0.068278 J0.123509
G03 X12.530728 Y160.734547 Z0.000000 I-0.129240 J0.056687
G03 X12.482275 Y160.810927 Z0.000000 I-0.137111 J-0.033421
G03 X12.397403 Y160.842201 Z0.000000 I-0.088658 J-0.109800
G01 X12.397403 Y160.842201 Z0.000000
M63 P0

(End cutting path id: path7554)


(Start cutting path id: path7552)
(Change tool to Default tool)

M63 P0
G00 X12.397403 Y102.342275

M62 P0(Penetrate)
G03 X12.357674 Y102.337836 Z0.000000 I-0.004352 J-0.141058 F50.000000
G03 X12.320784 Y102.322435 Z0.000000 I0.035377 J-0.136619
G01 X6.420575 Y98.915920 Z0.000000
G03 X6.365943 Y98.864748 Z0.000000 I0.065704 J-0.124897
G03 X6.345165 Y98.792834 Z0.000000 I0.120336 J-0.073726
G03 X6.364089 Y98.720411 Z0.000000 I0.141114 J-0.001812
G03 X6.417390 Y98.667853 Z0.000000 I0.122190 J0.070611
G03 X6.490072 Y98.649948 Z0.000000 I0.068889 J0.123169
G03 X6.561686 Y98.671733 Z0.000000 I-0.003793 J0.141074
G01 X12.461895 Y102.077692 Z0.000000
G03 X12.522856 Y102.144513 Z0.000000 I-0.068278 J0.123509
G03 X12.530728 Y102.234622 Z0.000000 I-0.129240 J0.056687
G03 X12.482275 Y102.311001 Z0.000000 I-0.137111 J-0.033421
G03 X12.397403 Y102.342275 Z0.000000 I-0.088658 J-0.109800
G01 X12.397403 Y102.342275 Z0.000000
M63 P0

(End cutting path id: path7552)


(Start cutting path id: path7550)
(Change tool to Default tool)

M63 P0
G00 X31.897193 Y102.342275

M62 P0(Penetrate)
G03 X31.857465 Y102.337836 Z0.000000 I-0.004351 J-0.141058 F50.000000
G03 X31.820575 Y102.322435 Z0.000000 I0.035378 J-0.136619
G01 X25.920367 Y98.915922 Z0.000000
G03 X25.865734 Y98.864751 Z0.000000 I0.065704 J-0.124897
G03 X25.844957 Y98.792837 Z0.000000 I0.120336 J-0.073726
G03 X25.863881 Y98.720414 Z0.000000 I0.141114 J-0.001812
G03 X25.917181 Y98.667856 Z0.000000 I0.122190 J0.070611
G03 X25.989863 Y98.649951 Z0.000000 I0.068889 J0.123169
G03 X26.061478 Y98.671735 Z0.000000 I-0.003793 J0.141074
G01 X31.961687 Y102.077692 Z0.000000
G03 X32.022648 Y102.144514 Z0.000000 I-0.068278 J0.123509
G03 X32.030519 Y102.234622 Z0.000000 I-0.129240 J0.056687
G03 X31.982066 Y102.311001 Z0.000000 I-0.137111 J-0.033421
G03 X31.897193 Y102.342275 Z0.000000 I-0.088658 J-0.109801
G01 X31.897193 Y102.342275 Z0.000000
M63 P0

(End cutting path id: path7550)


(Start cutting path id: path7548)
(Change tool to Default tool)

M63 P0
G00 X51.397538 Y102.342275

M62 P0(Penetrate)
G03 X51.357523 Y102.337915 Z0.000000 I-0.004875 J-0.141041 F50.000000
G03 X51.320367 Y102.322435 Z0.000000 I0.035140 J-0.136680
G01 X45.420709 Y98.915922 Z0.000000
G03 X45.366077 Y98.864751 Z0.000000 I0.065704 J-0.124897
G03 X45.345299 Y98.792837 Z0.000000 I0.120336 J-0.073726
G03 X45.364223 Y98.720414 Z0.000000 I0.141114 J-0.001812
G03 X45.417524 Y98.667856 Z0.000000 I0.122190 J0.070611
G03 X45.490205 Y98.649951 Z0.000000 I0.068889 J0.123169
G03 X45.561820 Y98.671735 Z0.000000 I-0.003793 J0.141074
G01 X51.461478 Y102.077695 Z0.000000
G03 X51.522405 Y102.144390 Z0.000000 I-0.068251 J0.123524
G03 X51.530404 Y102.234369 Z0.000000 I-0.129177 J0.056829
G03 X51.482198 Y102.310766 Z0.000000 I-0.137176 J-0.033151
G03 X51.397538 Y102.342278 Z0.000000 I-0.088970 J-0.109547
G01 X51.397538 Y102.342275 Z0.000000
M63 P0

(End cutting path id: path7548)


(Start cutting path id: path7546)
(Change tool to Default tool)

M63 P0
G00 X70.897330 Y102.342275

M62 P0(Penetrate)
G03 X70.857600 Y102.337837 Z0.000000 I-0.004353 J-0.141058 F50.000000
G03 X70.820709 Y102.322435 Z0.000000 I0.035376 J-0.136619
G01 X64.920501 Y98.915922 Z0.000000
G03 X64.865868 Y98.864751 Z0.000000 I0.065704 J-0.124897
G03 X64.845091 Y98.792837 Z0.000000 I0.120336 J-0.073726
G03 X64.864015 Y98.720414 Z0.000000 I0.141114 J-0.001812
G03 X64.917315 Y98.667856 Z0.000000 I0.122190 J0.070611
G03 X64.989997 Y98.649951 Z0.000000 I0.068889 J0.123169
G03 X65.061612 Y98.671735 Z0.000000 I-0.003793 J0.141074
G01 X70.961821 Y102.077695 Z0.000000
G03 X71.022782 Y102.144516 Z0.000000 I-0.068278 J0.123509
G03 X71.030654 Y102.234624 Z0.000000 I-0.129239 J0.056688
G03 X70.982202 Y102.311003 Z0.000000 I-0.137111 J-0.033420
G03 X70.897330 Y102.342278 Z0.000000 I-0.088659 J-0.109799
G01 X70.897330 Y102.342275 Z0.000000
M63 P0

(End cutting path id: path7546)


(Start cutting path id: path7544)
(Change tool to Default tool)

M63 P0
G00 X90.397122 Y102.342275

M62 P0(Penetrate)
G03 X90.357392 Y102.337837 Z0.000000 I-0.004353 J-0.141058 F50.000000
G03 X90.320501 Y102.322435 Z0.000000 I0.035376 J-0.136619
G01 X84.420846 Y98.915922 Z0.000000
G03 X84.366213 Y98.864751 Z0.000000 I0.065704 J-0.124897
G03 X84.345436 Y98.792837 Z0.000000 I0.120336 J-0.073726
G03 X84.364360 Y98.720414 Z0.000000 I0.141114 J-0.001812
G03 X84.417660 Y98.667856 Z0.000000 I0.122190 J0.070611
G03 X84.490342 Y98.649951 Z0.000000 I0.068889 J0.123169
G03 X84.561957 Y98.671735 Z0.000000 I-0.003793 J0.141074
G01 X90.461612 Y102.077695 Z0.000000
G03 X90.522574 Y102.144516 Z0.000000 I-0.068278 J0.123509
G03 X90.530445 Y102.234624 Z0.000000 I-0.129239 J0.056688
G03 X90.481994 Y102.311003 Z0.000000 I-0.137111 J-0.033420
G03 X90.397122 Y102.342278 Z0.000000 I-0.088659 J-0.109799
G01 X90.397122 Y102.342275 Z0.000000
M63 P0

(End cutting path id: path7544)


(Start cutting path id: path7542)
(Change tool to Default tool)

M63 P0
G00 X109.897464 Y102.342275

M62 P0(Penetrate)
