%
(Header)
(Generated by gcodetools from Inkscape.)
(Using default header. To add your own header create file "header" in the output dir.)
M3 S1 F500
(Header end.)
G21 (All units in mm)

(Start cutting path id: path3738)
(Change tool to Default tool)

M63 P0
G00 X89.466523 Y161.243714

M62 P0(Penetrate)
G01 X88.902217 Y161.808023 Z0.000000 F200.000000
G01 X88.902217 Y162.372329 Z0.000000
G01 X89.748677 Y162.372329 Z0.000000
G01 X89.748677 Y162.230735 Z0.000000
G01 X89.889238 Y162.090174 Z0.000000
G01 X90.735696 Y162.090174 Z0.000000
G01 X90.877290 Y162.230735 Z0.000000
G01 X90.877290 Y162.795041 Z0.000000
G01 X90.735696 Y162.936635 Z0.000000
G01 X89.748677 Y162.936635 Z0.000000
G01 X89.748677 Y163.783096 Z0.000000
G01 X90.735696 Y163.783096 Z0.000000
G01 X90.877290 Y163.924689 Z0.000000
G01 X90.877290 Y164.347402 Z0.000000
G01 X91.723750 Y164.347402 Z0.000000
G01 X91.723750 Y163.500941 Z0.000000
G01 X91.722622 Y163.500941 Z0.000000
G01 X91.583094 Y163.360380 Z0.000000
G01 X91.723654 Y163.218789 Z0.000000
G01 X91.723654 Y161.808023 Z0.000000
G01 X91.159348 Y161.243714 Z0.000000
G01 X89.466427 Y161.243714 Z0.000000
G01 X89.466523 Y161.243714 Z0.000000
M63 P0

(End cutting path id: path3738)


(Start cutting path id: path3738)
(Change tool to Default tool)

M63 P0
G00 X88.902217 Y164.347402

M62 P0(Penetrate)
G01 X88.902217 Y164.911708 Z0.000000 F200.000000
G01 X89.466523 Y165.477047 Z0.000000
G01 X91.159444 Y165.477047 Z0.000000
G01 X91.723750 Y164.911708 Z0.000000
G01 X91.723750 Y164.629553 Z0.000000
G01 X89.889238 Y164.629553 Z0.000000
G01 X89.748677 Y164.488995 Z0.000000
G01 X89.748677 Y164.347402 Z0.000000
G01 X88.902217 Y164.347402 Z0.000000
G01 X88.902217 Y164.347402 Z0.000000
M63 P0

(End cutting path id: path3738)


(Start cutting path id: path3736)
(Change tool to Default tool)

M63 P0
G00 X86.399010 Y161.243714

M62 P0(Penetrate)
G01 X85.834704 Y161.808023 Z0.000000 F200.000000
G01 X85.834704 Y164.911708 Z0.000000
G01 X86.399010 Y165.477047 Z0.000000
G01 X86.681165 Y165.477047 Z0.000000
G01 X86.681165 Y162.230735 Z0.000000
G01 X86.821725 Y162.090174 Z0.000000
G01 X87.527625 Y162.090174 Z0.000000
G01 X87.527625 Y161.243714 Z0.000000
G01 X86.399010 Y161.243714 Z0.000000
G01 X86.399010 Y161.243714 Z0.000000
M63 P0

(End cutting path id: path3736)


(Start cutting path id: path3736)
(Change tool to Default tool)

M63 P0
G00 X87.809777 Y161.243714

M62 P0(Penetrate)
G01 X87.809777 Y164.488995 Z0.000000 F200.000000
G01 X87.668183 Y164.629553 Z0.000000
G01 X86.963316 Y164.629553 Z0.000000
G01 X86.963316 Y165.477047 Z0.000000
G01 X88.091931 Y165.477047 Z0.000000
G01 X88.656238 Y164.911708 Z0.000000
G01 X88.656238 Y161.808023 Z0.000000
G01 X88.091931 Y161.243714 Z0.000000
G01 X87.809777 Y161.243714 Z0.000000
G01 X87.809777 Y161.243714 Z0.000000
M63 P0

(End cutting path id: path3736)


(Start cutting path id: path3734)
(Change tool to Default tool)

M63 P0
G00 X84.318519 Y161.243714

M62 P0(Penetrate)
G01 X84.318519 Y162.090174 Z0.000000 F200.000000
G01 X84.600670 Y162.090174 Z0.000000
G01 X84.742264 Y162.230735 Z0.000000
G01 X84.742264 Y162.795041 Z0.000000
G01 X84.600670 Y162.936635 Z0.000000
G01 X84.318519 Y162.936635 Z0.000000
G01 X84.318519 Y163.783096 Z0.000000
G01 X85.306570 Y163.783096 Z0.000000
G01 X85.588725 Y163.500941 Z0.000000
G01 X85.588725 Y161.808023 Z0.000000
G01 X85.024419 Y161.243714 Z0.000000
G01 X84.318519 Y161.243714 Z0.000000
G01 X84.318519 Y161.243714 Z0.000000
M63 P0

(End cutting path id: path3734)


(Start cutting path id: path3734)
(Change tool to Default tool)

M63 P0
G00 X83.331497 Y161.243714

M62 P0(Penetrate)
G01 X82.767191 Y161.808023 Z0.000000 F200.000000
G01 X82.767191 Y164.911708 Z0.000000
G01 X83.331497 Y165.477047 Z0.000000
G01 X84.036364 Y165.477047 Z0.000000
G01 X84.036364 Y164.629553 Z0.000000
G01 X83.754213 Y164.629553 Z0.000000
G01 X83.613652 Y164.488995 Z0.000000
G01 X83.613652 Y163.783096 Z0.000000
G01 X84.036364 Y163.783096 Z0.000000
G01 X84.036364 Y162.936635 Z0.000000
G01 X83.754213 Y162.936635 Z0.000000
G01 X83.613652 Y162.795041 Z0.000000
G01 X83.613652 Y162.230735 Z0.000000
G01 X83.754213 Y162.090174 Z0.000000
G01 X84.036364 Y162.090174 Z0.000000
G01 X84.036364 Y161.243714 Z0.000000
G01 X83.331497 Y161.243714 Z0.000000
G01 X83.331497 Y161.243714 Z0.000000
M63 P0

(End cutting path id: path3734)


(Start cutting path id: path3734)
(Change tool to Default tool)

M63 P0
G00 X84.742264 Y164.347402

M62 P0(Penetrate)
G01 X84.742264 Y164.488995 Z0.000000 F200.000000
G01 X84.600670 Y164.629553 Z0.000000
G01 X84.318519 Y164.629553 Z0.000000
G01 X84.318519 Y165.477047 Z0.000000
G01 X85.024419 Y165.477047 Z0.000000
G01 X85.588725 Y164.911708 Z0.000000
G01 X85.588725 Y164.347402 Z0.000000
G01 X84.742264 Y164.347402 Z0.000000
G01 X84.742264 Y164.347402 Z0.000000
M63 P0

(End cutting path id: path3734)


(Start cutting path id: path3732)
(Change tool to Default tool)

M63 P0
G00 X80.263984 Y161.243714

M62 P0(Penetrate)
G01 X79.699678 Y161.808023 Z0.000000 F200.000000
G01 X79.699678 Y164.911708 Z0.000000
G01 X80.263984 Y165.477047 Z0.000000
G01 X80.546139 Y165.477047 Z0.000000
G01 X80.546139 Y162.230735 Z0.000000
G01 X80.686697 Y162.090174 Z0.000000
G01 X81.392600 Y162.090174 Z0.000000
G01 X81.392600 Y161.243714 Z0.000000
G01 X80.263984 Y161.243714 Z0.000000
G01 X80.263984 Y161.243714 Z0.000000
M63 P0

(End cutting path id: path3732)


(Start cutting path id: path3732)
(Change tool to Default tool)

M63 P0
G00 X81.674751 Y161.243714

M62 P0(Penetrate)
G01 X81.674751 Y164.488995 Z0.000000 F200.000000
G01 X81.533158 Y164.629553 Z0.000000
G01 X80.828291 Y164.629553 Z0.000000
G01 X80.828291 Y165.477047 Z0.000000
G01 X81.956906 Y165.477047 Z0.000000
G01 X82.521212 Y164.911708 Z0.000000
G01 X82.521212 Y161.808023 Z0.000000
G01 X81.956906 Y161.243714 Z0.000000
G01 X81.674751 Y161.243714 Z0.000000
G01 X81.674751 Y161.243714 Z0.000000
M63 P0

(End cutting path id: path3732)


(Start cutting path id: path3730)
(Change tool to Default tool)

M63 P0
G00 X74.937178 Y162.936635

M62 P0(Penetrate)
G01 X74.937178 Y163.783096 Z0.000000 F200.000000
G01 X76.630100 Y163.783096 Z0.000000
G01 X76.630100 Y162.936635 Z0.000000
G01 X74.937178 Y162.936635 Z0.000000
G01 X74.937178 Y162.936635 Z0.000000
M63 P0

(End cutting path id: path3730)


(Start cutting path id: path3728)
(Change tool to Default tool)

M63 P0
G00 X69.614507 Y161.243714

M62 P0(Penetrate)
G01 X69.050200 Y161.808023 Z0.000000 F200.000000
G01 X69.050200 Y162.372329 Z0.000000
G01 X69.896658 Y162.372329 Z0.000000
G01 X69.896658 Y162.230735 Z0.000000
G01 X70.037219 Y162.090174 Z0.000000
G01 X70.319374 Y162.090174 Z0.000000
G01 X70.319374 Y161.243714 Z0.000000
G01 X69.614507 Y161.243714 Z0.000000
G01 X69.614507 Y161.243714 Z0.000000
M63 P0

(End cutting path id: path3728)


(Start cutting path id: path3728)
(Change tool to Default tool)

M63 P0
G00 X70.601525 Y161.243714

M62 P0(Penetrate)
G01 X70.601525 Y162.090174 Z0.000000 F200.000000
G01 X70.883680 Y162.090174 Z0.000000
G01 X71.025273 Y162.230735 Z0.000000
G01 X71.025273 Y162.795041 Z0.000000
G01 X70.883680 Y162.936635 Z0.000000
G01 X69.332352 Y162.936635 Z0.000000
G01 X69.050200 Y163.218789 Z0.000000
G01 X69.050200 Y164.911708 Z0.000000
G01 X69.614507 Y165.477047 Z0.000000
G01 X70.319374 Y165.477047 Z0.000000
G01 X70.319374 Y164.629553 Z0.000000
G01 X70.037219 Y164.629553 Z0.000000
G01 X69.896658 Y164.488995 Z0.000000
G01 X69.896658 Y163.924689 Z0.000000
G01 X70.037219 Y163.783096 Z0.000000
G01 X71.589580 Y163.783096 Z0.000000
G01 X71.871731 Y163.500941 Z0.000000
G01 X71.871731 Y161.808023 Z0.000000
G01 X71.307425 Y161.243714 Z0.000000
G01 X70.601525 Y161.243714 Z0.000000
G01 X70.601525 Y161.243714 Z0.000000
M63 P0

(End cutting path id: path3728)


(Start cutting path id: path3728)
(Change tool to Default tool)

M63 P0
G00 X71.025273 Y164.347402

M62 P0(Penetrate)
G01 X71.025273 Y164.488995 Z0.000000 F200.000000
G01 X70.883680 Y164.629553 Z0.000000
G01 X70.601525 Y164.629553 Z0.000000
G01 X70.601525 Y165.477047 Z0.000000
G01 X71.307425 Y165.477047 Z0.000000
G01 X71.871731 Y164.911708 Z0.000000
G01 X71.871731 Y164.347402 Z0.000000
G01 X71.025273 Y164.347402 Z0.000000
G01 X71.025273 Y164.347402 Z0.000000
M63 P0

(End cutting path id: path3728)


(Start cutting path id: path3726)
(Change tool to Default tool)

M63 P0
G00 X65.982685 Y161.243714

M62 P0(Penetrate)
G01 X65.982685 Y165.477047 Z0.000000 F200.000000
G01 X66.829145 Y165.477047 Z0.000000
G01 X66.829145 Y161.243714 Z0.000000
G01 X65.982685 Y161.243714 Z0.000000
G01 X65.982685 Y161.243714 Z0.000000
M63 P0

(End cutting path id: path3726)


(Start cutting path id: path3726)
(Change tool to Default tool)

M63 P0
G00 X67.957761 Y161.243714

M62 P0(Penetrate)
G01 X67.957761 Y162.795041 Z0.000000 F200.000000
G01 X67.816167 Y162.936635 Z0.000000
G01 X67.111300 Y162.936635 Z0.000000
G01 X67.111300 Y163.783096 Z0.000000
G01 X67.816167 Y163.783096 Z0.000000
G01 X67.957761 Y163.924689 Z0.000000
G01 X67.957761 Y164.488995 Z0.000000
G01 X67.816167 Y164.629553 Z0.000000
G01 X67.111300 Y164.629553 Z0.000000
G01 X67.111300 Y165.477047 Z0.000000
G01 X68.239912 Y165.477047 Z0.000000
G01 X68.804218 Y164.911708 Z0.000000
G01 X68.804218 Y163.500941 Z0.000000
G01 X68.803089 Y163.500941 Z0.000000
G01 X68.663564 Y163.360380 Z0.000000
G01 X68.804122 Y163.218789 Z0.000000
G01 X68.804122 Y161.243714 Z0.000000
G01 X67.957665 Y161.243714 Z0.000000
G01 X67.957761 Y161.243714 Z0.000000
M63 P0

(End cutting path id: path3726)


(Start cutting path id: path3724)
(Change tool to Default tool)

M63 P0
G00 X63.479481 Y161.243714

M62 P0(Penetrate)
G01 X62.915172 Y161.808023 Z0.000000 F200.000000
G01 X62.915172 Y164.911708 Z0.000000
G01 X63.479481 Y165.477047 Z0.000000
G01 X64.184345 Y165.477047 Z0.000000
G01 X64.184345 Y164.629553 Z0.000000
G01 X63.902193 Y164.629553 Z0.000000
G01 X63.761633 Y164.488995 Z0.000000
G01 X63.761633 Y162.230735 Z0.000000
G01 X63.902193 Y162.090174 Z0.000000
G01 X64.184345 Y162.090174 Z0.000000
G01 X64.184345 Y161.243714 Z0.000000
G01 X63.479481 Y161.243714 Z0.000000
G01 X63.479481 Y161.243714 Z0.000000
M63 P0

(End cutting path id: path3724)


(Start cutting path id: path3724)
(Change tool to Default tool)

M63 P0
G00 X64.466499 Y161.243714

M62 P0(Penetrate)
G01 X64.466499 Y162.090174 Z0.000000 F200.000000
G01 X64.748654 Y162.090174 Z0.000000
G01 X64.890245 Y162.230735 Z0.000000
G01 X64.890245 Y164.488995 Z0.000000
G01 X64.748654 Y164.629553 Z0.000000
G01 X64.466499 Y164.629553 Z0.000000
G01 X64.466499 Y165.477047 Z0.000000
G01 X65.172399 Y165.477047 Z0.000000
G01 X65.736705 Y164.911708 Z0.000000
G01 X65.736705 Y161.808023 Z0.000000
G01 X65.172399 Y161.243714 Z0.000000
G01 X64.466499 Y161.243714 Z0.000000
G01 X64.466499 Y161.243714 Z0.000000
M63 P0

(End cutting path id: path3724)


(Start cutting path id: path3722)
(Change tool to Default tool)

M63 P0
G00 X60.834680 Y161.243714

M62 P0(Penetrate)
G01 X60.834680 Y164.347402 Z0.000000 F200.000000
G01 X61.681141 Y164.347402 Z0.000000
G01 X61.681141 Y161.243714 Z0.000000
G01 X60.834680 Y161.243714 Z0.000000
G01 X60.834680 Y161.243714 Z0.000000
M63 P0

(End cutting path id: path3722)


(Start cutting path id: path3722)
(Change tool to Default tool)

M63 P0
G00 X59.847659 Y164.629553

M62 P0(Penetrate)
G01 X59.847659 Y165.477047 Z0.000000 F200.000000
G01 X62.669193 Y165.477047 Z0.000000
G01 X62.669193 Y164.629553 Z0.000000
G01 X59.847659 Y164.629553 Z0.000000
G01 X59.847659 Y164.629553 Z0.000000
M63 P0

(End cutting path id: path3722)


(Start cutting path id: path3720)
(Change tool to Default tool)

M63 P0
G00 X58.756255 Y161.243714

M62 P0(Penetrate)
G01 X58.756255 Y165.477047 Z0.000000 F200.000000
G01 X59.602713 Y165.477047 Z0.000000
G01 X59.602713 Y161.243714 Z0.000000
G01 X58.756255 Y161.243714 Z0.000000
G01 X58.756255 Y161.243714 Z0.000000
M63 P0

(End cutting path id: path3720)


(Start cutting path id: path3718)
(Change tool to Default tool)

M63 P0
G00 X56.253048 Y161.243714

M62 P0(Penetrate)
G01 X55.688742 Y161.808023 Z0.000000 F200.000000
G01 X55.688742 Y162.372329 Z0.000000
G01 X56.535200 Y162.372329 Z0.000000
G01 X56.535200 Y162.230735 Z0.000000
G01 X56.675761 Y162.090174 Z0.000000
G01 X56.957915 Y162.090174 Z0.000000
G01 X56.957915 Y161.243714 Z0.000000
G01 X56.253048 Y161.243714 Z0.000000
G01 X56.253048 Y161.243714 Z0.000000
M63 P0

(End cutting path id: path3718)


(Start cutting path id: path3718)
(Change tool to Default tool)

M63 P0
G00 X57.240067 Y161.243714

M62 P0(Penetrate)
G01 X57.240067 Y162.090174 Z0.000000 F200.000000
G01 X57.522221 Y162.090174 Z0.000000
G01 X57.663815 Y162.230735 Z0.000000
G01 X57.663815 Y162.795041 Z0.000000
G01 X57.522221 Y162.936635 Z0.000000
G01 X55.970894 Y162.936635 Z0.000000
G01 X55.688742 Y163.218789 Z0.000000
G01 X55.688742 Y164.911708 Z0.000000
G01 X56.253048 Y165.477047 Z0.000000
G01 X56.957915 Y165.477047 Z0.000000
G01 X56.957915 Y164.629553 Z0.000000
G01 X56.675761 Y164.629553 Z0.000000
G01 X56.535200 Y164.488995 Z0.000000
G01 X56.535200 Y163.924689 Z0.000000
G01 X56.675761 Y163.783096 Z0.000000
G01 X58.228121 Y163.783096 Z0.000000
G01 X58.510273 Y163.500941 Z0.000000
G01 X58.510273 Y161.808023 Z0.000000
G01 X57.945967 Y161.243714 Z0.000000
G01 X57.240067 Y161.243714 Z0.000000
G01 X57.240067 Y161.243714 Z0.000000
M63 P0

(End cutting path id: path3718)


(Start cutting path id: path3718)
(Change tool to Default tool)

M63 P0
G00 X57.663815 Y164.347402

M62 P0(Penetrate)
G01 X57.663815 Y164.488995 Z0.000000 F200.000000
G01 X57.522221 Y164.629553 Z0.000000
G01 X57.240067 Y164.629553 Z0.000000
G01 X57.240067 Y165.477047 Z0.000000
G01 X57.945967 Y165.477047 Z0.000000
G01 X58.510273 Y164.911708 Z0.000000
G01 X58.510273 Y164.347402 Z0.000000
G01 X57.663815 Y164.347402 Z0.000000
G01 X57.663815 Y164.347402 Z0.000000
M63 P0

(End cutting path id: path3718)


(Start cutting path id: path3716)
(Change tool to Default tool)

M63 P0
G00 X53.749841 Y161.243714

M62 P0(Penetrate)
G01 X53.749841 Y162.090174 Z0.000000 F200.000000
G01 X55.442760 Y162.090174 Z0.000000
G01 X55.442760 Y161.243714 Z0.000000
G01 X53.749841 Y161.243714 Z0.000000
G01 X53.749841 Y161.243714 Z0.000000
M63 P0

(End cutting path id: path3716)


(Start cutting path id: path3716)
(Change tool to Default tool)

M63 P0
G00 X53.749841 Y162.936635

M62 P0(Penetrate)
G01 X53.749841 Y163.783096 Z0.000000 F200.000000
G01 X54.878454 Y163.783096 Z0.000000
G01 X54.878454 Y162.936635 Z0.000000
G01 X53.749841 Y162.936635 Z0.000000
G01 X53.749841 Y162.936635 Z0.000000
M63 P0

(End cutting path id: path3716)


(Start cutting path id: path3716)
(Change tool to Default tool)

M63 P0
G00 X52.621226 Y161.243714

M62 P0(Penetrate)
G01 X52.621226 Y165.477047 Z0.000000 F200.000000
G01 X53.467687 Y165.477047 Z0.000000
G01 X53.467687 Y161.243714 Z0.000000
G01 X52.621226 Y161.243714 Z0.000000
G01 X52.621226 Y161.243714 Z0.000000
M63 P0

(End cutting path id: path3716)


(Start cutting path id: path3716)
(Change tool to Default tool)

M63 P0
G00 X53.749841 Y164.629553

M62 P0(Penetrate)
G01 X53.749841 Y165.477047 Z0.000000 F200.000000
G01 X55.442760 Y165.477047 Z0.000000
G01 X55.442760 Y164.629553 Z0.000000
G01 X53.749841 Y164.629553 Z0.000000
G01 X53.749841 Y164.629553 Z0.000000
M63 P0

(End cutting path id: path3716)


(Start cutting path id: path3714)
(Change tool to Default tool)

M63 P0
G00 X49.553713 Y161.243714

M62 P0(Penetrate)
G01 X49.553713 Y165.477047 Z0.000000 F200.000000
G01 X50.400174 Y165.477047 Z0.000000
G01 X50.400174 Y161.243714 Z0.000000
G01 X49.553713 Y161.243714 Z0.000000
G01 X49.553713 Y161.243714 Z0.000000
M63 P0

(End cutting path id: path3714)


(Start cutting path id: path3714)
(Change tool to Default tool)

M63 P0
G00 X51.528786 Y161.243714

M62 P0(Penetrate)
G01 X51.528786 Y162.795041 Z0.000000 F200.000000
G01 X51.387196 Y162.936635 Z0.000000
G01 X50.682329 Y162.936635 Z0.000000
G01 X50.682329 Y163.783096 Z0.000000
G01 X51.387196 Y163.783096 Z0.000000
G01 X51.528786 Y163.924689 Z0.000000
G01 X51.528786 Y164.488995 Z0.000000
G01 X51.387196 Y164.629553 Z0.000000
G01 X50.682329 Y164.629553 Z0.000000
G01 X50.682329 Y165.477047 Z0.000000
G01 X51.810941 Y165.477047 Z0.000000
G01 X52.375247 Y164.911708 Z0.000000
G01 X52.375247 Y163.500941 Z0.000000
G01 X52.374118 Y163.500941 Z0.000000
G01 X52.234593 Y163.360380 Z0.000000
G01 X52.375151 Y163.218789 Z0.000000
G01 X52.375151 Y161.243714 Z0.000000
G01 X51.528690 Y161.243714 Z0.000000
G01 X51.528786 Y161.243714 Z0.000000
M63 P0

(End cutting path id: path3714)


(Start cutting path id: path4087)
(Change tool to Default tool)

M63 P0
G00 X41.641029 Y42.783391

M62 P0(Penetrate)
G03 X41.228786 Y42.713945 Z0.000000 I-0.000000 J-1.258306 F200.000000
G03 X40.859403 Y42.497310 Z0.000000 I0.359040 J-1.035431
G03 X40.714568 Y42.337723 Z0.000000 I0.672148 J-0.755535
G03 X40.598418 Y42.135315 Z0.000000 I0.864546 J-0.630642
G03 X40.527820 Y41.913402 Z0.000000 I1.030842 J-0.450131
G03 X40.500013 Y41.641274 Z0.000000 I1.309164 J-0.271259
G03 X40.527788 Y41.368933 Z0.000000 I1.339045 J-0.001024
G03 X40.598359 Y41.146890 Z0.000000 I1.102086 J0.228034
G03 X40.714513 Y40.944363 Z0.000000 I0.980849 J0.427970
G03 X40.859403 Y40.784684 Z0.000000 I0.816779 J0.595559
G03 X41.228792 Y40.568345 Z0.000000 I0.726003 J0.816087
G03 X41.641029 Y40.499154 Z0.000000 I0.412238 J1.193459
G03 X42.053263 Y40.568345 Z0.000000 I-0.000000 J1.262638
G03 X42.422652 Y40.784684 Z0.000000 I-0.356616 J1.032429
G03 X42.567488 Y40.944272 Z0.000000 I-0.672148 J0.755535
G03 X42.683638 Y41.146679 Z0.000000 I-0.864546 J0.630642
G03 X42.754236 Y41.368592 Z0.000000 I-1.030842 J0.450131
G03 X42.782042 Y41.640721 Z0.000000 I-1.309164 J0.271259
G03 X42.754268 Y41.913061 Z0.000000 I-1.339045 J0.001024
G03 X42.683697 Y42.135104 Z0.000000 I-1.102086 J-0.228034
G03 X42.567542 Y42.337632 Z0.000000 I-0.980849 J-0.427970
G03 X42.422652 Y42.497310 Z0.000000 I-0.816779 J-0.595559
G03 X42.053269 Y42.713946 Z0.000000 I-0.728425 J-0.818799
G03 X41.641029 Y42.783391 Z0.000000 I-0.412239 J-1.188849
G01 X41.641029 Y42.783391 Z0.000000
M63 P0

(End cutting path id: path4087)


(Start cutting path id: path4087)
(Change tool to Default tool)

M63 P0
G00 X41.641029 Y42.501168

M62 P0(Penetrate)
G02 X41.963426 Y42.446525 Z0.000000 I-0.000000 J-0.978402 F200.000000
G02 X42.235237 Y42.286747 Z0.000000 I-0.267232 J-0.765697
G02 X42.341105 Y42.171262 Z0.000000 I-0.512541 J-0.576127
G02 X42.427062 Y42.023053 Z0.000000 I-0.600506 J-0.447306
G02 X42.478262 Y41.859989 Z0.000000 I-0.735859 J-0.320620
G02 X42.499820 Y41.641274 Z0.000000 I-1.086659 J-0.217531
G01 X42.499820 Y41.640709 Z0.000000
G02 X42.478232 Y41.422040 Z0.000000 I-1.107641 J-0.001048
G02 X42.427048 Y41.259206 Z0.000000 I-0.785079 J0.157313
G02 X42.341125 Y41.111229 Z0.000000 I-0.685051 J0.298840
G02 X42.235237 Y40.995789 Z0.000000 I-0.619783 J0.462221
G02 X41.963426 Y40.836010 Z0.000000 I-0.539055 J0.605933
G02 X41.641029 Y40.781365 Z0.000000 I-0.322397 J0.923735
G02 X41.318629 Y40.836010 Z0.000000 I0.000000 J0.978392
G02 X41.046819 Y40.995789 Z0.000000 I0.267243 J0.765709
G02 X40.940926 Y41.111228 Z0.000000 I0.514031 J0.577814
G02 X40.854994 Y41.259206 Z0.000000 I0.599085 J0.446833
G02 X40.803808 Y41.422041 Z0.000000 I0.733704 J0.320095
G02 X40.782235 Y41.640709 Z0.000000 I1.085474 J0.217485
G01 X40.782235 Y41.641274 Z0.000000
G02 X40.803810 Y41.859990 Z0.000000 I1.108813 J0.001049
G02 X40.855008 Y42.023053 Z0.000000 I0.787249 J-0.157609
G02 X40.940955 Y42.171261 Z0.000000 I0.686496 J-0.299082
G02 X41.046819 Y42.286747 Z0.000000 I0.618268 J-0.460488
G02 X41.318629 Y42.446525 Z0.000000 I0.539041 J-0.605916
G02 X41.641029 Y42.501168 Z0.000000 I0.322400 J-0.923771
G01 X41.641029 Y42.501168 Z0.000000
M63 P0

(End cutting path id: path4087)


(Start cutting path id: path4085)
(Change tool to Default tool)

M63 P0
G00 X119.641297 Y89.283360

M62 P0(Penetrate)
G03 X119.229058 Y89.213915 Z0.000000 I0.000000 J-1.258294 F200.000000
G03 X118.859674 Y88.997280 Z0.000000 I0.359042 J-1.035434
G03 X118.714743 Y88.837649 Z0.000000 I0.673589 J-0.757170
G03 X118.598585 Y88.635351 Z0.000000 I0.863083 J-0.630072
G03 X118.528023 Y88.413537 Z0.000000 I1.028668 J-0.449366
G03 X118.500281 Y88.141243 Z0.000000 I1.308504 J-0.270873
G03 X118.528056 Y87.868903 Z0.000000 I1.339042 J-0.001024
G03 X118.598627 Y87.646860 Z0.000000 I1.102078 J0.228033
G03 X118.714782 Y87.444333 Z0.000000 I0.980840 J0.427968
G03 X118.859674 Y87.284654 Z0.000000 I0.816773 J0.595560
G03 X119.229063 Y87.068314 Z0.000000 I0.726005 J0.816090
G03 X119.641297 Y86.999124 Z0.000000 I0.412234 J1.193447
G03 X120.053533 Y87.068315 Z0.000000 I0.000000 J1.262637
G03 X120.422920 Y87.284654 Z0.000000 I-0.356618 J1.032428
G03 X120.567826 Y87.444331 Z0.000000 I-0.672255 J0.755659
G03 X120.684009 Y87.646860 Z0.000000 I-0.864549 J0.630543
G03 X120.754585 Y87.868905 Z0.000000 I-1.030889 J0.449905
G03 X120.782313 Y88.141243 Z0.000000 I-1.309603 J0.270916
G03 X120.754524 Y88.413540 Z0.000000 I-1.337955 J0.001023
G03 X120.683967 Y88.635351 Z0.000000 I-1.099841 J-0.227725
G03 X120.567837 Y88.837647 Z0.000000 I-0.979350 J-0.427728
G03 X120.422920 Y88.997280 Z0.000000 I-0.818131 J-0.597116
G03 X120.053538 Y89.213914 Z0.000000 I-0.728425 J-0.818798
G03 X119.641297 Y89.283360 Z0.000000 I-0.412241 J-1.188848
G01 X119.641297 Y89.283360 Z0.000000
M63 P0

(End cutting path id: path4085)


(Start cutting path id: path4085)
(Change tool to Default tool)

M63 P0
G00 X119.641297 Y89.001138

M62 P0(Penetrate)
G02 X119.963696 Y88.946494 Z0.000000 I0.000000 J-0.978402 F200.000000
G02 X120.235507 Y88.786717 Z0.000000 I-0.267242 J-0.765719
G02 X120.341375 Y88.671232 Z0.000000 I-0.512498 J-0.576090
G02 X120.427331 Y88.523023 Z0.000000 I-0.600505 J-0.447303
G02 X120.478531 Y88.359959 Z0.000000 I-0.735879 J-0.320625
G02 X120.500091 Y88.141243 Z0.000000 I-1.086710 J-0.217542
G02 X120.478517 Y87.922527 Z0.000000 I-1.108819 J-0.001049
G02 X120.427319 Y87.759463 Z0.000000 I-0.787254 J0.157609
G02 X120.341371 Y87.611255 Z0.000000 I-0.686492 J0.299080
G02 X120.235507 Y87.495770 Z0.000000 I-0.618235 J0.460465
G02 X119.963696 Y87.335991 Z0.000000 I-0.539066 J0.605955
G02 X119.641297 Y87.281346 Z0.000000 I-0.322399 J0.923734
G02 X119.318900 Y87.335990 Z0.000000 I-0.000000 J0.978380
G02 X119.047087 Y87.495770 Z0.000000 I0.267252 J0.765735
G02 X118.941220 Y87.611254 Z0.000000 I0.512518 J0.576103
G02 X118.855264 Y87.759463 Z0.000000 I0.600518 J0.447311
G02 X118.804063 Y87.922528 Z0.000000 I0.735883 J0.320629
G02 X118.782503 Y88.141243 Z0.000000 I1.086687 J0.217541
G02 X118.804078 Y88.359959 Z0.000000 I1.108797 J0.001049
G02 X118.855276 Y88.523023 Z0.000000 I0.787259 J-0.157613
G02 X118.941225 Y88.671232 Z0.000000 I0.686506 J-0.299088
G02 X119.047087 Y88.786717 Z0.000000 I0.618254 J-0.460477
G02 X119.318900 Y88.946495 Z0.000000 I0.539054 J-0.605942
G02 X119.641297 Y89.001138 Z0.000000 I0.322397 J-0.923760
G01 X119.641297 Y89.001138 Z0.000000
M63 P0

(End cutting path id: path4085)


(Start cutting path id: path4083)
(Change tool to Default tool)

M63 P0
G00 X100.140955 Y42.782290

M62 P0(Penetrate)
G03 X99.729044 Y42.713021 Z0.000000 I-0.000000 J-1.259357 F200.000000
G03 X99.359882 Y42.496760 Z0.000000 I0.357998 J-1.034323
G03 X99.214961 Y42.337274 Z0.000000 I0.673030 J-0.757155
G03 X99.098688 Y42.135047 Z0.000000 I0.863949 J-0.631279
G03 X99.027936 Y41.913298 Z0.000000 I1.029628 J-0.450678
G03 X98.999939 Y41.641274 Z0.000000 I1.307526 J-0.272024
G03 X99.027936 Y41.369247 Z0.000000 I1.335539 J0.000000
G03 X99.098688 Y41.147498 Z0.000000 I1.100375 J0.228927
G03 X99.214961 Y40.945272 Z0.000000 I0.980209 J0.429047
G03 X99.359882 Y40.785788 Z0.000000 I0.817927 J0.597655
G03 X99.729045 Y40.569526 Z0.000000 I0.727146 J0.818035
G03 X100.140955 Y40.500258 Z0.000000 I0.411910 J1.190103
G03 X100.553153 Y40.569481 Z0.000000 I0.000000 J1.261854
G03 X100.922578 Y40.785788 Z0.000000 I-0.357344 J1.033917
G03 X101.067425 Y40.945290 Z0.000000 I-0.670954 J0.754830
G03 X101.183497 Y41.147498 Z0.000000 I-0.863166 J0.629893
G03 X101.254063 Y41.369226 Z0.000000 I-1.030335 J0.450001
G03 X101.281971 Y41.641274 Z0.000000 I-1.312014 J0.272048
G03 X101.254063 Y41.913320 Z0.000000 I-1.339906 J0.000000
G03 X101.183497 Y42.135047 Z0.000000 I-1.100905 J-0.228276
G03 X101.067426 Y42.337256 Z0.000000 I-0.979251 J-0.427690
G03 X100.922578 Y42.496760 Z0.000000 I-0.815826 J-0.595343
G03 X100.553154 Y42.713065 Z0.000000 I-0.726782 J-0.817637
G03 X100.140955 Y42.782290 Z0.000000 I-0.412199 J-1.192615
G01 X100.140955 Y42.782290 Z0.000000
M63 P0

(End cutting path id: path4083)


(Start cutting path id: path4083)
(Change tool to Default tool)

M63 P0
G00 X100.140955 Y42.500068

M62 P0(Penetrate)
G02 X100.463000 Y42.445364 Z0.000000 I0.000000 J-0.975298 F200.000000
G02 X100.734612 Y42.285644 Z0.000000 I-0.268390 J-0.767217
G02 X100.840527 Y42.170312 Z0.000000 I-0.514409 J-0.578705
G02 X100.926583 Y42.022427 Z0.000000 I-0.599610 J-0.447900
G02 X100.977947 Y41.859680 Z0.000000 I-0.733788 J-0.321072
G02 X100.999749 Y41.641274 Z0.000000 I-1.083105 J-0.218406
G02 X100.977962 Y41.422819 Z0.000000 I-1.106097 J-0.000000
G02 X100.926583 Y41.259843 Z0.000000 I-0.787321 J0.158621
G02 X100.840502 Y41.111728 Z0.000000 I-0.687100 J0.300253
G02 X100.734612 Y40.996351 Z0.000000 I-0.618776 J0.461615
G02 X100.462995 Y40.836920 Z0.000000 I-0.537605 J0.604812
G02 X100.140955 Y40.782480 Z0.000000 I-0.322040 J0.925294
G02 X99.818911 Y40.836921 Z0.000000 I0.000000 J0.979747
G02 X99.547295 Y40.996351 Z0.000000 I0.265986 J0.764240
G02 X99.441405 Y41.111728 Z0.000000 I0.512875 J0.576979
G02 X99.355326 Y41.259843 Z0.000000 I0.601016 J0.448362
G02 X99.303948 Y41.422818 Z0.000000 I0.735946 J0.321593
G02 X99.282161 Y41.641274 Z0.000000 I1.084335 J0.218455
G02 X99.303962 Y41.859680 Z0.000000 I1.104931 J0.000000
G02 X99.355326 Y42.022427 Z0.000000 I0.785156 J-0.158322
G02 X99.441380 Y42.170312 Z0.000000 I0.685662 J-0.300009
G02 X99.547295 Y42.285644 Z0.000000 I0.620311 J-0.463359
G02 X99.818906 Y42.445363 Z0.000000 I0.540000 J-0.607495
G02 X100.140955 Y42.500068 Z0.000000 I0.322049 J-0.920606
G01 X100.140955 Y42.500068 Z0.000000
M63 P0

(End cutting path id: path4083)


(Start cutting path id: path4081)
(Change tool to Default tool)

M63 P0
G00 X22.141236 Y89.282259

M62 P0(Penetrate)
G03 X21.729038 Y89.213036 Z0.000000 I-0.000000 J-1.261854 F200.000000
G03 X21.359613 Y88.996729 Z0.000000 I0.357344 J-1.033919
G03 X21.214765 Y88.837226 Z0.000000 I0.670974 J-0.754843
G03 X21.098694 Y88.635017 Z0.000000 I0.863177 J-0.629897
G03 X21.028128 Y88.413289 Z0.000000 I1.030339 J-0.450002
G03 X21.000220 Y88.141243 Z0.000000 I1.312005 J-0.272046
G03 X21.028128 Y87.869197 Z0.000000 I1.339912 J-0.000000
G03 X21.098694 Y87.647470 Z0.000000 I1.100905 J0.228274
G03 X21.214765 Y87.445261 Z0.000000 I0.979249 J0.427688
G03 X21.359613 Y87.285757 Z0.000000 I0.815822 J0.595340
G03 X21.729038 Y87.069450 Z0.000000 I0.726769 J0.817612
G03 X22.141236 Y87.000227 Z0.000000 I0.412198 J1.192631
G03 X22.553146 Y87.069495 Z0.000000 I0.000000 J1.259368
G03 X22.922308 Y87.285757 Z0.000000 I-0.357985 J1.034300
G03 X23.067230 Y87.445243 Z0.000000 I-0.673029 J0.757155
G03 X23.183503 Y87.647470 Z0.000000 I-0.863948 J0.631279
G03 X23.254255 Y87.869219 Z0.000000 I-1.029627 J0.450678
G03 X23.282252 Y88.141243 Z0.000000 I-1.307526 J0.272024
G03 X23.254255 Y88.413268 Z0.000000 I-1.335523 J-0.000000
G03 X23.183503 Y88.635017 Z0.000000 I-1.100379 J-0.228928
G03 X23.067230 Y88.837244 Z0.000000 I-0.980221 J-0.429052
G03 X22.922308 Y88.996729 Z0.000000 I-0.817951 J-0.597669
G03 X22.553146 Y89.212991 Z0.000000 I-0.727148 J-0.818038
G03 X22.141236 Y89.282259 Z0.000000 I-0.411910 J-1.190100
G01 X22.141236 Y89.282259 Z0.000000
M63 P0

(End cutting path id: path4081)


(Start cutting path id: path4081)
(Change tool to Default tool)

M63 P0
G00 X22.141236 Y89.000037

M62 P0(Penetrate)
G02 X22.463283 Y88.945333 Z0.000000 I-0.000000 J-0.975307 F200.000000
G02 X22.734895 Y88.785613 Z0.000000 I-0.268388 J-0.767213
G02 X22.840809 Y88.670283 Z0.000000 I-0.514370 J-0.578671
G02 X22.926864 Y88.522397 Z0.000000 I-0.599605 J-0.447894
G02 X22.978229 Y88.359650 Z0.000000 I-0.733796 J-0.321071
G02 X23.000030 Y88.141243 Z0.000000 I-1.083126 J-0.218407
G02 X22.978229 Y87.922836 Z0.000000 I-1.104927 J0.000000
G02 X22.926864 Y87.760089 Z0.000000 I-0.785161 J0.158324
G02 X22.840809 Y87.612204 Z0.000000 I-0.685660 J0.300009
G02 X22.734895 Y87.496873 Z0.000000 I-0.620284 J0.463341
G02 X22.463283 Y87.337154 Z0.000000 I-0.540001 J0.607496
G02 X22.141236 Y87.282449 Z0.000000 I-0.322047 J0.920601
G02 X21.819189 Y87.337154 Z0.000000 I-0.000000 J0.975307
G02 X21.547577 Y87.496873 Z0.000000 I0.268388 J0.767213
G02 X21.441663 Y87.612204 Z0.000000 I0.514370 J0.578671
G02 X21.355608 Y87.760089 Z0.000000 I0.599605 J0.447894
G02 X21.304243 Y87.922836 Z0.000000 I0.733796 J0.321071
G02 X21.282443 Y88.141243 Z0.000000 I1.083126 J0.218407
G02 X21.304243 Y88.359650 Z0.000000 I1.104927 J-0.000000
G02 X21.355608 Y88.522397 Z0.000000 I0.785161 J-0.158324
G02 X21.441663 Y88.670283 Z0.000000 I0.685660 J-0.300009
G02 X21.547577 Y88.785613 Z0.000000 I0.620284 J-0.463341
G02 X21.819189 Y88.945333 Z0.000000 I0.540001 J-0.607496
G02 X22.141236 Y89.000037 Z0.000000 I0.322047 J-0.920601
G01 X22.141236 Y89.000037 Z0.000000
M63 P0

(End cutting path id: path4081)


(Start cutting path id: path4079)
(Change tool to Default tool)

M63 P0
G00 X119.641297 Y6.283556

M62 P0(Penetrate)
G03 X119.229055 Y6.214116 Z0.000000 I0.000000 J-1.258392 F200.000000
G03 X118.859674 Y5.997496 Z0.000000 I0.359012 J-1.035430
G03 X118.714767 Y5.837809 Z0.000000 I0.672409 J-0.755766
G03 X118.598585 Y5.635278 Z0.000000 I0.864606 J-0.630567
G03 X118.528009 Y5.413232 Z0.000000 I1.030905 J-0.449909
G03 X118.500281 Y5.140895 Z0.000000 I1.309592 J-0.270915
G03 X118.528089 Y4.868769 Z0.000000 I1.336986 J-0.000860
G03 X118.598687 Y4.646858 Z0.000000 I1.101441 J0.228222
G03 X118.714836 Y4.444451 Z0.000000 I0.980710 J0.428242
G03 X118.859674 Y4.284859 Z0.000000 I0.817053 J0.595995
G03 X119.229055 Y4.068223 Z0.000000 I0.728518 J0.818950
G03 X119.641297 Y3.998770 Z0.000000 I0.412242 J1.188717
G03 X120.053541 Y4.068224 Z0.000000 I0.000000 J1.258169
G03 X120.422920 Y4.284859 Z0.000000 I-0.359139 J1.035585
G03 X120.567825 Y4.444530 Z0.000000 I-0.672106 J0.755536
G03 X120.684009 Y4.647066 Z0.000000 I-0.864560 J0.630543
G03 X120.754586 Y4.869119 Z0.000000 I-1.030955 J0.449920
G03 X120.782313 Y5.141460 Z0.000000 I-1.309647 J0.270919
G03 X120.754505 Y5.413585 Z0.000000 I-1.336986 J0.000860
G03 X120.683907 Y5.635497 Z0.000000 I-1.101441 J-0.228222
G03 X120.567758 Y5.837903 Z0.000000 I-0.980710 J-0.428242
G03 X120.422920 Y5.997496 Z0.000000 I-0.817053 J-0.595995
G03 X120.053541 Y6.214116 Z0.000000 I-0.728392 J-0.818809
G03 X119.641297 Y6.283556 Z0.000000 I-0.412244 J-1.188951
G01 X119.641297 Y6.283556 Z0.000000
M63 P0

(End cutting path id: path4079)


(Start cutting path id: path4079)
(Change tool to Default tool)

M63 P0
G00 X119.641297 Y6.001334

M62 P0(Penetrate)
G02 X119.963703 Y5.946426 Z0.000000 I-0.000000 J-0.973991 F200.000000
G02 X120.235507 Y5.786366 Z0.000000 I-0.269669 J-0.768747
G02 X120.341400 Y5.670931 Z0.000000 I-0.513988 J-0.577789
G02 X120.427331 Y5.522957 Z0.000000 I-0.599052 J-0.446819
G02 X120.478517 Y5.360126 Z0.000000 I-0.733682 J-0.320091
G02 X120.500091 Y5.141460 Z0.000000 I-1.085489 J-0.217493
G01 X120.500091 Y5.141460 Z0.000000
G02 X120.478502 Y4.922793 Z0.000000 I-1.107612 J-0.001048
G02 X120.427319 Y4.759962 Z0.000000 I-0.785042 J0.157308
G02 X120.341396 Y4.611989 Z0.000000 I-0.685014 J0.298831
G02 X120.235507 Y4.496554 Z0.000000 I-0.619750 J0.462211
G02 X119.963696 Y4.336467 Z0.000000 I-0.541459 J0.608548
G02 X119.641297 Y4.281557 Z0.000000 I-0.322399 J0.919003
G02 X119.318900 Y4.336466 Z0.000000 I-0.000000 J0.973914
G02 X119.047087 Y4.496554 Z0.000000 I0.269646 J0.768635
G02 X118.941195 Y4.611988 Z0.000000 I0.514008 J0.577801
G02 X118.855264 Y4.759962 Z0.000000 I0.599065 J0.446827
G02 X118.804078 Y4.922794 Z0.000000 I0.733686 J0.320095
G02 X118.782503 Y5.141460 Z0.000000 I1.085467 J0.217493
G01 X118.782503 Y5.141460 Z0.000000
G02 X118.804092 Y5.360126 Z0.000000 I1.107590 J0.001048
G02 X118.855276 Y5.522957 Z0.000000 I0.785047 J-0.157312
G02 X118.941200 Y5.670931 Z0.000000 I0.685028 J-0.298839
G02 X119.047087 Y5.786366 Z0.000000 I0.619768 J-0.462224
G02 X119.318893 Y5.946427 Z0.000000 I0.541474 J-0.608687
G02 X119.641297 Y6.001334 Z0.000000 I0.322404 J-0.919084
G01 X119.641297 Y6.001334 Z0.000000
M63 P0

(End cutting path id: path4079)


(Start cutting path id: path4077)
(Change tool to Default tool)

M63 P0
G00 X22.141236 Y162.282455

M62 P0(Penetrate)
G03 X21.729032 Y162.212975 Z0.000000 I0.000000 J-1.257479 F200.000000
G03 X21.359613 Y161.996372 Z0.000000 I0.359803 J-1.036974
G03 X21.214765 Y161.836870 Z0.000000 I0.670951 J-0.754828
G03 X21.098694 Y161.634662 Z0.000000 I0.863165 J-0.629892
G03 X21.028128 Y161.412935 Z0.000000 I1.030333 J-0.450000
G03 X21.000220 Y161.140889 Z0.000000 I1.312004 J-0.272046
G03 X21.028128 Y160.868841 Z0.000000 I1.339928 J-0.000000
G03 X21.098694 Y160.647113 Z0.000000 I1.100907 J0.228274
G03 X21.214765 Y160.444904 Z0.000000 I0.979248 J0.427686
G03 X21.359613 Y160.285400 Z0.000000 I0.815821 J0.595339
G03 X21.729037 Y160.069096 Z0.000000 I0.726770 J0.817626
G03 X22.141236 Y159.999873 Z0.000000 I0.412199 J1.192639
G03 X22.553146 Y160.069141 Z0.000000 I0.000000 J1.259376
G03 X22.922308 Y160.285400 Z0.000000 I-0.357987 J1.034311
G03 X23.067230 Y160.444886 Z0.000000 I-0.673028 J0.757154
G03 X23.183503 Y160.647113 Z0.000000 I-0.863947 J0.631278
G03 X23.254255 Y160.868862 Z0.000000 I-1.029629 J0.450677
G03 X23.282252 Y161.140889 Z0.000000 I-1.307542 J0.272026
G03 X23.254255 Y161.412913 Z0.000000 I-1.335523 J0.000000
G03 X23.183503 Y161.634662 Z0.000000 I-1.100372 J-0.228927
G03 X23.067230 Y161.836888 Z0.000000 I-0.980209 J-0.429048
G03 X22.922308 Y161.996372 Z0.000000 I-0.817927 J-0.597656
G03 X22.553151 Y162.212930 Z0.000000 I-0.729606 J-0.820803
G03 X22.141236 Y162.282455 Z0.000000 I-0.411915 J-1.185480
G01 X22.141236 Y162.282455 Z0.000000
M63 P0

(End cutting path id: path4077)


(Start cutting path id: path4077)
(Change tool to Default tool)

M63 P0
G00 X22.141236 Y162.000233

M62 P0(Penetrate)
G02 X22.463283 Y161.945529 Z0.000000 I0.000000 J-0.975307 F200.000000
G02 X22.734895 Y161.785809 Z0.000000 I-0.268388 J-0.767213
G02 X22.840784 Y161.670433 Z0.000000 I-0.512849 J-0.576960
G02 X22.926864 Y161.522318 Z0.000000 I-0.601015 J-0.448363
G02 X22.978243 Y161.359342 Z0.000000 I-0.735948 J-0.321596
G02 X23.000030 Y161.140889 Z0.000000 I-1.084315 J-0.218454
G02 X22.978228 Y160.922480 Z0.000000 I-1.104938 J0.000000
G02 X22.926864 Y160.759733 Z0.000000 I-0.785158 J0.158323
G02 X22.840809 Y160.611848 Z0.000000 I-0.685664 J0.300011
G02 X22.734895 Y160.496516 Z0.000000 I-0.620316 J0.463363
G02 X22.463284 Y160.336799 Z0.000000 I-0.540003 J0.607510
G02 X22.141236 Y160.282095 Z0.000000 I-0.322048 J0.920609
G02 X21.819188 Y160.336799 Z0.000000 I0.000000 J0.975315
G02 X21.547577 Y160.496516 Z0.000000 I0.268390 J0.767224
G02 X21.441663 Y160.611848 Z0.000000 I0.514401 J0.578695
G02 X21.355608 Y160.759733 Z0.000000 I0.599609 J0.447896
G02 X21.304244 Y160.922480 Z0.000000 I0.733794 J0.321070
G02 X21.282443 Y161.140889 Z0.000000 I1.083137 J0.218409
G02 X21.304229 Y161.359342 Z0.000000 I1.106102 J0.000000
G02 X21.355608 Y161.522318 Z0.000000 I0.787327 J-0.158620
G02 X21.441688 Y161.670433 Z0.000000 I0.687095 J-0.300248
G02 X21.547577 Y161.785809 Z0.000000 I0.618738 J-0.461585
G02 X21.819189 Y161.945529 Z0.000000 I0.540001 J-0.607496
G02 X22.141236 Y162.000233 Z0.000000 I0.322047 J-0.920601
G01 X22.141236 Y162.000233 Z0.000000
M63 P0

(End cutting path id: path4077)


(Start cutting path id: path4075)
(Change tool to Default tool)

M63 P0
G00 X22.141236 Y6.282456

M62 P0(Penetrate)
G03 X21.729033 Y6.212987 Z0.000000 I0.000000 J-1.257671 F200.000000
G03 X21.359613 Y5.996395 Z0.000000 I0.359687 J-1.036823
G03 X21.214765 Y5.836889 Z0.000000 I0.670970 J-0.754827
G03 X21.098694 Y5.634675 Z0.000000 I0.863219 J-0.629911
G03 X21.028128 Y5.412942 Z0.000000 I1.030391 J-0.450014
G03 X21.000220 Y5.140895 Z0.000000 I1.312027 J-0.272047
G03 X21.028129 Y4.868850 Z0.000000 I1.339879 J-0.000000
G03 X21.098694 Y4.647130 Z0.000000 I1.100843 J0.228266
G03 X21.214764 Y4.444927 Z0.000000 I0.979215 J0.427685
G03 X21.359613 Y4.285423 Z0.000000 I0.815888 J0.595401
G03 X21.729038 Y4.069103 Z0.000000 I0.726855 J0.817697
G03 X22.141236 Y3.999871 Z0.000000 I0.412198 J1.192457
G03 X22.553145 Y4.069148 Z0.000000 I0.000000 J1.259203
G03 X22.922308 Y4.285423 Z0.000000 I-0.358071 J1.034399
G03 X23.067231 Y4.444909 Z0.000000 I-0.673094 J0.757217
G03 X23.183503 Y4.647130 Z0.000000 I-0.863915 J0.631270
G03 X23.254254 Y4.868872 Z0.000000 I-1.029565 J0.450663
G03 X23.282252 Y5.140895 Z0.000000 I-1.307492 J0.272023
G03 X23.254255 Y5.412920 Z0.000000 I-1.335545 J-0.000000
G03 X23.183503 Y5.634675 Z0.000000 I-1.100431 J-0.228936
G03 X23.067229 Y5.836907 Z0.000000 I-0.980263 J-0.429061
G03 X22.922308 Y5.996395 Z0.000000 I-0.817946 J-0.597650
G03 X22.553150 Y6.212943 Z0.000000 I-0.729491 J-0.820663
G03 X22.141236 Y6.282456 Z0.000000 I-0.411914 J-1.185684
G01 X22.141236 Y6.282456 Z0.000000
M63 P0

(End cutting path id: path4075)


(Start cutting path id: path4075)
(Change tool to Default tool)

M63 P0
G00 X22.141236 Y6.000234

M62 P0(Penetrate)
G02 X22.463285 Y5.945536 Z0.000000 I-0.000000 J-0.975436 F200.000000
G02 X22.734895 Y5.785829 Z0.000000 I-0.268331 J-0.767159
G02 X22.840783 Y5.670454 Z0.000000 I-0.512777 J-0.576891
G02 X22.926864 Y5.522333 Z0.000000 I-0.601047 J-0.448373
G02 X22.978243 Y5.359350 Z0.000000 I-0.736009 J-0.321611
G02 X23.000030 Y5.140895 Z0.000000 I-1.084351 J-0.218455
G02 X22.978229 Y4.922488 Z0.000000 I-1.104933 J-0.000000
G02 X22.926864 Y4.759740 Z0.000000 I-0.785166 J0.158324
G02 X22.840809 Y4.611854 Z0.000000 I-0.685656 J0.300006
G02 X22.734895 Y4.496525 Z0.000000 I-0.620251 J0.463317
G02 X22.463285 Y4.336804 Z0.000000 I-0.540066 J0.607593
G02 X22.141236 Y4.282093 Z0.000000 I-0.322049 J0.920498
G02 X21.819187 Y4.336804 Z0.000000 I-0.000000 J0.975210
G02 X21.547577 Y4.496525 Z0.000000 I0.268455 J0.767312
G02 X21.441663 Y4.611854 Z0.000000 I0.514337 J0.578646
G02 X21.355608 Y4.759740 Z0.000000 I0.599601 J0.447892
G02 X21.304243 Y4.922488 Z0.000000 I0.733801 J0.321072
G02 X21.282443 Y5.140895 Z0.000000 I1.083132 J0.218407
G02 X21.304229 Y5.359350 Z0.000000 I1.106138 J0.000000
G02 X21.355608 Y5.522333 Z0.000000 I0.787387 J-0.158628
G02 X21.441689 Y5.670454 Z0.000000 I0.687128 J-0.300252
G02 X21.547577 Y5.785829 Z0.000000 I0.618666 J-0.461516
G02 X21.819188 Y5.945536 Z0.000000 I0.539942 J-0.607454
G02 X22.141236 Y6.000234 Z0.000000 I0.322049 J-0.920737
G01 X22.141236 Y6.000234 Z0.000000
M63 P0

(End cutting path id: path4075)


(Start cutting path id: path4073)
(Change tool to Default tool)

M63 P0
G00 X119.641297 Y162.283556

M62 P0(Penetrate)
G03 X119.229058 Y162.214111 Z0.000000 I0.000000 J-1.258294 F200.000000
G03 X118.859674 Y161.997476 Z0.000000 I0.359042 J-1.035434
G03 X118.714837 Y161.837888 Z0.000000 I0.672136 J-0.755532
G03 X118.598687 Y161.635482 Z0.000000 I0.864530 J-0.630635
G03 X118.528089 Y161.413569 Z0.000000 I1.030840 J-0.450131
G03 X118.500281 Y161.141439 Z0.000000 I1.309215 J-0.271271
G03 X118.528056 Y160.869099 Z0.000000 I1.339042 J-0.001024
G03 X118.598627 Y160.647056 Z0.000000 I1.102078 J0.228033
G03 X118.714782 Y160.444528 Z0.000000 I0.980840 J0.427968
G03 X118.859674 Y160.284850 Z0.000000 I0.816773 J0.595560
G03 X119.229057 Y160.068215 Z0.000000 I0.728439 J0.818826
G03 X119.641297 Y159.998769 Z0.000000 I0.412240 J1.188834
G03 X120.053539 Y160.068216 Z0.000000 I-0.000000 J1.258279
G03 X120.422920 Y160.284850 Z0.000000 I-0.359058 J1.035459
G03 X120.567757 Y160.444437 Z0.000000 I-0.672129 J0.755524
G03 X120.683907 Y160.646845 Z0.000000 I-0.864538 J0.630637
G03 X120.754505 Y160.868758 Z0.000000 I-1.030851 J0.450134
G03 X120.782313 Y161.140889 Z0.000000 I-1.309220 J0.271271
G03 X120.754538 Y161.413229 Z0.000000 I-1.339042 J0.001024
G03 X120.683967 Y161.635272 Z0.000000 I-1.102072 J-0.228031
G03 X120.567812 Y161.837798 Z0.000000 I-0.980828 J-0.427964
G03 X120.422920 Y161.997476 Z0.000000 I-0.816750 J-0.595547
G03 X120.053538 Y162.214110 Z0.000000 I-0.728425 J-0.818798
G03 X119.641297 Y162.283556 Z0.000000 I-0.412241 J-1.188848
G01 X119.641297 Y162.283556 Z0.000000
M63 P0

(End cutting path id: path4073)


(Start cutting path id: path4073)
(Change tool to Default tool)

M63 P0
G00 X119.641297 Y162.001334

M62 P0(Penetrate)
G02 X119.963701 Y161.946426 Z0.000000 I0.000000 J-0.973990 F200.000000
G02 X120.235507 Y161.786359 Z0.000000 I-0.269650 J-0.768698
G02 X120.341400 Y161.670921 Z0.000000 I-0.514021 J-0.577803
G02 X120.427331 Y161.522943 Z0.000000 I-0.599089 J-0.446832
G02 X120.478517 Y161.360108 Z0.000000 I-0.733718 J-0.320099
G02 X120.500091 Y161.141439 Z0.000000 I-1.085518 J-0.217496
G01 X120.500091 Y161.140875 Z0.000000
G02 X120.478502 Y160.922204 Z0.000000 I-1.107658 J-0.001048
G02 X120.427319 Y160.759369 Z0.000000 I-0.785081 J0.157312
G02 X120.341396 Y160.611391 Z0.000000 I-0.685050 J0.298838
G02 X120.235507 Y160.495952 Z0.000000 I-0.619782 J0.462220
G02 X119.963701 Y160.335886 Z0.000000 I-0.541471 J0.608659
G02 X119.641297 Y160.280977 Z0.000000 I-0.322404 J0.919067
G02 X119.318894 Y160.335886 Z0.000000 I0.000000 J0.973976
G02 X119.047087 Y160.495952 Z0.000000 I0.269663 J0.768725
G02 X118.941195 Y160.611390 Z0.000000 I0.514040 J0.577814
G02 X118.855264 Y160.759369 Z0.000000 I0.599101 J0.446839
G02 X118.804078 Y160.922204 Z0.000000 I0.733725 J0.320103
G02 X118.782503 Y161.140875 Z0.000000 I1.085512 J0.217498
G01 X118.782503 Y161.141439 Z0.000000
G02 X118.804092 Y161.360108 Z0.000000 I1.107619 J0.001048
G02 X118.855276 Y161.522943 Z0.000000 I0.785084 J-0.157317
G02 X118.941200 Y161.670920 Z0.000000 I0.685064 J-0.298848
G02 X119.047087 Y161.786359 Z0.000000 I0.619801 J-0.462234
G02 X119.318895 Y161.946427 Z0.000000 I0.541457 J-0.608631
G02 X119.641297 Y162.001334 Z0.000000 I0.322402 J-0.919084
G01 X119.641297 Y162.001334 Z0.000000
M63 P0

(End cutting path id: path4073)


(Start cutting path id: path4071)
(Change tool to Default tool)

M63 P0
G00 X22.141236 Y79.282110

M62 P0(Penetrate)
G03 X21.729037 Y79.212887 Z0.000000 I-0.000000 J-1.261862 F200.000000
G03 X21.359613 Y78.996583 Z0.000000 I0.357346 J-1.033930
G03 X21.214765 Y78.837079 Z0.000000 I0.670973 J-0.754842
G03 X21.098694 Y78.634870 Z0.000000 I0.863176 J-0.629896
G03 X21.028128 Y78.413142 Z0.000000 I1.030341 J-0.450001
G03 X21.000220 Y78.141094 Z0.000000 I1.312020 J-0.272048
G03 X21.028128 Y77.869048 Z0.000000 I1.339912 J0.000000
G03 X21.098694 Y77.647321 Z0.000000 I1.100899 J0.228273
G03 X21.214765 Y77.445112 Z0.000000 I0.979237 J0.427684
G03 X21.359613 Y77.285611 Z0.000000 I0.815799 J0.595326
G03 X21.729038 Y77.069304 Z0.000000 I0.726769 J0.817612
G03 X22.141236 Y77.000081 Z0.000000 I0.412198 J1.192631
G03 X22.553146 Y77.069349 Z0.000000 I-0.000000 J1.259368
G03 X22.922308 Y77.285611 Z0.000000 I-0.357985 J1.034300
G03 X23.067230 Y77.445095 Z0.000000 I-0.673006 J0.757140
G03 X23.183503 Y77.647321 Z0.000000 I-0.863936 J0.631274
G03 X23.254255 Y77.869069 Z0.000000 I-1.029620 J0.450676
G03 X23.282252 Y78.141094 Z0.000000 I-1.307526 J0.272024
G03 X23.254255 Y78.413120 Z0.000000 I-1.335539 J-0.000000
G03 X23.183503 Y78.634870 Z0.000000 I-1.100381 J-0.228928
G03 X23.067230 Y78.837097 Z0.000000 I-0.980220 J-0.429051
G03 X22.922308 Y78.996583 Z0.000000 I-0.817950 J-0.597668
G03 X22.553146 Y79.212842 Z0.000000 I-0.727149 J-0.818052
G03 X22.141236 Y79.282110 Z0.000000 I-0.411910 J-1.190108
G01 X22.141236 Y79.282110 Z0.000000
M63 P0

(End cutting path id: path4071)


(Start cutting path id: path4071)
(Change tool to Default tool)

M63 P0
G00 X22.141236 Y78.999888

M62 P0(Penetrate)
G02 X22.463284 Y78.945183 Z0.000000 I-0.000000 J-0.975315 F200.000000
G02 X22.734895 Y78.785466 Z0.000000 I-0.268390 J-0.767224
G02 X22.840809 Y78.670135 Z0.000000 I-0.514401 J-0.578695
G02 X22.926864 Y78.522249 Z0.000000 I-0.599609 J-0.447896
G02 X22.978228 Y78.359502 Z0.000000 I-0.733794 J-0.321070
G02 X23.000030 Y78.141094 Z0.000000 I-1.083137 J-0.218409
G02 X22.978229 Y77.922687 Z0.000000 I-1.104921 J-0.000000
G02 X22.926864 Y77.759941 Z0.000000 I-0.785156 J0.158323
G02 X22.840809 Y77.612056 Z0.000000 I-0.685664 J0.300012
G02 X22.734895 Y77.496724 Z0.000000 I-0.620317 J0.463365
G02 X22.463284 Y77.337007 Z0.000000 I-0.540003 J0.607510
G02 X22.141236 Y77.282303 Z0.000000 I-0.322048 J0.920609
G02 X21.819188 Y77.337007 Z0.000000 I0.000000 J0.975315
G02 X21.547577 Y77.496724 Z0.000000 I0.268390 J0.767224
G02 X21.441663 Y77.612056 Z0.000000 I0.514403 J0.578697
G02 X21.355608 Y77.759941 Z0.000000 I0.599609 J0.447897
G02 X21.304244 Y77.922687 Z0.000000 I0.733791 J0.321070
G02 X21.282443 Y78.141094 Z0.000000 I1.083120 J0.218407
G02 X21.304244 Y78.359502 Z0.000000 I1.104938 J-0.000000
G02 X21.355608 Y78.522249 Z0.000000 I0.785158 J-0.158323
G02 X21.441663 Y78.670135 Z0.000000 I0.685664 J-0.300011
G02 X21.547577 Y78.785466 Z0.000000 I0.620316 J-0.463363
G02 X21.819188 Y78.945183 Z0.000000 I0.540003 J-0.607510
G02 X22.141236 Y78.999888 Z0.000000 I0.322048 J-0.920609
G01 X22.141236 Y78.999888 Z0.000000
M63 P0

(End cutting path id: path4071)


(Start cutting path id: path4069)
(Change tool to Default tool)

M63 P0
G00 X41.641029 Y125.783183

M62 P0(Penetrate)
G03 X41.228786 Y125.713737 Z0.000000 I-0.000000 J-1.258306 F200.000000
G03 X40.859403 Y125.497102 Z0.000000 I0.359040 J-1.035431
G03 X40.714474 Y125.337471 Z0.000000 I0.673628 J-0.757192
G03 X40.598317 Y125.135173 Z0.000000 I0.863098 J-0.630077
G03 X40.527755 Y124.913360 Z0.000000 I1.028671 J-0.449366
G03 X40.500013 Y124.641066 Z0.000000 I1.308501 J-0.270873
G03 X40.527802 Y124.368770 Z0.000000 I1.337957 J-0.001023
G03 X40.598359 Y124.146958 Z0.000000 I1.099856 J0.227727
G03 X40.714489 Y123.944661 Z0.000000 I0.979371 J0.427734
G03 X40.859403 Y123.785027 Z0.000000 I0.818160 J0.597129
G03 X41.228786 Y123.568393 Z0.000000 I0.728437 J0.818824
G03 X41.641029 Y123.498947 Z0.000000 I0.412244 J1.188846
G03 X42.053269 Y123.568392 Z0.000000 I0.000000 J1.258280
G03 X42.422652 Y123.785027 Z0.000000 I-0.359056 J1.035460
G03 X42.567581 Y123.944659 Z0.000000 I-0.673621 J0.757184
G03 X42.683738 Y124.146958 Z0.000000 I-0.863106 J0.630079
G03 X42.754301 Y124.368772 Z0.000000 I-1.028683 J0.449369
G03 X42.782042 Y124.641066 Z0.000000 I-1.308506 J0.270873
G03 X42.754254 Y124.913362 Z0.000000 I-1.337952 J0.001023
G03 X42.683697 Y125.135173 Z0.000000 I-1.099844 J-0.227726
G03 X42.567567 Y125.337469 Z0.000000 I-0.979364 J-0.427732
G03 X42.422652 Y125.497102 Z0.000000 I-0.818167 J-0.597137
G03 X42.053269 Y125.713738 Z0.000000 I-0.728425 J-0.818799
G03 X41.641029 Y125.783183 Z0.000000 I-0.412239 J-1.188849
G01 X41.641029 Y125.783183 Z0.000000
M63 P0

(End cutting path id: path4069)


(Start cutting path id: path4069)
(Change tool to Default tool)

M63 P0
G00 X41.641029 Y125.500960

M62 P0(Penetrate)
G02 X41.963426 Y125.446317 Z0.000000 I0.000000 J-0.978402 F200.000000
G02 X42.235237 Y125.286539 Z0.000000 I-0.267232 J-0.765697
G02 X42.341105 Y125.171054 Z0.000000 I-0.512541 J-0.576127
G02 X42.427062 Y125.022845 Z0.000000 I-0.600506 J-0.447306
G02 X42.478262 Y124.859781 Z0.000000 I-0.735859 J-0.320620
G02 X42.499820 Y124.641066 Z0.000000 I-1.086659 J-0.217531
G02 X42.478246 Y124.422348 Z0.000000 I-1.108830 J-0.001049
G02 X42.427048 Y124.259285 Z0.000000 I-0.787246 J0.157607
G02 X42.341100 Y124.111077 Z0.000000 I-0.686484 J0.299077
G02 X42.235237 Y123.995593 Z0.000000 I-0.618242 J0.460472
G02 X41.963426 Y123.835813 Z0.000000 I-0.539055 J0.605933
G02 X41.641029 Y123.781169 Z0.000000 I-0.322397 J0.923735
G02 X41.318629 Y123.835814 Z0.000000 I-0.000000 J0.978392
G02 X41.046819 Y123.995593 Z0.000000 I0.267243 J0.765709
G02 X40.940951 Y124.111077 Z0.000000 I0.512515 J0.576110
G02 X40.854994 Y124.259285 Z0.000000 I0.600494 J0.447300
G02 X40.803794 Y124.422349 Z0.000000 I0.735855 J0.320618
G02 X40.782235 Y124.641066 Z0.000000 I1.086675 J0.217533
G02 X40.803810 Y124.859782 Z0.000000 I1.108813 J0.001049
G02 X40.855008 Y125.022845 Z0.000000 I0.787249 J-0.157609
G02 X40.940955 Y125.171053 Z0.000000 I0.686496 J-0.299082
G02 X41.046819 Y125.286539 Z0.000000 I0.618268 J-0.460488
G02 X41.318629 Y125.446317 Z0.000000 I0.539041 J-0.605916
G02 X41.641029 Y125.500960 Z0.000000 I0.322400 J-0.923771
G01 X41.641029 Y125.500960 Z0.000000
M63 P0

(End cutting path id: path4069)


(Start cutting path id: path4067)
(Change tool to Default tool)

M63 P0
G00 X119.641297 Y79.283213

M62 P0(Penetrate)
G03 X119.229057 Y79.213767 Z0.000000 I-0.000000 J-1.258280 F200.000000
G03 X118.859674 Y78.997133 Z0.000000 I0.359056 J-1.035460
G03 X118.714743 Y78.837501 Z0.000000 I0.673619 J-0.757192
G03 X118.598585 Y78.635203 Z0.000000 I0.863087 J-0.630074
G03 X118.528023 Y78.413390 Z0.000000 I1.028665 J-0.449364
G03 X118.500281 Y78.141094 Z0.000000 I1.308514 J-0.270875
G03 X118.528070 Y77.868798 Z0.000000 I1.337949 J-0.001023
G03 X118.598627 Y77.646987 Z0.000000 I1.099836 J0.227724
G03 X118.714757 Y77.444691 Z0.000000 I0.979354 J0.427731
G03 X118.859674 Y77.285057 Z0.000000 I0.818161 J0.597138
G03 X119.229057 Y77.068423 Z0.000000 I0.728439 J0.818826
G03 X119.641297 Y76.998977 Z0.000000 I0.412240 J1.188834
G03 X120.053539 Y77.068424 Z0.000000 I-0.000000 J1.258279
G03 X120.422920 Y77.285057 Z0.000000 I-0.359058 J1.035459
G03 X120.567851 Y77.444689 Z0.000000 I-0.673620 J0.757193
G03 X120.684009 Y77.646987 Z0.000000 I-0.863088 J0.630075
G03 X120.754571 Y77.868800 Z0.000000 I-1.028663 J0.449364
G03 X120.782313 Y78.141094 Z0.000000 I-1.308498 J0.270873
G03 X120.754524 Y78.413392 Z0.000000 I-1.337965 J0.001023
G03 X120.683967 Y78.635203 Z0.000000 I-1.099838 J-0.227724
G03 X120.567837 Y78.837499 Z0.000000 I-0.979353 J-0.427729
G03 X120.422920 Y78.997133 Z0.000000 I-0.818160 J-0.597136
G03 X120.053539 Y79.213767 Z0.000000 I-0.728439 J-0.818826
G03 X119.641297 Y79.283213 Z0.000000 I-0.412242 J-1.188833
G01 X119.641297 Y79.283213 Z0.000000
M63 P0

(End cutting path id: path4067)


(Start cutting path id: path4067)
(Change tool to Default tool)

M63 P0
G00 X119.641297 Y79.000991

M62 P0(Penetrate)
G02 X119.963695 Y78.946347 Z0.000000 I0.000000 J-0.978394 F200.000000
G02 X120.235507 Y78.786567 Z0.000000 I-0.267239 J-0.765708
G02 X120.341375 Y78.671083 Z0.000000 I-0.512504 J-0.576098
G02 X120.427331 Y78.522875 Z0.000000 I-0.600497 J-0.447299
G02 X120.478531 Y78.359811 Z0.000000 I-0.735870 J-0.320622
G02 X120.500091 Y78.141094 Z0.000000 I-1.086720 J-0.217543
G02 X120.478517 Y77.922378 Z0.000000 I-1.108813 J-0.001049
G02 X120.427319 Y77.759315 Z0.000000 I-0.787243 J0.157608
G02 X120.341371 Y77.611108 Z0.000000 I-0.686485 J0.299078
G02 X120.235507 Y77.495623 Z0.000000 I-0.618243 J0.460473
G02 X119.963695 Y77.335843 Z0.000000 I-0.539052 J0.605928
G02 X119.641297 Y77.281199 Z0.000000 I-0.322398 J0.923750
G02 X119.318901 Y77.335842 Z0.000000 I-0.000000 J0.978395
G02 X119.047087 Y77.495623 Z0.000000 I0.267238 J0.765709
G02 X118.941220 Y77.611107 Z0.000000 I0.512525 J0.576111
G02 X118.855264 Y77.759315 Z0.000000 I0.600511 J0.447309
G02 X118.804063 Y77.922379 Z0.000000 I0.735872 J0.320626
G02 X118.782503 Y78.141094 Z0.000000 I1.086681 J0.217541
G02 X118.804078 Y78.359812 Z0.000000 I1.108808 J0.001049
G02 X118.855276 Y78.522875 Z0.000000 I0.787250 J-0.157611
G02 X118.941225 Y78.671083 Z0.000000 I0.686498 J-0.299085
G02 X119.047087 Y78.786567 Z0.000000 I0.618261 J-0.460485
G02 X119.318901 Y78.946348 Z0.000000 I0.539052 J-0.605928
G02 X119.641297 Y79.000991 Z0.000000 I0.322396 J-0.923752
G01 X119.641297 Y79.000991 Z0.000000
M63 P0

(End cutting path id: path4067)


(Start cutting path id: path4065)
(Change tool to Default tool)

M63 P0
G00 X100.140955 Y125.782082

M62 P0(Penetrate)
G03 X99.729044 Y125.712813 Z0.000000 I0.000000 J-1.259357 F200.000000
G03 X99.359882 Y125.496552 Z0.000000 I0.357998 J-1.034323
G03 X99.214961 Y125.337066 Z0.000000 I0.673030 J-0.757155
G03 X99.098688 Y125.134840 Z0.000000 I0.863949 J-0.631279
G03 X99.027936 Y124.913090 Z0.000000 I1.029628 J-0.450678
G03 X98.999939 Y124.641066 Z0.000000 I1.307526 J-0.272024
G03 X99.027936 Y124.369040 Z0.000000 I1.335539 J-0.000000
G03 X99.098688 Y124.147290 Z0.000000 I1.100375 J0.228927
G03 X99.214961 Y123.945064 Z0.000000 I0.980209 J0.429047
G03 X99.359882 Y123.785580 Z0.000000 I0.817927 J0.597655
G03 X99.729045 Y123.569318 Z0.000000 I0.727146 J0.818035
G03 X100.140955 Y123.500050 Z0.000000 I0.411910 J1.190103
G03 X100.553153 Y123.569273 Z0.000000 I-0.000000 J1.261854
G03 X100.922578 Y123.785580 Z0.000000 I-0.357344 J1.033917
G03 X101.067425 Y123.945082 Z0.000000 I-0.670954 J0.754830
G03 X101.183497 Y124.147290 Z0.000000 I-0.863166 J0.629893
G03 X101.254063 Y124.369018 Z0.000000 I-1.030335 J0.450001
G03 X101.281971 Y124.641066 Z0.000000 I-1.312014 J0.272048
G03 X101.254063 Y124.913112 Z0.000000 I-1.339906 J-0.000000
G03 X101.183497 Y125.134840 Z0.000000 I-1.100905 J-0.228276
G03 X101.067426 Y125.337049 Z0.000000 I-0.979251 J-0.427690
G03 X100.922578 Y125.496552 Z0.000000 I-0.815826 J-0.595343
G03 X100.553154 Y125.712858 Z0.000000 I-0.726782 J-0.817637
G03 X100.140955 Y125.782082 Z0.000000 I-0.412199 J-1.192615
G01 X100.140955 Y125.782082 Z0.000000
M63 P0

(End cutting path id: path4065)


(Start cutting path id: path4065)
(Change tool to Default tool)

M63 P0
G00 X100.140955 Y125.499860

M62 P0(Penetrate)
G02 X100.463000 Y125.445156 Z0.000000 I-0.000000 J-0.975298 F200.000000
G02 X100.734612 Y125.285436 Z0.000000 I-0.268390 J-0.767217
G02 X100.840527 Y125.170104 Z0.000000 I-0.514409 J-0.578705
G02 X100.926583 Y125.022219 Z0.000000 I-0.599610 J-0.447900
G02 X100.977947 Y124.859472 Z0.000000 I-0.733788 J-0.321072
G02 X100.999749 Y124.641066 Z0.000000 I-1.083105 J-0.218406
G02 X100.977947 Y124.422658 Z0.000000 I-1.104922 J-0.000000
G02 X100.926583 Y124.259910 Z0.000000 I-0.785155 J0.158324
G02 X100.840527 Y124.112025 Z0.000000 I-0.685665 J0.300014
G02 X100.734612 Y123.996693 Z0.000000 I-0.620322 J0.463371
G02 X100.463001 Y123.836976 Z0.000000 I-0.540004 J0.607511
G02 X100.140955 Y123.782272 Z0.000000 I-0.322046 J0.920602
G02 X99.818906 Y123.836977 Z0.000000 I-0.000000 J0.975318
G02 X99.547295 Y123.996693 Z0.000000 I0.268391 J0.767225
G02 X99.441381 Y124.112025 Z0.000000 I0.514396 J0.578690
G02 X99.355326 Y124.259910 Z0.000000 I0.599606 J0.447893
G02 X99.303962 Y124.422657 Z0.000000 I0.733794 J0.321068
G02 X99.282161 Y124.641066 Z0.000000 I1.083147 J0.218409
G02 X99.303962 Y124.859473 Z0.000000 I1.104931 J0.000000
G02 X99.355326 Y125.022219 Z0.000000 I0.785156 J-0.158322
G02 X99.441380 Y125.170104 Z0.000000 I0.685662 J-0.300009
G02 X99.547295 Y125.285436 Z0.000000 I0.620311 J-0.463359
G02 X99.818906 Y125.445155 Z0.000000 I0.540000 J-0.607495
G02 X100.140955 Y125.499860 Z0.000000 I0.322049 J-0.920606
G01 X100.140955 Y125.499860 Z0.000000
M63 P0

(End cutting path id: path4065)


(Start cutting path id: path4063)
(Change tool to Default tool)

M63 P0
G00 X141.639196 Y12.534355

M62 P0(Penetrate)
G03 X141.585364 Y12.522771 Z0.000000 I0.002204 J-0.141108 F200.000000
G03 X141.540063 Y12.491467 Z0.000000 I0.056036 J-0.129523
G03 X141.510189 Y12.445211 Z0.000000 I0.101337 J-0.098220
G03 X141.500292 Y12.391043 Z0.000000 I0.131210 J-0.051963
G02 X141.245677 Y9.914584 Z0.000000 I-12.205768 J0.003606
G02 X140.547878 Y7.678198 Z0.000000 I-11.741737 J2.436607
G02 X139.426503 Y5.614525 Z0.000000 I-11.113393 J4.702381
G02 X137.952913 Y3.830509 Z0.000000 I-10.081307 J6.826516
G02 X136.168416 Y2.357500 Z0.000000 I-8.607819 J8.610634
G02 X134.104363 Y1.236776 Z0.000000 I-6.763145 J9.994712
G02 X131.867735 Y0.539667 Z0.000000 I-4.669781 J11.046103
G02 X129.391194 Y0.285798 Z0.000000 I-2.476541 J11.952614
G03 X129.319791 Y0.267565 Z0.000000 I-0.001996 J-0.141111
G03 X129.267315 Y0.215825 Z0.000000 I0.069407 J-0.122878
G03 X129.248073 Y0.144687 Z0.000000 I0.121884 J-0.071138
G03 X129.267315 Y0.073549 Z0.000000 I0.141125 J-0.000000
G03 X129.319791 Y0.021809 Z0.000000 I0.121884 J0.071138
G03 X129.391194 Y0.003576 Z0.000000 I0.069407 J0.122878
G03 X131.924190 Y0.263447 Z0.000000 I0.000000 J12.474657
G03 X134.212774 Y0.977204 Z0.000000 I-2.491480 J12.014584
G03 X136.324758 Y2.124398 Z0.000000 I-4.812449 J11.377392
G03 X138.151158 Y3.632206 Z0.000000 I-6.989788 J10.326754
G03 X139.659536 Y5.458134 Z0.000000 I-8.816177 J8.818935
G03 X140.807389 Y7.569760 Z0.000000 I-10.227978 J6.927593
G03 X141.521858 Y9.858121 Z0.000000 I-11.299268 J4.783554
G03 X141.782514 Y12.391043 Z0.000000 I-12.213954 J2.536777
G03 X141.772206 Y12.446235 Z0.000000 I-0.141108 J0.002205
G03 X141.741194 Y12.493040 Z0.000000 I-0.130800 J-0.052988
G03 X141.694388 Y12.524050 Z0.000000 I-0.099789 J-0.099793
G03 X141.639196 Y12.534355 Z0.000000 I-0.052982 J-0.130802
G01 X141.639196 Y12.534355 Z0.000000
M63 P0

(End cutting path id: path4063)


(Start cutting path id: path4061)
(Change tool to Default tool)

M63 P0
G00 X25.880681 Y150.569129

M62 P0(Penetrate)
G03 X25.798047 Y150.535791 Z0.000000 I0.008784 J-0.140852 F200.000000
G03 X25.751858 Y150.459591 Z0.000000 I0.091418 J-0.107513
G03 X25.760527 Y150.370908 Z0.000000 I0.137607 J-0.031314
G03 X25.820598 Y150.305096 Z0.000000 I0.128938 J0.057369
G01 X31.820576 Y146.840708 Z0.000000
G03 X31.892186 Y146.818940 Z0.000000 I0.075381 J0.119307
G03 X31.964856 Y146.836852 Z0.000000 I0.003771 J0.141075
G03 X32.018147 Y146.889404 Z0.000000 I-0.068899 J0.123164
G03 X32.037071 Y146.961818 Z0.000000 I-0.122190 J0.070611
G03 X32.016304 Y147.033724 Z0.000000 I-0.141114 J-0.001803
G03 X31.961687 Y147.084898 Z0.000000 I-0.120347 J-0.073709
G01 X25.961709 Y150.549286 Z0.000000
G03 X25.922694 Y150.565330 Z0.000000 I-0.072578 J-0.121032
G03 X25.880681 Y150.569127 Z0.000000 I-0.033564 J-0.137076
G01 X25.880681 Y150.569129 Z0.000000
M63 P0

(End cutting path id: path4061)


(Start cutting path id: path4059)
(Change tool to Default tool)

M63 P0
G00 X129.391194 Y83.282280

M62 P0(Penetrate)
G03 X129.319791 Y83.264046 Z0.000000 I-0.001996 J-0.141111 F200.000000
G03 X129.267315 Y83.212306 Z0.000000 I0.069407 J-0.122878
G03 X129.248073 Y83.141169 Z0.000000 I0.121884 J-0.071138
G03 X129.267315 Y83.070031 Z0.000000 I0.141125 J-0.000000
G03 X129.319791 Y83.018291 Z0.000000 I0.121884 J0.071138
G03 X129.391194 Y83.000057 Z0.000000 I0.069407 J0.122878
G02 X131.868258 Y82.746075 Z0.000000 I-0.000000 J-12.206276
G02 X134.105258 Y82.048683 Z0.000000 I-2.433642 J-11.742776
G02 X136.169579 Y80.927520 Z0.000000 I-4.700017 J-11.114853
G02 X137.954203 Y79.453968 Z0.000000 I-6.824715 J-10.082890
G02 X139.427754 Y77.669345 Z0.000000 I-8.609338 J-8.609338
G02 X140.548917 Y75.605024 Z0.000000 I-9.993689 J-6.764339
G02 X141.246309 Y73.368024 Z0.000000 I-11.045384 J-4.670642
G02 X141.500292 Y70.890960 Z0.000000 I-11.952294 J-2.477064
G03 X141.518525 Y70.819557 Z0.000000 I0.141111 J-0.001996
G03 X141.570265 Y70.767080 Z0.000000 I0.122878 J0.069407
G03 X141.641403 Y70.747839 Z0.000000 I0.071138 J0.121884
G03 X141.712541 Y70.767080 Z0.000000 I-0.000000 J0.141125
G03 X141.764281 Y70.819557 Z0.000000 I-0.071138 J0.121884
G03 X141.782514 Y70.890960 Z0.000000 I-0.122878 J0.069407
G03 X141.522531 Y73.424493 Z0.000000 I-12.474629 J-0.000000
G03 X140.808491 Y75.713467 Z0.000000 I-12.014346 J-2.491987
G03 X139.660858 Y77.825739 Z0.000000 I-11.376960 J-4.813392
G03 X138.152510 Y79.652276 Z0.000000 I-10.326001 J-6.991116
G03 X136.325973 Y81.160624 Z0.000000 I-8.817653 J-8.817653
G03 X134.213701 Y82.308257 Z0.000000 I-6.925664 J-10.229328
G03 X131.924727 Y83.022297 Z0.000000 I-4.780961 J-11.300307
G03 X129.391194 Y83.282280 Z0.000000 I-2.533533 J-12.214646
G01 X129.391194 Y83.282280 Z0.000000
M63 P0

(End cutting path id: path4059)


(Start cutting path id: path4057)
(Change tool to Default tool)

M63 P0
G00 X6.380889 Y150.569129

M62 P0(Penetrate)
G03 X6.298255 Y150.535791 Z0.000000 I0.008784 J-0.140852 F200.000000
G03 X6.252066 Y150.459591 Z0.000000 I0.091418 J-0.107513
G03 X6.260735 Y150.370908 Z0.000000 I0.137607 J-0.031314
G03 X6.320806 Y150.305096 Z0.000000 I0.128938 J0.057369
G01 X12.320785 Y146.840708 Z0.000000
G03 X12.392394 Y146.818940 Z0.000000 I0.075381 J0.119307
G03 X12.465064 Y146.836852 Z0.000000 I0.003771 J0.141075
G03 X12.518356 Y146.889404 Z0.000000 I-0.068899 J0.123164
G03 X12.537279 Y146.961818 Z0.000000 I-0.122190 J0.070611
G03 X12.516512 Y147.033724 Z0.000000 I-0.141114 J-0.001803
G03 X12.461896 Y147.084898 Z0.000000 I-0.120347 J-0.073709
G01 X6.461917 Y150.549286 Z0.000000
G03 X6.422902 Y150.565330 Z0.000000 I-0.072578 J-0.121032
G03 X6.380889 Y150.569127 Z0.000000 I-0.033564 J-0.137076
G01 X6.380889 Y150.569129 Z0.000000
M63 P0

(End cutting path id: path4057)


(Start cutting path id: path4055)
(Change tool to Default tool)

M63 P0
G00 X12.391340 Y83.282280

M62 P0(Penetrate)
G03 X9.857807 Y83.022297 Z0.000000 I-0.000000 J-12.474631 F200.000000
G03 X7.568833 Y82.308257 Z0.000000 I2.491987 J-12.014346
G03 X5.456561 Y81.160624 Z0.000000 I4.813392 J-11.376960
G03 X3.630024 Y79.652276 Z0.000000 I6.991116 J-10.326000
G03 X2.121676 Y77.825739 Z0.000000 I8.817652 J-8.817652
G03 X0.974043 Y75.713467 Z0.000000 I10.229328 J-6.925664
G03 X0.260004 Y73.424493 Z0.000000 I11.300308 J-4.780961
G03 X0.000021 Y70.890960 Z0.000000 I12.214649 J-2.533534
G03 X0.018254 Y70.819557 Z0.000000 I0.141111 J-0.001996
G03 X0.069994 Y70.767080 Z0.000000 I0.122878 J0.069407
G03 X0.141132 Y70.747839 Z0.000000 I0.071138 J0.121884
G03 X0.212270 Y70.767080 Z0.000000 I-0.000000 J0.141125
G03 X0.264010 Y70.819557 Z0.000000 I-0.071138 J0.121884
G03 X0.282243 Y70.890960 Z0.000000 I-0.122878 J0.069407
G02 X0.536225 Y73.368024 Z0.000000 I12.206278 J-0.000001
G02 X1.233617 Y75.605024 Z0.000000 I11.742777 J-2.433643
G02 X2.354780 Y77.669345 Z0.000000 I11.114853 J-4.700017
G02 X3.828332 Y79.453968 Z0.000000 I10.082890 J-6.824715
G02 X5.612955 Y80.927520 Z0.000000 I8.609338 J-8.609338
G02 X7.677277 Y82.048683 Z0.000000 I6.764339 J-9.993689
G02 X9.914276 Y82.746075 Z0.000000 I4.670642 J-11.045383
G02 X12.391340 Y83.000057 Z0.000000 I2.477064 J-11.952295
G03 X12.462743 Y83.018291 Z0.000000 I0.001996 J0.141111
G03 X12.515220 Y83.070031 Z0.000000 I-0.069407 J0.122878
G03 X12.534461 Y83.141169 Z0.000000 I-0.121884 J0.071138
G03 X12.515220 Y83.212306 Z0.000000 I-0.141125 J-0.000000
G03 X12.462743 Y83.264046 Z0.000000 I-0.121884 J-0.071138
G03 X12.391340 Y83.282280 Z0.000000 I-0.069407 J-0.122878
G01 X12.391340 Y83.282280 Z0.000000
M63 P0

(End cutting path id: path4055)


(Start cutting path id: path4053)
(Change tool to Default tool)

M63 P0
G00 X6.394669 Y92.069204

M62 P0(Penetrate)
G03 X6.305930 Y92.042304 Z0.000000 I-0.005702 J-0.141010 F200.000000
G03 X6.253040 Y91.966140 Z0.000000 I0.083038 J-0.114110
G03 X6.258832 Y91.873595 Z0.000000 I0.135928 J-0.037947
G03 X6.320806 Y91.804620 Z0.000000 I0.130136 J0.054599
G01 X12.320785 Y88.340783 Z0.000000
G03 X12.392400 Y88.318998 Z0.000000 I0.075407 J0.119290
G03 X12.465081 Y88.336904 Z0.000000 I0.003793 J0.141074
G03 X12.518382 Y88.389461 Z0.000000 I-0.068889 J0.123169
G03 X12.537306 Y88.461885 Z0.000000 I-0.122190 J0.070611
G03 X12.516528 Y88.533798 Z0.000000 I-0.141114 J-0.001812
G03 X12.461896 Y88.584970 Z0.000000 I-0.120336 J-0.073726
G01 X6.461917 Y92.049361 Z0.000000
G03 X6.429545 Y92.063524 Z0.000000 I-0.072307 J-0.121194
G03 X6.394669 Y92.069201 Z0.000000 I-0.039934 J-0.135357
G01 X6.394669 Y92.069204 Z0.000000
M63 P0

(End cutting path id: path4053)


(Start cutting path id: path4051)
(Change tool to Default tool)

M63 P0
G00 X6.694530 Y9.242487

M62 P0(Penetrate)
G03 X6.605791 Y9.215587 Z0.000000 I-0.005702 J-0.141010 F200.000000
G03 X6.552901 Y9.139424 Z0.000000 I0.083038 J-0.114110
G03 X6.558693 Y9.046878 Z0.000000 I0.135928 J-0.037947
G03 X6.620667 Y8.977904 Z0.000000 I0.130136 J0.054599
G01 X12.320785 Y5.687164 Z0.000000
G03 X12.392416 Y5.665332 Z0.000000 I0.075487 J0.119240
G03 X12.465132 Y5.683219 Z0.000000 I0.003856 J0.141073
G03 X12.518460 Y5.735791 Z0.000000 I-0.068861 J0.123185
G03 X12.537384 Y5.808245 Z0.000000 I-0.122189 J0.070613
G03 X12.516577 Y5.880180 Z0.000000 I-0.141113 J-0.001841
G03 X12.461896 Y5.931343 Z0.000000 I-0.120306 J-0.073776
G01 X6.761778 Y9.222647 Z0.000000
G03 X6.729400 Y9.236766 Z0.000000 I-0.072156 J-0.121284
G03 X6.694530 Y9.242402 Z0.000000 I-0.039778 J-0.135403
G01 X6.694530 Y9.242487 Z0.000000
M63 P0

(End cutting path id: path4051)


(Start cutting path id: path4049)
(Change tool to Default tool)

M63 P0
G00 X25.894461 Y92.069204

M62 P0(Penetrate)
G03 X25.805722 Y92.042304 Z0.000000 I-0.005702 J-0.141010 F200.000000
G03 X25.752831 Y91.966140 Z0.000000 I0.083038 J-0.114110
G03 X25.758624 Y91.873595 Z0.000000 I0.135928 J-0.037947
G03 X25.820598 Y91.804620 Z0.000000 I0.130136 J0.054599
G01 X31.820576 Y88.340783 Z0.000000
G03 X31.892191 Y88.318998 Z0.000000 I0.075407 J0.119290
G03 X31.964873 Y88.336904 Z0.000000 I0.003793 J0.141074
G03 X32.018174 Y88.389461 Z0.000000 I-0.068889 J0.123169
G03 X32.037097 Y88.461885 Z0.000000 I-0.122190 J0.070611
G03 X32.016320 Y88.533798 Z0.000000 I-0.141114 J-0.001812
G03 X31.961687 Y88.584970 Z0.000000 I-0.120336 J-0.073726
G01 X25.961709 Y92.049361 Z0.000000
G03 X25.929337 Y92.063524 Z0.000000 I-0.072307 J-0.121194
G03 X25.894461 Y92.069201 Z0.000000 I-0.039934 J-0.135357
G01 X25.894461 Y92.069204 Z0.000000
M63 P0

(End cutting path id: path4049)


(Start cutting path id: path4047)
(Change tool to Default tool)

M63 P0
G00 X26.194873 Y9.242487

M62 P0(Penetrate)
G03 X26.105889 Y9.215868 Z0.000000 I-0.006299 J-0.140985 F200.000000
G03 X26.052720 Y9.139712 Z0.000000 I0.082685 J-0.114366
G03 X26.058396 Y9.047005 Z0.000000 I0.135854 J-0.038209
G03 X26.120459 Y8.977904 Z0.000000 I0.130178 J0.054498
G01 X31.820576 Y5.687164 Z0.000000
G03 X31.892207 Y5.665332 Z0.000000 I0.075487 J0.119240
G03 X31.964924 Y5.683219 Z0.000000 I0.003856 J0.141073
G03 X32.018252 Y5.735791 Z0.000000 I-0.068861 J0.123185
G03 X32.037176 Y5.808245 Z0.000000 I-0.122189 J0.070613
G03 X32.016369 Y5.880180 Z0.000000 I-0.141113 J-0.001841
G03 X31.961687 Y5.931343 Z0.000000 I-0.120306 J-0.073776
G01 X26.261570 Y9.222647 Z0.000000
G03 X26.229458 Y9.236698 Z0.000000 I-0.072192 J-0.121263
G03 X26.194873 Y9.242402 Z0.000000 I-0.040080 J-0.135314
G01 X26.194873 Y9.242487 Z0.000000
M63 P0

(End cutting path id: path4047)


(Start cutting path id: path4045)
(Change tool to Default tool)

M63 P0
G00 X45.394805 Y92.069204

M62 P0(Penetrate)
G03 X45.305820 Y92.042586 Z0.000000 I-0.006301 J-0.140984 F200.000000
G03 X45.252650 Y91.966429 Z0.000000 I0.082684 J-0.114367
G03 X45.258325 Y91.873722 Z0.000000 I0.135854 J-0.038210
G03 X45.320389 Y91.804620 Z0.000000 I0.130178 J0.054497
G01 X51.320368 Y88.340783 Z0.000000
G03 X51.391983 Y88.318998 Z0.000000 I0.075407 J0.119290
G03 X51.464665 Y88.336904 Z0.000000 I0.003793 J0.141074
G03 X51.517966 Y88.389461 Z0.000000 I-0.068889 J0.123169
G03 X51.536889 Y88.461885 Z0.000000 I-0.122190 J0.070611
G03 X51.516112 Y88.533798 Z0.000000 I-0.141114 J-0.001812
G03 X51.461479 Y88.584970 Z0.000000 I-0.120336 J-0.073726
G01 X45.461500 Y92.049361 Z0.000000
G03 X45.429394 Y92.063456 Z0.000000 I-0.072344 J-0.121172
G03 X45.394805 Y92.069201 Z0.000000 I-0.040239 J-0.135267
G01 X45.394805 Y92.069204 Z0.000000
M63 P0

(End cutting path id: path4045)


(Start cutting path id: path4043)
(Change tool to Default tool)

M63 P0
G00 X6.680750 Y28.742285

M62 P0(Penetrate)
G03 X6.598116 Y28.708946 Z0.000000 I0.008784 J-0.140852 F200.000000
G03 X6.551927 Y28.632747 Z0.000000 I0.091418 J-0.107513
G03 X6.560596 Y28.544064 Z0.000000 I0.137607 J-0.031314
G03 X6.620667 Y28.478252 Z0.000000 I0.128938 J0.057369
G01 X12.320785 Y25.186945 Z0.000000
G03 X12.427977 Y25.172899 Z0.000000 I0.070551 J0.122373
G03 X12.513706 Y25.238762 Z0.000000 I-0.036641 J0.136418
G03 X12.527755 Y25.345954 Z0.000000 I-0.122370 J0.070556
G03 X12.461896 Y25.431685 Z0.000000 I-0.136420 J-0.036636
G01 X6.761778 Y28.722442 Z0.000000
G03 X6.722764 Y28.738486 Z0.000000 I-0.072578 J-0.121032
G03 X6.680750 Y28.742282 Z0.000000 I-0.033564 J-0.137076
G01 X6.680750 Y28.742285 Z0.000000
M63 P0

(End cutting path id: path4043)


(Start cutting path id: path4041)
(Change tool to Default tool)

M63 P0
G00 X64.894597 Y92.069204

M62 P0(Penetrate)
G03 X64.805857 Y92.042304 Z0.000000 I-0.005702 J-0.141010 F200.000000
G03 X64.752967 Y91.966140 Z0.000000 I0.083037 J-0.114110
G03 X64.758759 Y91.873595 Z0.000000 I0.135928 J-0.037947
G03 X64.820734 Y91.804620 Z0.000000 I0.130136 J0.054599
G01 X70.820710 Y88.340783 Z0.000000
G03 X70.892325 Y88.318998 Z0.000000 I0.075407 J0.119290
G03 X70.965007 Y88.336904 Z0.000000 I0.003793 J0.141074
G03 X71.018308 Y88.389461 Z0.000000 I-0.068889 J0.123169
G03 X71.037231 Y88.461885 Z0.000000 I-0.122190 J0.070611
G03 X71.016454 Y88.533798 Z0.000000 I-0.141114 J-0.001812
G03 X70.961821 Y88.584970 Z0.000000 I-0.120336 J-0.073726
G01 X64.961845 Y92.049361 Z0.000000
G03 X64.929472 Y92.063524 Z0.000000 I-0.072307 J-0.121194
G03 X64.894597 Y92.069201 Z0.000000 I-0.039935 J-0.135357
G01 X64.894597 Y92.069204 Z0.000000
M63 P0

(End cutting path id: path4041)


(Start cutting path id: path4039)
(Change tool to Default tool)

M63 P0
G00 X6.680750 Y48.242076

M62 P0(Penetrate)
G03 X6.598116 Y48.208738 Z0.000000 I0.008784 J-0.140852 F200.000000
G03 X6.551927 Y48.132538 Z0.000000 I0.091418 J-0.107513
G03 X6.560596 Y48.043855 Z0.000000 I0.137607 J-0.031314
G03 X6.620667 Y47.978043 Z0.000000 I0.128938 J0.057369
G01 X12.320785 Y44.687290 Z0.000000
G03 X12.392400 Y44.665505 Z0.000000 I0.075407 J0.119290
G03 X12.465081 Y44.683411 Z0.000000 I0.003793 J0.141074
G03 X12.518382 Y44.735968 Z0.000000 I-0.068889 J0.123169
G03 X12.537306 Y44.808392 Z0.000000 I-0.122190 J0.070611
G03 X12.516528 Y44.880305 Z0.000000 I-0.141114 J-0.001812
G03 X12.461896 Y44.931477 Z0.000000 I-0.120336 J-0.073726
G01 X6.761778 Y48.222233 Z0.000000
G03 X6.722764 Y48.238277 Z0.000000 I-0.072578 J-0.121032
G03 X6.680750 Y48.242074 Z0.000000 I-0.033564 J-0.137076
G01 X6.680750 Y48.242076 Z0.000000
M63 P0

(End cutting path id: path4039)


(Start cutting path id: path4037)
(Change tool to Default tool)

M63 P0
G00 X84.394939 Y92.069204

M62 P0(Penetrate)
G03 X84.305955 Y92.042584 Z0.000000 I-0.006298 J-0.140985 F200.000000
G03 X84.252786 Y91.966428 Z0.000000 I0.082686 J-0.114365
G03 X84.258462 Y91.873721 Z0.000000 I0.135854 J-0.038209
G03 X84.320525 Y91.804620 Z0.000000 I0.130178 J0.054498
G01 X90.320502 Y88.340783 Z0.000000
G03 X90.392117 Y88.318998 Z0.000000 I0.075407 J0.119290
G03 X90.464799 Y88.336904 Z0.000000 I0.003793 J0.141074
G03 X90.518099 Y88.389461 Z0.000000 I-0.068889 J0.123169
G03 X90.537023 Y88.461885 Z0.000000 I-0.122190 J0.070611
G03 X90.516246 Y88.533798 Z0.000000 I-0.141114 J-0.001812
G03 X90.461613 Y88.584970 Z0.000000 I-0.120336 J-0.073726
G01 X84.461636 Y92.049361 Z0.000000
G03 X84.429530 Y92.063456 Z0.000000 I-0.072344 J-0.121172
G03 X84.394939 Y92.069201 Z0.000000 I-0.040237 J-0.135267
G01 X84.394939 Y92.069204 Z0.000000
M63 P0

(End cutting path id: path4037)


(Start cutting path id: path4035)
(Change tool to Default tool)

M63 P0
G00 X6.694530 Y67.742418

M62 P0(Penetrate)
G03 X6.605791 Y67.715518 Z0.000000 I-0.005702 J-0.141010 F200.000000
G03 X6.552901 Y67.639355 Z0.000000 I0.083038 J-0.114110
G03 X6.558693 Y67.546809 Z0.000000 I0.135928 J-0.037947
G03 X6.620667 Y67.477835 Z0.000000 I0.130136 J0.054599
G01 X12.320785 Y64.187082 Z0.000000
G03 X12.392400 Y64.165297 Z0.000000 I0.075407 J0.119290
G03 X12.465081 Y64.183202 Z0.000000 I0.003793 J0.141074
G03 X12.518382 Y64.235760 Z0.000000 I-0.068889 J0.123169
G03 X12.537306 Y64.308184 Z0.000000 I-0.122190 J0.070611
G03 X12.516528 Y64.380097 Z0.000000 I-0.141114 J-0.001812
G03 X12.461896 Y64.431269 Z0.000000 I-0.120336 J-0.073726
G01 X6.761778 Y67.722575 Z0.000000
G03 X6.729406 Y67.736738 Z0.000000 I-0.072307 J-0.121194
G03 X6.694530 Y67.742416 Z0.000000 I-0.039934 J-0.135357
G01 X6.694530 Y67.742418 Z0.000000
M63 P0

(End cutting path id: path4035)


(Start cutting path id: path4033)
(Change tool to Default tool)

M63 P0
G00 X103.894731 Y92.069204

M62 P0(Penetrate)
G03 X103.805747 Y92.042584 Z0.000000 I-0.006298 J-0.140985 F200.000000
G03 X103.752578 Y91.966428 Z0.000000 I0.082686 J-0.114365
G03 X103.758254 Y91.873721 Z0.000000 I0.135854 J-0.038209
G03 X103.820317 Y91.804620 Z0.000000 I0.130178 J0.054498
G01 X109.820847 Y88.340783 Z0.000000
G03 X109.892462 Y88.318998 Z0.000000 I0.075407 J0.119290
G03 X109.965144 Y88.336904 Z0.000000 I0.003793 J0.141074
G03 X110.018444 Y88.389461 Z0.000000 I-0.068889 J0.123169
G03 X110.037368 Y88.461885 Z0.000000 I-0.122190 J0.070611
G03 X110.016591 Y88.533798 Z0.000000 I-0.141114 J-0.001812
G03 X109.961958 Y88.584970 Z0.000000 I-0.120336 J-0.073726
G01 X103.961428 Y92.049361 Z0.000000
G03 X103.929321 Y92.063456 Z0.000000 I-0.072344 J-0.121172
G03 X103.894731 Y92.069201 Z0.000000 I-0.040237 J-0.135267
G01 X103.894731 Y92.069204 Z0.000000
M63 P0

(End cutting path id: path4033)


(Start cutting path id: path4031)
(Change tool to Default tool)

M63 P0
G00 X45.694666 Y9.242487

M62 P0(Penetrate)
G03 X45.605927 Y9.215587 Z0.000000 I-0.005702 J-0.141010 F200.000000
G03 X45.553036 Y9.139424 Z0.000000 I0.083037 J-0.114110
G03 X45.558829 Y9.046878 Z0.000000 I0.135928 J-0.037947
G03 X45.620803 Y8.977904 Z0.000000 I0.130136 J0.054599
G01 X51.320368 Y5.687164 Z0.000000
G03 X51.391999 Y5.665332 Z0.000000 I0.075487 J0.119240
G03 X51.464716 Y5.683219 Z0.000000 I0.003856 J0.141073
G03 X51.518044 Y5.735791 Z0.000000 I-0.068861 J0.123185
G03 X51.536968 Y5.808245 Z0.000000 I-0.122189 J0.070613
G03 X51.516160 Y5.880180 Z0.000000 I-0.141113 J-0.001841
G03 X51.461479 Y5.931343 Z0.000000 I-0.120306 J-0.073776
G01 X45.761914 Y9.222647 Z0.000000
G03 X45.729536 Y9.236766 Z0.000000 I-0.072156 J-0.121284
G03 X45.694666 Y9.242402 Z0.000000 I-0.039778 J-0.135403
G01 X45.694666 Y9.242487 Z0.000000
M63 P0

(End cutting path id: path4031)


(Start cutting path id: path4029)
(Change tool to Default tool)

M63 P0
G00 X123.394522 Y92.069204

M62 P0(Penetrate)
G03 X123.305783 Y92.042304 Z0.000000 I-0.005702 J-0.141010 F200.000000
G03 X123.252893 Y91.966140 Z0.000000 I0.083037 J-0.114110
G03 X123.258685 Y91.873595 Z0.000000 I0.135928 J-0.037947
G03 X123.320659 Y91.804620 Z0.000000 I0.130136 J0.054599
G01 X129.320639 Y88.340783 Z0.000000
G03 X129.392254 Y88.318998 Z0.000000 I0.075407 J0.119290
G03 X129.464936 Y88.336904 Z0.000000 I0.003793 J0.141074
G03 X129.518236 Y88.389461 Z0.000000 I-0.068889 J0.123169
G03 X129.537160 Y88.461885 Z0.000000 I-0.122190 J0.070611
G03 X129.516383 Y88.533798 Z0.000000 I-0.141114 J-0.001812
G03 X129.461750 Y88.584970 Z0.000000 I-0.120336 J-0.073726
G01 X123.461770 Y92.049361 Z0.000000
G03 X123.429398 Y92.063524 Z0.000000 I-0.072307 J-0.121194
G03 X123.394522 Y92.069201 Z0.000000 I-0.039935 J-0.135357
G01 X123.394522 Y92.069204 Z0.000000
M63 P0

(End cutting path id: path4029)


(Start cutting path id: path4027)
(Change tool to Default tool)

M63 P0
G00 X65.194458 Y9.242487

M62 P0(Penetrate)
G03 X65.105719 Y9.215587 Z0.000000 I-0.005702 J-0.141010 F200.000000
G03 X65.052828 Y9.139424 Z0.000000 I0.083037 J-0.114110
G03 X65.058620 Y9.046878 Z0.000000 I0.135928 J-0.037947
G03 X65.120595 Y8.977904 Z0.000000 I0.130136 J0.054599
G01 X70.820710 Y5.687164 Z0.000000
G03 X70.892341 Y5.665332 Z0.000000 I0.075487 J0.119240
G03 X70.965058 Y5.683219 Z0.000000 I0.003856 J0.141073
G03 X71.018386 Y5.735791 Z0.000000 I-0.068861 J0.123185
G03 X71.037310 Y5.808245 Z0.000000 I-0.122189 J0.070613
G03 X71.016502 Y5.880180 Z0.000000 I-0.141113 J-0.001841
G03 X70.961821 Y5.931343 Z0.000000 I-0.120306 J-0.073776
G01 X65.261706 Y9.222647 Z0.000000
G03 X65.229328 Y9.236766 Z0.000000 I-0.072156 J-0.121284
G03 X65.194458 Y9.242402 Z0.000000 I-0.039778 J-0.135403
G01 X65.194458 Y9.242487 Z0.000000
M63 P0

(End cutting path id: path4027)


(Start cutting path id: path4025)
(Change tool to Default tool)

M63 P0
G00 X123.380741 Y111.568995

M62 P0(Penetrate)
G03 X123.298108 Y111.535657 Z0.000000 I0.008785 J-0.140852 F200.000000
G03 X123.251919 Y111.459457 Z0.000000 I0.091418 J-0.107513
G03 X123.260588 Y111.370775 Z0.000000 I0.137607 J-0.031313
G03 X123.320659 Y111.304962 Z0.000000 I0.128938 J0.057369
G01 X129.320639 Y107.840575 Z0.000000
G03 X129.391278 Y107.821689 Z0.000000 I0.070560 J0.122367
G03 X129.461895 Y107.840653 Z0.000000 I-0.000079 J0.141253
G03 X129.513569 Y107.892387 Z0.000000 I-0.070696 J0.122289
G03 X129.532452 Y107.963026 Z0.000000 I-0.122370 J0.070556
G03 X129.513485 Y108.033643 Z0.000000 I-0.141253 J-0.000084
G03 X129.461750 Y108.085315 Z0.000000 I-0.122286 J-0.070701
G01 X123.461770 Y111.549150 Z0.000000
G03 X123.422755 Y111.565194 Z0.000000 I-0.072578 J-0.121032
G03 X123.380741 Y111.568990 Z0.000000 I-0.033564 J-0.137076
G01 X123.380741 Y111.568995 Z0.000000
M63 P0

(End cutting path id: path4025)


(Start cutting path id: path4023)
(Change tool to Default tool)

M63 P0
G00 X84.694800 Y9.242487

M62 P0(Penetrate)
G03 X84.605816 Y9.215868 Z0.000000 I-0.006298 J-0.140985 F200.000000
G03 X84.552647 Y9.139711 Z0.000000 I0.082686 J-0.114365
G03 X84.558324 Y9.047005 Z0.000000 I0.135854 J-0.038209
G03 X84.620386 Y8.977904 Z0.000000 I0.130178 J0.054498
G01 X90.320502 Y5.687164 Z0.000000
G03 X90.392133 Y5.665332 Z0.000000 I0.075487 J0.119240
G03 X90.464850 Y5.683219 Z0.000000 I0.003856 J0.141073
G03 X90.518178 Y5.735791 Z0.000000 I-0.068861 J0.123185
G03 X90.537102 Y5.808245 Z0.000000 I-0.122189 J0.070613
G03 X90.516294 Y5.880180 Z0.000000 I-0.141113 J-0.001841
G03 X90.461613 Y5.931343 Z0.000000 I-0.120306 J-0.073776
G01 X84.761498 Y9.222647 Z0.000000
G03 X84.729385 Y9.236699 Z0.000000 I-0.072192 J-0.121263
G03 X84.694800 Y9.242402 Z0.000000 I-0.040080 J-0.135314
G01 X84.694800 Y9.242487 Z0.000000
M63 P0

(End cutting path id: path4023)


(Start cutting path id: path4021)
(Change tool to Default tool)

M63 P0
G00 X103.880399 Y111.568995

M62 P0(Penetrate)
G03 X103.797766 Y111.535657 Z0.000000 I0.008785 J-0.140852 F200.000000
G03 X103.751577 Y111.459457 Z0.000000 I0.091418 J-0.107513
G03 X103.760246 Y111.370775 Z0.000000 I0.137607 J-0.031313
G03 X103.820317 Y111.304962 Z0.000000 I0.128938 J0.057369
G01 X109.820847 Y107.840575 Z0.000000
G03 X109.891486 Y107.821689 Z0.000000 I0.070560 J0.122367
G03 X109.962104 Y107.840653 Z0.000000 I-0.000079 J0.141253
G03 X110.013777 Y107.892387 Z0.000000 I-0.070696 J0.122289
G03 X110.032661 Y107.963026 Z0.000000 I-0.122370 J0.070556
G03 X110.013693 Y108.033643 Z0.000000 I-0.141253 J-0.000084
G03 X109.961958 Y108.085315 Z0.000000 I-0.122286 J-0.070701
G01 X103.961428 Y111.549150 Z0.000000
G03 X103.922413 Y111.565194 Z0.000000 I-0.072578 J-0.121032
G03 X103.880399 Y111.568990 Z0.000000 I-0.033564 J-0.137076
G01 X103.880399 Y111.568995 Z0.000000
M63 P0

(End cutting path id: path4021)


(Start cutting path id: path4019)
(Change tool to Default tool)

M63 P0
G00 X104.194592 Y9.242487

M62 P0(Penetrate)
G03 X104.105852 Y9.215587 Z0.000000 I-0.005702 J-0.141010 F200.000000
G03 X104.052962 Y9.139424 Z0.000000 I0.083037 J-0.114110
G03 X104.058754 Y9.046878 Z0.000000 I0.135928 J-0.037947
G03 X104.120729 Y8.977904 Z0.000000 I0.130136 J0.054599
G01 X109.820847 Y5.687164 Z0.000000
G03 X109.892478 Y5.665332 Z0.000000 I0.075487 J0.119240
G03 X109.965195 Y5.683219 Z0.000000 I0.003856 J0.141073
G03 X110.018523 Y5.735791 Z0.000000 I-0.068861 J0.123185
G03 X110.037447 Y5.808245 Z0.000000 I-0.122189 J0.070613
G03 X110.016639 Y5.880180 Z0.000000 I-0.141113 J-0.001841
G03 X109.961958 Y5.931343 Z0.000000 I-0.120306 J-0.073776
G01 X104.261840 Y9.222647 Z0.000000
G03 X104.229462 Y9.236766 Z0.000000 I-0.072156 J-0.121284
G03 X104.194592 Y9.242402 Z0.000000 I-0.039778 J-0.135403
G01 X104.194592 Y9.242487 Z0.000000
M63 P0

(End cutting path id: path4019)


(Start cutting path id: path4017)
(Change tool to Default tool)

M63 P0
G00 X84.380608 Y111.568995

M62 P0(Penetrate)
G03 X84.297974 Y111.535657 Z0.000000 I0.008785 J-0.140852 F200.000000
G03 X84.251785 Y111.459457 Z0.000000 I0.091418 J-0.107513
G03 X84.260454 Y111.370775 Z0.000000 I0.137607 J-0.031313
G03 X84.320525 Y111.304962 Z0.000000 I0.128938 J0.057369
G01 X90.320502 Y107.840575 Z0.000000
G03 X90.391141 Y107.821689 Z0.000000 I0.070560 J0.122367
G03 X90.461759 Y107.840653 Z0.000000 I-0.000079 J0.141253
G03 X90.513432 Y107.892387 Z0.000000 I-0.070696 J0.122289
G03 X90.532316 Y107.963026 Z0.000000 I-0.122370 J0.070556
G03 X90.513348 Y108.033643 Z0.000000 I-0.141253 J-0.000084
G03 X90.461613 Y108.085315 Z0.000000 I-0.122286 J-0.070701
G01 X84.461636 Y111.549150 Z0.000000
G03 X84.422621 Y111.565194 Z0.000000 I-0.072578 J-0.121032
G03 X84.380608 Y111.568990 Z0.000000 I-0.033564 J-0.137076
G01 X84.380608 Y111.568995 Z0.000000
M63 P0

(End cutting path id: path4017)


(Start cutting path id: path4015)
(Change tool to Default tool)

M63 P0
G00 X123.694934 Y9.242487

M62 P0(Penetrate)
G03 X123.605950 Y9.215868 Z0.000000 I-0.006298 J-0.140985 F200.000000
G03 X123.552781 Y9.139711 Z0.000000 I0.082686 J-0.114365
G03 X123.558457 Y9.047005 Z0.000000 I0.135854 J-0.038209
G03 X123.620520 Y8.977904 Z0.000000 I0.130178 J0.054498
G01 X129.320639 Y5.687164 Z0.000000
G03 X129.392270 Y5.665332 Z0.000000 I0.075487 J0.119240
G03 X129.464986 Y5.683219 Z0.000000 I0.003856 J0.141073
G03 X129.518314 Y5.735791 Z0.000000 I-0.068861 J0.123185
G03 X129.537239 Y5.808245 Z0.000000 I-0.122189 J0.070613
G03 X129.516431 Y5.880180 Z0.000000 I-0.141113 J-0.001841
G03 X129.461750 Y5.931343 Z0.000000 I-0.120306 J-0.073776
G01 X123.761631 Y9.222647 Z0.000000
G03 X123.729519 Y9.236699 Z0.000000 I-0.072192 J-0.121263
G03 X123.694934 Y9.242402 Z0.000000 I-0.040080 J-0.135314
G01 X123.694934 Y9.242487 Z0.000000
M63 P0

(End cutting path id: path4015)


(Start cutting path id: path4013)
(Change tool to Default tool)

M63 P0
G00 X64.880816 Y111.568995

M62 P0(Penetrate)
G03 X64.798182 Y111.535657 Z0.000000 I0.008785 J-0.140852 F200.000000
G03 X64.751993 Y111.459457 Z0.000000 I0.091418 J-0.107513
G03 X64.760662 Y111.370775 Z0.000000 I0.137607 J-0.031313
G03 X64.820734 Y111.304962 Z0.000000 I0.128938 J0.057369
G01 X70.820710 Y107.840575 Z0.000000
G03 X70.891349 Y107.821689 Z0.000000 I0.070560 J0.122367
G03 X70.961967 Y107.840653 Z0.000000 I-0.000079 J0.141253
G03 X71.013641 Y107.892387 Z0.000000 I-0.070696 J0.122289
G03 X71.032524 Y107.963026 Z0.000000 I-0.122370 J0.070556
G03 X71.013557 Y108.033643 Z0.000000 I-0.141253 J-0.000084
G03 X70.961821 Y108.085315 Z0.000000 I-0.122286 J-0.070701
G01 X64.961845 Y111.549150 Z0.000000
G03 X64.922830 Y111.565194 Z0.000000 I-0.072578 J-0.121032
G03 X64.880816 Y111.568990 Z0.000000 I-0.033564 J-0.137076
G01 X64.880816 Y111.568995 Z0.000000
M63 P0

(End cutting path id: path4013)


(Start cutting path id: path4011)
(Change tool to Default tool)

M63 P0
G00 X26.180542 Y28.742285

M62 P0(Penetrate)
G03 X26.097908 Y28.708946 Z0.000000 I0.008784 J-0.140852 F200.000000
G03 X26.051719 Y28.632747 Z0.000000 I0.091418 J-0.107513
G03 X26.060388 Y28.544064 Z0.000000 I0.137607 J-0.031314
G03 X26.120459 Y28.478252 Z0.000000 I0.128938 J0.057369
G01 X31.820576 Y25.186945 Z0.000000
G03 X31.927768 Y25.172899 Z0.000000 I0.070551 J0.122373
G03 X32.013497 Y25.238762 Z0.000000 I-0.036641 J0.136418
G03 X32.027547 Y25.345954 Z0.000000 I-0.122370 J0.070556
G03 X31.961687 Y25.431685 Z0.000000 I-0.136420 J-0.036636
G01 X26.261570 Y28.722442 Z0.000000
G03 X26.222555 Y28.738486 Z0.000000 I-0.072578 J-0.121032
G03 X26.180542 Y28.742282 Z0.000000 I-0.033564 J-0.137076
G01 X26.180542 Y28.742285 Z0.000000
M63 P0

(End cutting path id: path4011)


(Start cutting path id: path4009)
(Change tool to Default tool)

M63 P0
G00 X45.380474 Y111.568995

M62 P0(Penetrate)
G03 X45.297839 Y111.535658 Z0.000000 I0.008782 J-0.140852 F200.000000
G03 X45.251649 Y111.459459 Z0.000000 I0.091417 J-0.107514
G03 X45.260317 Y111.370775 Z0.000000 I0.137607 J-0.031315
G03 X45.320389 Y111.304962 Z0.000000 I0.128939 J0.057369
G01 X51.320368 Y107.840575 Z0.000000
G03 X51.391007 Y107.821689 Z0.000000 I0.070560 J0.122367
G03 X51.461625 Y107.840653 Z0.000000 I-0.000079 J0.141253
G03 X51.513299 Y107.892387 Z0.000000 I-0.070696 J0.122289
G03 X51.532182 Y107.963026 Z0.000000 I-0.122370 J0.070556
G03 X51.513215 Y108.033643 Z0.000000 I-0.141253 J-0.000084
G03 X51.461479 Y108.085315 Z0.000000 I-0.122286 J-0.070701
G01 X45.461500 Y111.549150 Z0.000000
G03 X45.422486 Y111.565193 Z0.000000 I-0.072578 J-0.121032
G03 X45.380474 Y111.568990 Z0.000000 I-0.033565 J-0.137076
G01 X45.380474 Y111.568995 Z0.000000
M63 P0

(End cutting path id: path4009)


(Start cutting path id: path4007)
(Change tool to Default tool)

M63 P0
G00 X26.180542 Y48.242076

M62 P0(Penetrate)
G03 X26.097908 Y48.208738 Z0.000000 I0.008784 J-0.140852 F200.000000
G03 X26.051719 Y48.132538 Z0.000000 I0.091418 J-0.107513
G03 X26.060388 Y48.043855 Z0.000000 I0.137607 J-0.031314
G03 X26.120459 Y47.978043 Z0.000000 I0.128938 J0.057369
G01 X31.820576 Y44.687290 Z0.000000
G03 X31.892191 Y44.665505 Z0.000000 I0.075407 J0.119290
G03 X31.964873 Y44.683411 Z0.000000 I0.003793 J0.141074
G03 X32.018174 Y44.735968 Z0.000000 I-0.068889 J0.123169
G03 X32.037097 Y44.808392 Z0.000000 I-0.122190 J0.070611
G03 X32.016320 Y44.880305 Z0.000000 I-0.141114 J-0.001812
G03 X31.961687 Y44.931477 Z0.000000 I-0.120336 J-0.073726
G01 X26.261570 Y48.222233 Z0.000000
G03 X26.222555 Y48.238277 Z0.000000 I-0.072578 J-0.121032
G03 X26.180542 Y48.242074 Z0.000000 I-0.033564 J-0.137076
G01 X26.180542 Y48.242076 Z0.000000
M63 P0

(End cutting path id: path4007)


(Start cutting path id: path4005)
(Change tool to Default tool)

M63 P0
G00 X25.880681 Y111.568995

M62 P0(Penetrate)
G03 X25.798047 Y111.535657 Z0.000000 I0.008784 J-0.140852 F200.000000
G03 X25.751858 Y111.459457 Z0.000000 I0.091418 J-0.107513
G03 X25.760527 Y111.370775 Z0.000000 I0.137607 J-0.031314
G03 X25.820598 Y111.304962 Z0.000000 I0.128938 J0.057369
G01 X31.820576 Y107.840575 Z0.000000
G03 X31.891215 Y107.821689 Z0.000000 I0.070560 J0.122367
G03 X31.961833 Y107.840653 Z0.000000 I-0.000079 J0.141253
G03 X32.013507 Y107.892387 Z0.000000 I-0.070696 J0.122289
G03 X32.032390 Y107.963026 Z0.000000 I-0.122370 J0.070556
G03 X32.013423 Y108.033643 Z0.000000 I-0.141253 J-0.000084
G03 X31.961687 Y108.085315 Z0.000000 I-0.122286 J-0.070701
G01 X25.961709 Y111.549150 Z0.000000
G03 X25.922694 Y111.565194 Z0.000000 I-0.072578 J-0.121032
G03 X25.880681 Y111.568990 Z0.000000 I-0.033564 J-0.137076
G01 X25.880681 Y111.568995 Z0.000000
M63 P0

(End cutting path id: path4005)


(Start cutting path id: path4003)
(Change tool to Default tool)

M63 P0
G00 X26.194873 Y67.742418

M62 P0(Penetrate)
G03 X26.105889 Y67.715799 Z0.000000 I-0.006299 J-0.140985 F200.000000
G03 X26.052720 Y67.639643 Z0.000000 I0.082685 J-0.114366
G03 X26.058396 Y67.546936 Z0.000000 I0.135854 J-0.038209
G03 X26.120459 Y67.477835 Z0.000000 I0.130178 J0.054498
G01 X31.820576 Y64.187082 Z0.000000
G03 X31.892191 Y64.165297 Z0.000000 I0.075407 J0.119290
G03 X31.964873 Y64.183202 Z0.000000 I0.003793 J0.141074
G03 X32.018174 Y64.235760 Z0.000000 I-0.068889 J0.123169
G03 X32.037097 Y64.308184 Z0.000000 I-0.122190 J0.070611
G03 X32.016320 Y64.380097 Z0.000000 I-0.141114 J-0.001812
G03 X31.961687 Y64.431269 Z0.000000 I-0.120336 J-0.073726
G01 X26.261570 Y67.722575 Z0.000000
G03 X26.229464 Y67.736671 Z0.000000 I-0.072344 J-0.121172
G03 X26.194873 Y67.742416 Z0.000000 I-0.040238 J-0.135267
G01 X26.194873 Y67.742418 Z0.000000
M63 P0

(End cutting path id: path4003)


(Start cutting path id: path4001)
(Change tool to Default tool)

M63 P0
G00 X6.380889 Y111.568995

M62 P0(Penetrate)
G03 X6.298255 Y111.535657 Z0.000000 I0.008784 J-0.140852 F200.000000
G03 X6.252066 Y111.459457 Z0.000000 I0.091418 J-0.107513
G03 X6.260735 Y111.370775 Z0.000000 I0.137607 J-0.031314
G03 X6.320806 Y111.304962 Z0.000000 I0.128938 J0.057369
G01 X12.320785 Y107.840575 Z0.000000
G03 X12.391423 Y107.821689 Z0.000000 I0.070560 J0.122367
G03 X12.462041 Y107.840653 Z0.000000 I-0.000079 J0.141253
G03 X12.513715 Y107.892387 Z0.000000 I-0.070696 J0.122289
G03 X12.532598 Y107.963026 Z0.000000 I-0.122370 J0.070556
G03 X12.513631 Y108.033643 Z0.000000 I-0.141253 J-0.000084
G03 X12.461896 Y108.085315 Z0.000000 I-0.122286 J-0.070701
G01 X6.461917 Y111.549150 Z0.000000
G03 X6.422902 Y111.565194 Z0.000000 I-0.072578 J-0.121032
G03 X6.380889 Y111.568990 Z0.000000 I-0.033564 J-0.137076
G01 X6.380889 Y111.568995 Z0.000000
M63 P0

(End cutting path id: path4001)


(Start cutting path id: path3999)
(Change tool to Default tool)

M63 P0
G00 X45.680885 Y28.742285

M62 P0(Penetrate)
G03 X45.598251 Y28.708946 Z0.000000 I0.008785 J-0.140852 F200.000000
G03 X45.552062 Y28.632746 Z0.000000 I0.091418 J-0.107513
G03 X45.560732 Y28.544064 Z0.000000 I0.137607 J-0.031313
G03 X45.620803 Y28.478252 Z0.000000 I0.128938 J0.057369
G01 X51.320368 Y25.186945 Z0.000000
G03 X51.427560 Y25.172899 Z0.000000 I0.070551 J0.122373
G03 X51.513289 Y25.238762 Z0.000000 I-0.036641 J0.136418
G03 X51.527339 Y25.345954 Z0.000000 I-0.122370 J0.070556
G03 X51.461479 Y25.431685 Z0.000000 I-0.136420 J-0.036636
G01 X45.761914 Y28.722442 Z0.000000
G03 X45.722899 Y28.738486 Z0.000000 I-0.072578 J-0.121032
G03 X45.680885 Y28.742282 Z0.000000 I-0.033564 J-0.137076
G01 X45.680885 Y28.742285 Z0.000000
M63 P0

(End cutting path id: path3999)


(Start cutting path id: path3997)
(Change tool to Default tool)

M63 P0
G00 X6.380889 Y131.068787

M62 P0(Penetrate)
G03 X6.298255 Y131.035449 Z0.000000 I0.008784 J-0.140852 F200.000000
G03 X6.252066 Y130.959249 Z0.000000 I0.091418 J-0.107513
G03 X6.260735 Y130.870566 Z0.000000 I0.137607 J-0.031314
G03 X6.320806 Y130.804754 Z0.000000 I0.128938 J0.057369
G01 X12.320785 Y127.340917 Z0.000000
G03 X12.392394 Y127.319148 Z0.000000 I0.075381 J0.119307
G03 X12.465064 Y127.337060 Z0.000000 I0.003771 J0.141075
G03 X12.518356 Y127.389613 Z0.000000 I-0.068899 J0.123164
G03 X12.537279 Y127.462026 Z0.000000 I-0.122190 J0.070611
G03 X12.516512 Y127.533932 Z0.000000 I-0.141114 J-0.001803
G03 X12.461896 Y127.585107 Z0.000000 I-0.120347 J-0.073709
G01 X6.461917 Y131.049495 Z0.000000
G03 X6.422860 Y131.065261 Z0.000000 I-0.071764 J-0.121517
G03 X6.380889 Y131.068799 Z0.000000 I-0.032706 J-0.137283
G01 X6.380889 Y131.068787 Z0.000000
M63 P0

(End cutting path id: path3997)


(Start cutting path id: path3995)
(Change tool to Default tool)

M63 P0
G00 X65.180677 Y28.742285

M62 P0(Penetrate)
G03 X65.098043 Y28.708946 Z0.000000 I0.008785 J-0.140852 F200.000000
G03 X65.051854 Y28.632746 Z0.000000 I0.091418 J-0.107513
G03 X65.060523 Y28.544064 Z0.000000 I0.137607 J-0.031313
G03 X65.120595 Y28.478252 Z0.000000 I0.128938 J0.057369
G01 X70.820710 Y25.186945 Z0.000000
G03 X70.927902 Y25.172899 Z0.000000 I0.070551 J0.122373
G03 X71.013631 Y25.238762 Z0.000000 I-0.036641 J0.136418
G03 X71.027681 Y25.345954 Z0.000000 I-0.122370 J0.070556
G03 X70.961821 Y25.431685 Z0.000000 I-0.136420 J-0.036636
G01 X65.261706 Y28.722442 Z0.000000
G03 X65.222691 Y28.738486 Z0.000000 I-0.072578 J-0.121032
G03 X65.180677 Y28.742282 Z0.000000 I-0.033564 J-0.137076
G01 X65.180677 Y28.742285 Z0.000000
M63 P0

(End cutting path id: path3995)


(Start cutting path id: path3993)
(Change tool to Default tool)

M63 P0
G00 X25.880681 Y131.068787

M62 P0(Penetrate)
G03 X25.798047 Y131.035449 Z0.000000 I0.008784 J-0.140852 F200.000000
G03 X25.751858 Y130.959249 Z0.000000 I0.091418 J-0.107513
G03 X25.760527 Y130.870566 Z0.000000 I0.137607 J-0.031314
G03 X25.820598 Y130.804754 Z0.000000 I0.128938 J0.057369
G01 X31.820576 Y127.340917 Z0.000000
G03 X31.892186 Y127.319148 Z0.000000 I0.075381 J0.119307
G03 X31.964856 Y127.337060 Z0.000000 I0.003771 J0.141075
G03 X32.018147 Y127.389613 Z0.000000 I-0.068899 J0.123164
G03 X32.037071 Y127.462026 Z0.000000 I-0.122190 J0.070611
G03 X32.016304 Y127.533932 Z0.000000 I-0.141114 J-0.001803
G03 X31.961687 Y127.585107 Z0.000000 I-0.120347 J-0.073709
G01 X25.961709 Y131.049495 Z0.000000
G03 X25.922651 Y131.065261 Z0.000000 I-0.071764 J-0.121517
G03 X25.880681 Y131.068799 Z0.000000 I-0.032706 J-0.137283
G01 X25.880681 Y131.068787 Z0.000000
M63 P0

(End cutting path id: path3993)


(Start cutting path id: path3991)
(Change tool to Default tool)

M63 P0
G00 X84.680469 Y28.742285

M62 P0(Penetrate)
G03 X84.597835 Y28.708946 Z0.000000 I0.008785 J-0.140852 F200.000000
G03 X84.551646 Y28.632746 Z0.000000 I0.091418 J-0.107513
G03 X84.560315 Y28.544064 Z0.000000 I0.137607 J-0.031313
G03 X84.620386 Y28.478252 Z0.000000 I0.128938 J0.057369
G01 X90.320502 Y25.186945 Z0.000000
G03 X90.427694 Y25.172899 Z0.000000 I0.070551 J0.122373
G03 X90.513423 Y25.238762 Z0.000000 I-0.036641 J0.136418
G03 X90.527473 Y25.345954 Z0.000000 I-0.122370 J0.070556
G03 X90.461613 Y25.431685 Z0.000000 I-0.136420 J-0.036636
G01 X84.761498 Y28.722442 Z0.000000
G03 X84.722483 Y28.738486 Z0.000000 I-0.072578 J-0.121032
G03 X84.680469 Y28.742282 Z0.000000 I-0.033564 J-0.137076
G01 X84.680469 Y28.742285 Z0.000000
M63 P0

(End cutting path id: path3991)


(Start cutting path id: path3989)
(Change tool to Default tool)

M63 P0
G00 X45.380474 Y131.068787

M62 P0(Penetrate)
G03 X45.297839 Y131.035450 Z0.000000 I0.008782 J-0.140852 F200.000000
G03 X45.251649 Y130.959250 Z0.000000 I0.091417 J-0.107514
G03 X45.260317 Y130.870567 Z0.000000 I0.137607 J-0.031315
G03 X45.320389 Y130.804754 Z0.000000 I0.128939 J0.057369
G01 X51.320368 Y127.340917 Z0.000000
G03 X51.391978 Y127.319148 Z0.000000 I0.075381 J0.119307
G03 X51.464648 Y127.337060 Z0.000000 I0.003771 J0.141075
G03 X51.517939 Y127.389613 Z0.000000 I-0.068899 J0.123164
G03 X51.536863 Y127.462026 Z0.000000 I-0.122190 J0.070611
G03 X51.516096 Y127.533932 Z0.000000 I-0.141114 J-0.001803
G03 X51.461479 Y127.585107 Z0.000000 I-0.120347 J-0.073709
G01 X45.461500 Y131.049495 Z0.000000
G03 X45.422443 Y131.065260 Z0.000000 I-0.071763 J-0.121517
G03 X45.380474 Y131.068799 Z0.000000 I-0.032707 J-0.137283
G01 X45.380474 Y131.068787 Z0.000000
M63 P0

(End cutting path id: path3989)


(Start cutting path id: path3987)
(Change tool to Default tool)

M63 P0
G00 X104.180811 Y28.742285

M62 P0(Penetrate)
G03 X104.098177 Y28.708946 Z0.000000 I0.008785 J-0.140852 F200.000000
G03 X104.051988 Y28.632746 Z0.000000 I0.091418 J-0.107513
G03 X104.060657 Y28.544064 Z0.000000 I0.137607 J-0.031313
G03 X104.120729 Y28.478252 Z0.000000 I0.128938 J0.057369
G01 X109.820847 Y25.186945 Z0.000000
G03 X109.928039 Y25.172899 Z0.000000 I0.070551 J0.122373
G03 X110.013768 Y25.238762 Z0.000000 I-0.036641 J0.136418
G03 X110.027818 Y25.345954 Z0.000000 I-0.122370 J0.070556
G03 X109.961958 Y25.431685 Z0.000000 I-0.136420 J-0.036636
G01 X104.261840 Y28.722442 Z0.000000
G03 X104.222825 Y28.738486 Z0.000000 I-0.072578 J-0.121032
G03 X104.180811 Y28.742282 Z0.000000 I-0.033564 J-0.137076
G01 X104.180811 Y28.742285 Z0.000000
M63 P0

(End cutting path id: path3987)


(Start cutting path id: path3985)
(Change tool to Default tool)

M63 P0
G00 X64.880816 Y131.068787

M62 P0(Penetrate)
G03 X64.798182 Y131.035449 Z0.000000 I0.008785 J-0.140852 F200.000000
G03 X64.751993 Y130.959249 Z0.000000 I0.091418 J-0.107513
G03 X64.760662 Y130.870566 Z0.000000 I0.137607 J-0.031313
G03 X64.820734 Y130.804754 Z0.000000 I0.128938 J0.057369
G01 X70.820710 Y127.340917 Z0.000000
G03 X70.892320 Y127.319148 Z0.000000 I0.075381 J0.119307
G03 X70.964990 Y127.337060 Z0.000000 I0.003771 J0.141075
G03 X71.018281 Y127.389613 Z0.000000 I-0.068899 J0.123164
G03 X71.037205 Y127.462026 Z0.000000 I-0.122190 J0.070611
G03 X71.016438 Y127.533932 Z0.000000 I-0.141114 J-0.001803
G03 X70.961821 Y127.585107 Z0.000000 I-0.120347 J-0.073709
G01 X64.961845 Y131.049495 Z0.000000
G03 X64.922787 Y131.065261 Z0.000000 I-0.071764 J-0.121517
G03 X64.880816 Y131.068799 Z0.000000 I-0.032706 J-0.137283
G01 X64.880816 Y131.068787 Z0.000000
M63 P0

(End cutting path id: path3985)


(Start cutting path id: path3983)
(Change tool to Default tool)

M63 P0
G00 X123.680603 Y28.742285

M62 P0(Penetrate)
G03 X123.597969 Y28.708946 Z0.000000 I0.008785 J-0.140852 F200.000000
G03 X123.551780 Y28.632746 Z0.000000 I0.091418 J-0.107513
G03 X123.560449 Y28.544064 Z0.000000 I0.137607 J-0.031313
G03 X123.620520 Y28.478252 Z0.000000 I0.128938 J0.057369
G01 X129.320639 Y25.186945 Z0.000000
G03 X129.427831 Y25.172899 Z0.000000 I0.070551 J0.122373
G03 X129.513560 Y25.238762 Z0.000000 I-0.036641 J0.136418
G03 X129.527609 Y25.345954 Z0.000000 I-0.122370 J0.070556
G03 X129.461750 Y25.431685 Z0.000000 I-0.136420 J-0.036636
G01 X123.761631 Y28.722442 Z0.000000
G03 X123.722617 Y28.738486 Z0.000000 I-0.072578 J-0.121032
G03 X123.680603 Y28.742282 Z0.000000 I-0.033564 J-0.137076
G01 X123.680603 Y28.742285 Z0.000000
M63 P0

(End cutting path id: path3983)


(Start cutting path id: path3981)
(Change tool to Default tool)

M63 P0
G00 X84.380608 Y131.068787

M62 P0(Penetrate)
G03 X84.297974 Y131.035449 Z0.000000 I0.008785 J-0.140852 F200.000000
G03 X84.251785 Y130.959249 Z0.000000 I0.091418 J-0.107513
G03 X84.260454 Y130.870566 Z0.000000 I0.137607 J-0.031313
G03 X84.320525 Y130.804754 Z0.000000 I0.128938 J0.057369
G01 X90.320502 Y127.340917 Z0.000000
G03 X90.392112 Y127.319148 Z0.000000 I0.075381 J0.119307
G03 X90.464782 Y127.337060 Z0.000000 I0.003771 J0.141075
G03 X90.518073 Y127.389613 Z0.000000 I-0.068899 J0.123164
G03 X90.536997 Y127.462026 Z0.000000 I-0.122190 J0.070611
G03 X90.516230 Y127.533932 Z0.000000 I-0.141114 J-0.001803
G03 X90.461613 Y127.585107 Z0.000000 I-0.120347 J-0.073709
G01 X84.461636 Y131.049495 Z0.000000
G03 X84.422579 Y131.065261 Z0.000000 I-0.071764 J-0.121517
G03 X84.380608 Y131.068799 Z0.000000 I-0.032706 J-0.137283
G01 X84.380608 Y131.068787 Z0.000000
M63 P0

(End cutting path id: path3981)


(Start cutting path id: path3979)
(Change tool to Default tool)

M63 P0
G00 X45.680885 Y48.242076

M62 P0(Penetrate)
G03 X45.598251 Y48.208738 Z0.000000 I0.008785 J-0.140852 F200.000000
G03 X45.552062 Y48.132538 Z0.000000 I0.091418 J-0.107513
G03 X45.560732 Y48.043855 Z0.000000 I0.137607 J-0.031313
G03 X45.620803 Y47.978043 Z0.000000 I0.128938 J0.057369
G01 X51.320368 Y44.687290 Z0.000000
G03 X51.391983 Y44.665505 Z0.000000 I0.075407 J0.119290
G03 X51.464665 Y44.683411 Z0.000000 I0.003793 J0.141074
G03 X51.517966 Y44.735968 Z0.000000 I-0.068889 J0.123169
G03 X51.536889 Y44.808392 Z0.000000 I-0.122190 J0.070611
G03 X51.516112 Y44.880305 Z0.000000 I-0.141114 J-0.001812
G03 X51.461479 Y44.931477 Z0.000000 I-0.120336 J-0.073726
G01 X45.761914 Y48.222233 Z0.000000
G03 X45.722899 Y48.238277 Z0.000000 I-0.072578 J-0.121032
G03 X45.680885 Y48.242074 Z0.000000 I-0.033564 J-0.137076
G01 X45.680885 Y48.242076 Z0.000000
M63 P0

(End cutting path id: path3979)


(Start cutting path id: path3977)
(Change tool to Default tool)

M63 P0
G00 X103.880399 Y131.068787

M62 P0(Penetrate)
G03 X103.797766 Y131.035449 Z0.000000 I0.008785 J-0.140852 F200.000000
G03 X103.751577 Y130.959249 Z0.000000 I0.091418 J-0.107513
G03 X103.760246 Y130.870566 Z0.000000 I0.137607 J-0.031313
G03 X103.820317 Y130.804754 Z0.000000 I0.128938 J0.057369
G01 X109.820847 Y127.340917 Z0.000000
G03 X109.892456 Y127.319148 Z0.000000 I0.075381 J0.119307
G03 X109.965127 Y127.337060 Z0.000000 I0.003771 J0.141075
G03 X110.018418 Y127.389613 Z0.000000 I-0.068899 J0.123164
G03 X110.037342 Y127.462026 Z0.000000 I-0.122190 J0.070611
G03 X110.016574 Y127.533932 Z0.000000 I-0.141114 J-0.001803
G03 X109.961958 Y127.585107 Z0.000000 I-0.120347 J-0.073709
G01 X103.961428 Y131.049495 Z0.000000
G03 X103.922370 Y131.065261 Z0.000000 I-0.071764 J-0.121517
G03 X103.880399 Y131.068799 Z0.000000 I-0.032706 J-0.137283
G01 X103.880399 Y131.068787 Z0.000000
M63 P0

(End cutting path id: path3977)


(Start cutting path id: path3975)
(Change tool to Default tool)

M63 P0
G00 X65.180677 Y48.242076

M62 P0(Penetrate)
G03 X65.098043 Y48.208738 Z0.000000 I0.008785 J-0.140852 F200.000000
G03 X65.051854 Y48.132538 Z0.000000 I0.091418 J-0.107513
G03 X65.060523 Y48.043855 Z0.000000 I0.137607 J-0.031313
G03 X65.120595 Y47.978043 Z0.000000 I0.128938 J0.057369
G01 X70.820710 Y44.687290 Z0.000000
G03 X70.892325 Y44.665505 Z0.000000 I0.075407 J0.119290
G03 X70.965007 Y44.683411 Z0.000000 I0.003793 J0.141074
G03 X71.018308 Y44.735968 Z0.000000 I-0.068889 J0.123169
